%
(Header)
(Generated by gcodetools from Inkscape.)
(Using default header. To add your own header create file "header" in the output dir.)
M3
(Header end.)
G21 (All units in mm)

(Start cutting path id: path420)
(Change tool to Default tool)

G00 Z5.000000
G00 X-274.342000 Y162.716000

G01 Z-5.250000 F6000.0(Penetrate)
G01 X-274.864000 Y161.954000 Z-5.250000 F6000.000000
G03 X-275.124995 Y161.572825 Z-5.250000 I853.649353 J-584.782962
G03 X-275.385000 Y161.192000 Z-5.250000 I170.031916 J-116.367073
G00 Z5.000000

(End cutting path id: path420)


(Start cutting path id: path420)
(Change tool to Default tool)

G00 Z5.000000
G00 X-274.342000 Y162.716000

G01 Z-5.250000 F6000.0(Penetrate)
G01 X-274.864000 Y161.954000 Z-5.250000 F6000.000000
G03 X-275.124995 Y161.572825 Z-5.250000 I853.649353 J-584.782962
G03 X-275.385000 Y161.192000 Z-5.250000 I170.031916 J-116.367073
G00 Z5.000000

(End cutting path id: path420)


(Start cutting path id: path306)
(Change tool to Default tool)

G00 Z5.000000
G00 X-276.992000 Y162.235000

G01 Z-5.250000 F6000.0(Penetrate)
G02 X-276.566576 Y161.990676 Z-5.250000 I-2.187000 J-4.300611 F6000.000000
G02 X-276.183000 Y161.720000 Z-5.250000 I-3.002654 J-4.662192
G02 X-275.813668 Y161.411412 Z-5.250000 I-3.602676 J-4.687155
G02 X-275.469000 Y161.078000 Z-5.250000 I-5.027381 J-5.541964
G02 X-275.146648 Y160.725775 Z-5.250000 I-6.488122 J-6.261462
G02 X-274.837000 Y160.356000 Z-5.250000 I-10.390145 J-9.015208
G02 X-274.543198 Y159.979838 Z-5.250000 I-14.172662 J-11.372419
G02 X-274.253000 Y159.594000 Z-5.250000 I-37.767090 J-28.707541
G03 X-273.931329 Y159.161063 Z-5.250000 I133.666991 J98.978330
G03 X-273.609000 Y158.729000 Z-5.250000 I665.811972 J496.374329
G01 X-272.962000 Y157.866000 Z-5.250000
G03 X-272.638511 Y157.435680 Z-5.250000 I128.952940 J96.602390
G02 X-272.314000 Y157.005000 Z-5.250000 I-386.750670 J-291.748709
G03 X-271.990011 Y156.574680 Z-5.250000 I1160.577244 J873.464164
G03 X-271.665000 Y156.144000 Z-5.250000 I232.985098 J175.483110
G03 X-271.340319 Y155.713385 Z-5.250000 I244.624595 J184.107751
G02 X-271.016000 Y155.284000 Z-5.250000 I-5132.880174 J-3877.273485
G01 X-270.365000 Y154.423000 Z-5.250000
G03 X-270.040692 Y153.993795 Z-5.250000 I948.123977 J716.056391
G03 X-269.715000 Y153.563000 Z-5.250000 I4783.443695 J3616.308371
G03 X-269.390692 Y153.133795 Z-5.250000 I948.119208 J716.062702
G03 X-269.065000 Y152.703000 Z-5.250000 I4783.564770 J3616.148288
G01 X-268.417000 Y151.842000 Z-5.250000
G03 X-268.092490 Y151.410321 Z-5.250000 I194.265194 J145.698868
G02 X-267.769000 Y150.979000 Z-5.250000 I-96.766256 J-72.911506
G02 X-267.445680 Y150.548115 Z-5.250000 I-149.685883 J-112.655543
G03 X-267.122000 Y150.116000 Z-5.250000 I358.730530 J268.372824
G03 X-266.777458 Y149.702224 Z-5.250000 I3.944362 J2.934052
G02 X-266.430000 Y149.280000 Z-5.250000 I-3.306784 J-3.075304
G02 X-266.180886 Y148.837355 Z-5.250000 I-1.744628 J-1.273273
G02 X-266.071000 Y148.277000 Z-5.250000 I-1.319409 J-0.549689
G00 Z5.000000

(End cutting path id: path306)


(Start cutting path id: path306)
(Change tool to Default tool)

G00 Z5.000000
G00 X-276.992000 Y162.235000

G01 Z-5.250000 F6000.0(Penetrate)
G02 X-276.566576 Y161.990676 Z-5.250000 I-2.187000 J-4.300611 F6000.000000
G02 X-276.183000 Y161.720000 Z-5.250000 I-3.002654 J-4.662192
G02 X-275.813668 Y161.411412 Z-5.250000 I-3.602676 J-4.687155
G02 X-275.469000 Y161.078000 Z-5.250000 I-5.027381 J-5.541964
G02 X-275.146648 Y160.725775 Z-5.250000 I-6.488122 J-6.261462
G02 X-274.837000 Y160.356000 Z-5.250000 I-10.390145 J-9.015208
G02 X-274.543198 Y159.979838 Z-5.250000 I-14.172662 J-11.372419
G02 X-274.253000 Y159.594000 Z-5.250000 I-37.767090 J-28.707541
G03 X-273.931329 Y159.161063 Z-5.250000 I133.666991 J98.978330
G03 X-273.609000 Y158.729000 Z-5.250000 I665.811972 J496.374329
G01 X-272.962000 Y157.866000 Z-5.250000
G03 X-272.638511 Y157.435680 Z-5.250000 I128.952940 J96.602390
G02 X-272.314000 Y157.005000 Z-5.250000 I-386.750670 J-291.748709
G03 X-271.990011 Y156.574680 Z-5.250000 I1160.577244 J873.464164
G03 X-271.665000 Y156.144000 Z-5.250000 I232.985098 J175.483110
G03 X-271.340319 Y155.713385 Z-5.250000 I244.624595 J184.107751
G02 X-271.016000 Y155.284000 Z-5.250000 I-5132.880174 J-3877.273485
G01 X-270.365000 Y154.423000 Z-5.250000
G03 X-270.040692 Y153.993795 Z-5.250000 I948.123977 J716.056391
G03 X-269.715000 Y153.563000 Z-5.250000 I4783.443695 J3616.308371
G03 X-269.390692 Y153.133795 Z-5.250000 I948.119208 J716.062702
G03 X-269.065000 Y152.703000 Z-5.250000 I4783.564770 J3616.148288
G01 X-268.417000 Y151.842000 Z-5.250000
G03 X-268.092490 Y151.410321 Z-5.250000 I194.265194 J145.698868
G02 X-267.769000 Y150.979000 Z-5.250000 I-96.766256 J-72.911506
G02 X-267.445680 Y150.548115 Z-5.250000 I-149.685883 J-112.655543
G03 X-267.122000 Y150.116000 Z-5.250000 I358.730530 J268.372824
G03 X-266.777458 Y149.702224 Z-5.250000 I3.944362 J2.934052
G02 X-266.430000 Y149.280000 Z-5.250000 I-3.306784 J-3.075304
G02 X-266.180886 Y148.837355 Z-5.250000 I-1.744628 J-1.273273
G02 X-266.071000 Y148.277000 Z-5.250000 I-1.319409 J-0.549689
G00 Z5.000000

(End cutting path id: path306)


(Start cutting path id: path328)
(Change tool to Default tool)

G00 Z5.000000
G00 X-271.210000 Y147.956000

G01 Z-5.250000 F6000.0(Penetrate)
G02 X-271.138784 Y147.633468 Z-5.250000 I-6.035560 J-1.501806 F6000.000000
G03 X-271.072000 Y147.309000 Z-5.250000 I13.299049 J2.568167
G03 X-270.990537 Y146.983495 Z-5.250000 I4.850694 J1.041017
G03 X-270.878000 Y146.677000 Z-5.250000 I2.156433 J0.617880
G02 X-270.676252 Y146.199009 Z-5.250000 I-8.828531 J-4.007873
G02 X-270.503000 Y145.723000 Z-5.250000 I-10.010144 J-3.912905
G02 X-270.350613 Y145.229135 Z-5.250000 I-9.717115 J-3.268754
G02 X-270.224000 Y144.736000 Z-5.250000 I-10.768458 J-3.027638
G02 X-270.119527 Y144.232495 Z-5.250000 I-11.393359 J-2.626613
G02 X-270.037000 Y143.727000 Z-5.250000 I-12.129508 J-2.239749
G02 X-269.976183 Y143.219042 Z-5.250000 I-13.330753 J-1.853685
G02 X-269.934000 Y142.707000 Z-5.250000 I-14.234278 J-1.430411
G02 X-269.909790 Y142.196732 Z-5.250000 I-14.815492 J-0.958649
G02 X-269.902000 Y141.681000 Z-5.250000 I-17.068745 J-0.515732
G02 X-269.908336 Y141.170927 Z-5.250000 I-16.602401 J-0.048831
G02 X-269.929000 Y140.656000 Z-5.250000 I-20.903120 J0.580946
G02 X-269.958746 Y140.194125 Z-5.250000 I-14.768855 J0.719262
G02 X-269.999000 Y139.733000 Z-5.250000 I-32.452796 J2.600646
G02 X-270.043258 Y139.271932 Z-5.250000 I-152.371643 J14.393412
G03 X-270.086000 Y138.811000 Z-5.250000 I48.562527 J-4.735663
G00 Z5.000000

(End cutting path id: path328)


(Start cutting path id: path328)
(Change tool to Default tool)

G00 Z5.000000
G00 X-271.210000 Y147.956000

G01 Z-5.250000 F6000.0(Penetrate)
G02 X-271.138784 Y147.633468 Z-5.250000 I-6.035560 J-1.501806 F6000.000000
G03 X-271.072000 Y147.309000 Z-5.250000 I13.299049 J2.568167
G03 X-270.990537 Y146.983495 Z-5.250000 I4.850694 J1.041017
G03 X-270.878000 Y146.677000 Z-5.250000 I2.156433 J0.617880
G02 X-270.676252 Y146.199009 Z-5.250000 I-8.828531 J-4.007873
G02 X-270.503000 Y145.723000 Z-5.250000 I-10.010144 J-3.912905
G02 X-270.350613 Y145.229135 Z-5.250000 I-9.717115 J-3.268754
G02 X-270.224000 Y144.736000 Z-5.250000 I-10.768458 J-3.027638
G02 X-270.119527 Y144.232495 Z-5.250000 I-11.393359 J-2.626613
G02 X-270.037000 Y143.727000 Z-5.250000 I-12.129508 J-2.239749
G02 X-269.976183 Y143.219042 Z-5.250000 I-13.330753 J-1.853685
G02 X-269.934000 Y142.707000 Z-5.250000 I-14.234278 J-1.430411
G02 X-269.909790 Y142.196732 Z-5.250000 I-14.815492 J-0.958649
G02 X-269.902000 Y141.681000 Z-5.250000 I-17.068745 J-0.515732
G02 X-269.908336 Y141.170927 Z-5.250000 I-16.602401 J-0.048831
G02 X-269.929000 Y140.656000 Z-5.250000 I-20.903120 J0.580946
G02 X-269.958746 Y140.194125 Z-5.250000 I-14.768855 J0.719262
G02 X-269.999000 Y139.733000 Z-5.250000 I-32.452796 J2.600646
G02 X-270.043258 Y139.271932 Z-5.250000 I-152.371643 J14.393412
G03 X-270.086000 Y138.811000 Z-5.250000 I48.562527 J-4.735663
G00 Z5.000000

(End cutting path id: path328)


(Start cutting path id: path378)
(Change tool to Default tool)

G00 Z5.000000
G00 X-271.692000 Y145.950000

G01 Z-5.250000 F6000.0(Penetrate)
G02 X-272.169217 Y145.738875 Z-5.250000 I-23.068071 J51.497031 F6000.000000
G03 X-272.647000 Y145.526000 Z-5.250000 I14.451792 J-33.078676
G03 X-273.121511 Y145.303268 Z-5.250000 I7.915922 J-17.480994
G03 X-273.584000 Y145.064000 Z-5.250000 I4.570778 J-9.401623
G03 X-274.032755 Y144.797126 Z-5.250000 I4.145192 J-7.480968
G03 X-274.461000 Y144.497000 Z-5.250000 I3.175676 J-4.986916
G03 X-274.850321 Y144.165221 Z-5.250000 I3.200089 J-4.149398
G03 X-275.217000 Y143.778000 Z-5.250000 I3.148729 J-3.348920
G03 X-275.441474 Y143.399870 Z-5.250000 I1.025199 J-0.864293
G02 X-275.626000 Y142.982000 Z-5.250000 I-4.750665 J1.848162
G00 Z5.000000

(End cutting path id: path378)


(Start cutting path id: path378)
(Change tool to Default tool)

G00 Z5.000000
G00 X-271.692000 Y145.950000

G01 Z-5.250000 F6000.0(Penetrate)
G02 X-272.169217 Y145.738875 Z-5.250000 I-23.068071 J51.497031 F6000.000000
G03 X-272.647000 Y145.526000 Z-5.250000 I14.451792 J-33.078676
G03 X-273.121511 Y145.303268 Z-5.250000 I7.915922 J-17.480994
G03 X-273.584000 Y145.064000 Z-5.250000 I4.570778 J-9.401623
G03 X-274.032755 Y144.797126 Z-5.250000 I4.145192 J-7.480968
G03 X-274.461000 Y144.497000 Z-5.250000 I3.175676 J-4.986916
G03 X-274.850321 Y144.165221 Z-5.250000 I3.200089 J-4.149398
G03 X-275.217000 Y143.778000 Z-5.250000 I3.148729 J-3.348920
G03 X-275.441474 Y143.399870 Z-5.250000 I1.025199 J-0.864293
G02 X-275.626000 Y142.982000 Z-5.250000 I-4.750665 J1.848162
G00 Z5.000000

(End cutting path id: path378)


(Start cutting path id: path278)
(Change tool to Default tool)

G00 Z5.000000
G00 X-288.355000 Y141.458000

G01 Z-5.250000 F6000.0(Penetrate)
G03 X-288.407908 Y142.014067 Z-5.250000 I-45.265304 J-4.026294 F6000.000000
G03 X-288.469000 Y142.568000 Z-5.250000 I-31.371654 J-3.179576
G03 X-288.539802 Y143.122516 Z-5.250000 I-32.152462 J-3.823536
G03 X-288.621000 Y143.674000 Z-5.250000 I-26.159344 J-3.569858
G03 X-288.715859 Y144.224974 Z-5.250000 I-23.955870 J-3.840751
G03 X-288.824000 Y144.771000 Z-5.250000 I-20.271832 J-3.731121
G03 X-288.948804 Y145.314953 Z-5.250000 I-18.894131 J-4.048742
G03 X-289.090000 Y145.854000 Z-5.250000 I-16.700906 J-4.086570
G03 X-289.249706 Y146.387564 Z-5.250000 I-14.542020 J-4.062017
G03 X-289.430000 Y146.917000 Z-5.250000 I-14.060613 J-4.492787
G03 X-289.629255 Y147.434975 Z-5.250000 I-13.148489 J-4.760660
G03 X-289.853000 Y147.950000 Z-5.250000 I-11.424552 J-4.657113
G03 X-290.036700 Y148.325685 Z-5.250000 I-8.775221 J-4.058106
G03 X-290.237000 Y148.697000 Z-5.250000 I-10.257273 J-5.293429
G03 X-290.448826 Y149.058246 Z-5.250000 I-13.139390 J-7.461876
G03 X-290.671000 Y149.416000 Z-5.250000 I-15.612984 J-9.448205
G03 X-290.899250 Y149.768697 Z-5.250000 I-21.637669 J-13.752756
G03 X-291.131000 Y150.118000 Z-5.250000 I-54.441657 J-35.868523
G02 X-291.425306 Y150.567535 Z-5.250000 I24.520928 J16.374714
G02 X-291.711000 Y151.021000 Z-5.250000 I27.011153 J17.334409
G02 X-291.988404 Y151.480879 Z-5.250000 I31.669715 J19.417170
G02 X-292.258000 Y151.944000 Z-5.250000 I27.512322 J16.325700
G02 X-292.519828 Y152.412765 Z-5.250000 I29.057903 J16.537777
G02 X-292.774000 Y152.885000 Z-5.250000 I30.977953 J16.977820
G02 X-293.021412 Y153.361822 Z-5.250000 I38.130556 J20.087706
G02 X-293.261000 Y153.841000 Z-5.250000 I27.235121 J13.916965
G02 X-293.495059 Y154.325264 Z-5.250000 I40.618992 J19.931058
G02 X-293.722000 Y154.811000 Z-5.250000 I33.593008 J15.990882
G02 X-293.942437 Y155.299858 Z-5.250000 I39.012205 J17.885595
G02 X-294.157000 Y155.792000 Z-5.250000 I39.323494 J17.437023
G02 X-294.366614 Y156.286355 Z-5.250000 I38.387658 J16.568533
G02 X-294.571000 Y156.783000 Z-5.250000 I58.963502 J24.555877
G02 X-294.702181 Y157.131093 Z-5.250000 I7.985969 J3.208337
G02 X-294.817000 Y157.491000 Z-5.250000 I5.945508 J2.095022
G02 X-294.907837 Y157.857946 Z-5.250000 I5.181851 J1.477470
G02 X-294.968000 Y158.225000 Z-5.250000 I4.034706 J0.849782
G03 X-295.063220 Y158.778352 Z-5.250000 I-4.988484 J-0.573542
G03 X-295.208000 Y159.289000 Z-5.250000 I-5.182476 J-1.193499
G03 X-295.409414 Y159.800092 Z-5.250000 I-5.367392 J-1.819978
G03 X-295.653000 Y160.286000 Z-5.250000 I-6.072173 J-2.739976
G03 X-295.932246 Y160.752900 Z-5.250000 I-6.634983 J-3.651327
G03 X-296.242000 Y161.206000 Z-5.250000 I-9.317287 J-6.037177
G03 X-296.570185 Y161.640085 Z-5.250000 I-10.811637 J-7.832920
G03 X-296.915000 Y162.068000 Z-5.250000 I-20.486727 J-16.155356
G03 X-297.207487 Y162.414964 Z-5.250000 I-20.238349 J-16.763954
G03 X-297.507000 Y162.757000 Z-5.250000 I-16.966868 J-14.555335
G03 X-297.811206 Y163.094470 Z-5.250000 I-25.377058 J-22.569862
G03 X-298.119000 Y163.428000 Z-5.250000 I-33.544457 J-30.647251
G03 X-298.430273 Y163.759272 Z-5.250000 I-43.329734 J-40.402049
G03 X-298.743000 Y164.089000 Z-5.250000 I-200.905184 J-190.233105
G03 X-299.055552 Y164.418687 Z-5.250000 I-121.570798 J-114.939664
G02 X-299.367000 Y164.748000 Z-5.250000 I64.151841 J60.983408
G03 X-299.741514 Y165.133505 Z-5.250000 I-12.936757 J-12.193265
G03 X-300.125000 Y165.507000 Z-5.250000 I-15.083408 J-15.103252
G03 X-300.517736 Y165.871969 Z-5.250000 I-16.948116 J-17.843748
G03 X-300.916000 Y166.229000 Z-5.250000 I-25.647455 J-28.208791
G03 X-301.319575 Y166.581937 Z-5.250000 I-32.127627 J-36.329974
G03 X-301.726000 Y166.931000 Z-5.250000 I-51.272347 J-59.286845
G03 X-302.132904 Y167.279650 Z-5.250000 I-103.095612 J-119.909487
G02 X-302.539000 Y167.629000 Z-5.250000 I47.421405 J55.534927
G02 X-302.943395 Y167.981880 Z-5.250000 I33.628377 J38.945684
G02 X-303.343000 Y168.339000 Z-5.250000 I26.769818 J30.356691
G02 X-303.735349 Y168.702865 Z-5.250000 I18.117545 J19.929299
G02 X-304.120000 Y169.077000 Z-5.250000 I13.306023 J14.064809
G02 X-304.493677 Y169.460420 Z-5.250000 I12.723185 J12.773674
G02 X-304.855000 Y169.857000 Z-5.250000 I10.383216 J9.823016
G02 X-305.040611 Y170.073229 Z-5.250000 I6.492610 J5.761049
G02 X-305.221000 Y170.294000 Z-5.250000 I13.946484 J11.579540
G02 X-305.400158 Y170.516416 Z-5.250000 I34.591237 J28.046949
G03 X-305.580000 Y170.738000 Z-5.250000 I-16.145435 J-12.920163
G00 Z5.000000

(End cutting path id: path278)


(Start cutting path id: path278)
(Change tool to Default tool)

G00 Z5.000000
G00 X-288.355000 Y141.458000

G01 Z-5.250000 F6000.0(Penetrate)
G03 X-288.407908 Y142.014067 Z-5.250000 I-45.265304 J-4.026294 F6000.000000
G03 X-288.469000 Y142.568000 Z-5.250000 I-31.371654 J-3.179576
G03 X-288.539802 Y143.122516 Z-5.250000 I-32.152462 J-3.823536
G03 X-288.621000 Y143.674000 Z-5.250000 I-26.159344 J-3.569858
G03 X-288.715859 Y144.224974 Z-5.250000 I-23.955870 J-3.840751
G03 X-288.824000 Y144.771000 Z-5.250000 I-20.271832 J-3.731121
G03 X-288.948804 Y145.314953 Z-5.250000 I-18.894131 J-4.048742
G03 X-289.090000 Y145.854000 Z-5.250000 I-16.700906 J-4.086570
G03 X-289.249706 Y146.387564 Z-5.250000 I-14.542020 J-4.062017
G03 X-289.430000 Y146.917000 Z-5.250000 I-14.060613 J-4.492787
G03 X-289.629255 Y147.434975 Z-5.250000 I-13.148489 J-4.760660
G03 X-289.853000 Y147.950000 Z-5.250000 I-11.424552 J-4.657113
G03 X-290.036700 Y148.325685 Z-5.250000 I-8.775221 J-4.058106
G03 X-290.237000 Y148.697000 Z-5.250000 I-10.257273 J-5.293429
G03 X-290.448826 Y149.058246 Z-5.250000 I-13.139390 J-7.461876
G03 X-290.671000 Y149.416000 Z-5.250000 I-15.612984 J-9.448205
G03 X-290.899250 Y149.768697 Z-5.250000 I-21.637669 J-13.752756
G03 X-291.131000 Y150.118000 Z-5.250000 I-54.441657 J-35.868523
G02 X-291.425306 Y150.567535 Z-5.250000 I24.520928 J16.374714
G02 X-291.711000 Y151.021000 Z-5.250000 I27.011153 J17.334409
G02 X-291.988404 Y151.480879 Z-5.250000 I31.669715 J19.417170
G02 X-292.258000 Y151.944000 Z-5.250000 I27.512322 J16.325700
G02 X-292.519828 Y152.412765 Z-5.250000 I29.057903 J16.537777
G02 X-292.774000 Y152.885000 Z-5.250000 I30.977953 J16.977820
G02 X-293.021412 Y153.361822 Z-5.250000 I38.130556 J20.087706
G02 X-293.261000 Y153.841000 Z-5.250000 I27.235121 J13.916965
G02 X-293.495059 Y154.325264 Z-5.250000 I40.618992 J19.931058
G02 X-293.722000 Y154.811000 Z-5.250000 I33.593008 J15.990882
G02 X-293.942437 Y155.299858 Z-5.250000 I39.012205 J17.885595
G02 X-294.157000 Y155.792000 Z-5.250000 I39.323494 J17.437023
G02 X-294.366614 Y156.286355 Z-5.250000 I38.387658 J16.568533
G02 X-294.571000 Y156.783000 Z-5.250000 I58.963502 J24.555877
G02 X-294.702181 Y157.131093 Z-5.250000 I7.985969 J3.208337
G02 X-294.817000 Y157.491000 Z-5.250000 I5.945508 J2.095022
G02 X-294.907837 Y157.857946 Z-5.250000 I5.181851 J1.477470
G02 X-294.968000 Y158.225000 Z-5.250000 I4.034706 J0.849782
G03 X-295.063220 Y158.778352 Z-5.250000 I-4.988484 J-0.573542
G03 X-295.208000 Y159.289000 Z-5.250000 I-5.182476 J-1.193499
G03 X-295.409414 Y159.800092 Z-5.250000 I-5.367392 J-1.819978
G03 X-295.653000 Y160.286000 Z-5.250000 I-6.072173 J-2.739976
G03 X-295.932246 Y160.752900 Z-5.250000 I-6.634983 J-3.651327
G03 X-296.242000 Y161.206000 Z-5.250000 I-9.317287 J-6.037177
G03 X-296.570185 Y161.640085 Z-5.250000 I-10.811637 J-7.832920
G03 X-296.915000 Y162.068000 Z-5.250000 I-20.486727 J-16.155356
G03 X-297.207487 Y162.414964 Z-5.250000 I-20.238349 J-16.763954
G03 X-297.507000 Y162.757000 Z-5.250000 I-16.966868 J-14.555335
G03 X-297.811206 Y163.094470 Z-5.250000 I-25.377058 J-22.569862
G03 X-298.119000 Y163.428000 Z-5.250000 I-33.544457 J-30.647251
G03 X-298.430273 Y163.759272 Z-5.250000 I-43.329734 J-40.402049
G03 X-298.743000 Y164.089000 Z-5.250000 I-200.905184 J-190.233105
G03 X-299.055552 Y164.418687 Z-5.250000 I-121.570798 J-114.939664
G02 X-299.367000 Y164.748000 Z-5.250000 I64.151841 J60.983408
G03 X-299.741514 Y165.133505 Z-5.250000 I-12.936757 J-12.193265
G03 X-300.125000 Y165.507000 Z-5.250000 I-15.083408 J-15.103252
G03 X-300.517736 Y165.871969 Z-5.250000 I-16.948116 J-17.843748
G03 X-300.916000 Y166.229000 Z-5.250000 I-25.647455 J-28.208791
G03 X-301.319575 Y166.581937 Z-5.250000 I-32.127627 J-36.329974
G03 X-301.726000 Y166.931000 Z-5.250000 I-51.272347 J-59.286845
G03 X-302.132904 Y167.279650 Z-5.250000 I-103.095612 J-119.909487
G02 X-302.539000 Y167.629000 Z-5.250000 I47.421405 J55.534927
G02 X-302.943395 Y167.981880 Z-5.250000 I33.628377 J38.945684
G02 X-303.343000 Y168.339000 Z-5.250000 I26.769818 J30.356691
G02 X-303.735349 Y168.702865 Z-5.250000 I18.117545 J19.929299
G02 X-304.120000 Y169.077000 Z-5.250000 I13.306023 J14.064809
G02 X-304.493677 Y169.460420 Z-5.250000 I12.723185 J12.773674
G02 X-304.855000 Y169.857000 Z-5.250000 I10.383216 J9.823016
G02 X-305.040611 Y170.073229 Z-5.250000 I6.492610 J5.761049
G02 X-305.221000 Y170.294000 Z-5.250000 I13.946484 J11.579540
G02 X-305.400158 Y170.516416 Z-5.250000 I34.591237 J28.046949
G03 X-305.580000 Y170.738000 Z-5.250000 I-16.145435 J-12.920163
G00 Z5.000000

(End cutting path id: path278)


(Start cutting path id: path374)
(Change tool to Default tool)

G00 Z5.000000
G00 X-303.090000 Y169.374000

G01 Z-5.250000 F6000.0(Penetrate)
G03 X-302.618480 Y169.083689 Z-5.250000 I93.723348 J151.696556 F6000.000000
G03 X-302.146000 Y168.794000 Z-5.250000 I467.253851 J761.555468
G03 X-301.673353 Y168.503333 Z-5.250000 I223.877453 J363.512647
G02 X-301.202000 Y168.213000 Z-5.250000 I-106.485958 J-173.406870
G02 X-300.731191 Y167.921291 Z-5.250000 I-114.637431 J-185.547179
G02 X-300.261000 Y167.628000 Z-5.250000 I-83.776642 J-134.830327
G02 X-299.791080 Y167.332438 Z-5.250000 I-43.009131 J-68.902383
G02 X-299.324000 Y167.035000 Z-5.250000 I-67.975916 J-107.261114
G02 X-299.175831 Y166.816011 Z-5.250000 I-0.180599 J-0.281814
G03 X-299.075000 Y166.486000 Z-5.250000 I1.576358 J0.301230
G00 Z5.000000

(End cutting path id: path374)


(Start cutting path id: path374)
(Change tool to Default tool)

G00 Z5.000000
G00 X-303.090000 Y169.374000

G01 Z-5.250000 F6000.0(Penetrate)
G03 X-302.618480 Y169.083689 Z-5.250000 I93.723348 J151.696556 F6000.000000
G03 X-302.146000 Y168.794000 Z-5.250000 I467.253851 J761.555468
G03 X-301.673353 Y168.503333 Z-5.250000 I223.877453 J363.512647
G02 X-301.202000 Y168.213000 Z-5.250000 I-106.485958 J-173.406870
G02 X-300.731191 Y167.921291 Z-5.250000 I-114.637431 J-185.547179
G02 X-300.261000 Y167.628000 Z-5.250000 I-83.776642 J-134.830327
G02 X-299.791080 Y167.332438 Z-5.250000 I-43.009131 J-68.902383
G02 X-299.324000 Y167.035000 Z-5.250000 I-67.975916 J-107.261114
G02 X-299.175831 Y166.816011 Z-5.250000 I-0.180599 J-0.281814
G03 X-299.075000 Y166.486000 Z-5.250000 I1.576358 J0.301230
G00 Z5.000000

(End cutting path id: path374)


(Start cutting path id: path320)
(Change tool to Default tool)

G00 Z5.000000
G00 X-298.111000 Y166.085000

G01 Z-5.250000 F6000.0(Penetrate)
G03 X-297.706382 Y165.783187 Z-5.250000 I11.054351 J14.397618 F6000.000000
G03 X-297.296000 Y165.487000 Z-5.250000 I81.789653 J112.891226
G02 X-296.884449 Y165.189296 Z-5.250000 I-32.047338 J-44.736132
G02 X-296.482000 Y164.886000 Z-5.250000 I-9.932330 J-13.598036
G02 X-296.088730 Y164.565669 Z-5.250000 I-7.177140 J-9.212963
G02 X-295.716000 Y164.226000 Z-5.250000 I-4.841018 J-5.686534
G02 X-295.352741 Y163.872241 Z-5.250000 I-50.556769 J-52.277851
G02 X-294.991000 Y163.517000 Z-5.250000 I-254.537464 J-259.556542
G02 X-294.629936 Y163.159812 Z-5.250000 I-206.100364 J-208.698270
G02 X-294.270000 Y162.803000 Z-5.250000 I-1027.116559 J-1036.467516
G02 X-293.911626 Y162.443876 Z-5.250000 I-171.721842 J-171.721822
G02 X-293.554000 Y162.084000 Z-5.250000 I-171.604202 J-170.888708
G02 X-293.197127 Y161.723877 Z-5.250000 I-516.242895 J-511.940855
G02 X-292.841000 Y161.363000 Z-5.250000 I-103.326313 J-102.322447
G02 X-292.485629 Y161.000879 Z-5.250000 I-174.146164 J-171.255763
G02 X-292.131000 Y160.638000 Z-5.250000 I-172.101341 J-168.543089
G02 X-291.777130 Y160.274881 Z-5.250000 I-520.611814 J-507.703937
G02 X-291.424000 Y159.911000 Z-5.250000 I-104.208287 J-101.482953
G02 X-291.070818 Y159.547449 Z-5.250000 I-94.778335 J-92.428456
G02 X-290.718000 Y159.182000 Z-5.250000 I-151.674606 J-146.785312
G02 X-290.365687 Y158.817569 Z-5.250000 I-1062.723749 J-1027.738206
G02 X-290.013000 Y158.452000 Z-5.250000 I-213.702954 J-206.525665
G02 X-289.852225 Y158.230086 Z-5.250000 I-0.711174 J-0.684438
G02 X-289.727000 Y157.957000 Z-5.250000 I-2.298569 J-1.219273
G02 X-289.625395 Y157.684231 Z-5.250000 I-7.479886 J-2.941528
G03 X-289.519000 Y157.422000 Z-5.250000 I2.842514 J1.000593
G00 Z5.000000

(End cutting path id: path320)


(Start cutting path id: path320)
(Change tool to Default tool)

G00 Z5.000000
G00 X-298.111000 Y166.085000

G01 Z-5.250000 F6000.0(Penetrate)
G03 X-297.706382 Y165.783187 Z-5.250000 I11.054351 J14.397618 F6000.000000
G03 X-297.296000 Y165.487000 Z-5.250000 I81.789653 J112.891226
G02 X-296.884449 Y165.189296 Z-5.250000 I-32.047338 J-44.736132
G02 X-296.482000 Y164.886000 Z-5.250000 I-9.932330 J-13.598036
G02 X-296.088730 Y164.565669 Z-5.250000 I-7.177140 J-9.212963
G02 X-295.716000 Y164.226000 Z-5.250000 I-4.841018 J-5.686534
G02 X-295.352741 Y163.872241 Z-5.250000 I-50.556769 J-52.277851
G02 X-294.991000 Y163.517000 Z-5.250000 I-254.537464 J-259.556542
G02 X-294.629936 Y163.159812 Z-5.250000 I-206.100364 J-208.698270
G02 X-294.270000 Y162.803000 Z-5.250000 I-1027.116559 J-1036.467516
G02 X-293.911626 Y162.443876 Z-5.250000 I-171.721842 J-171.721822
G02 X-293.554000 Y162.084000 Z-5.250000 I-171.604202 J-170.888708
G02 X-293.197127 Y161.723877 Z-5.250000 I-516.242895 J-511.940855
G02 X-292.841000 Y161.363000 Z-5.250000 I-103.326313 J-102.322447
G02 X-292.485629 Y161.000879 Z-5.250000 I-174.146164 J-171.255763
G02 X-292.131000 Y160.638000 Z-5.250000 I-172.101341 J-168.543089
G02 X-291.777130 Y160.274881 Z-5.250000 I-520.611814 J-507.703937
G02 X-291.424000 Y159.911000 Z-5.250000 I-104.208287 J-101.482953
G02 X-291.070818 Y159.547449 Z-5.250000 I-94.778335 J-92.428456
G02 X-290.718000 Y159.182000 Z-5.250000 I-151.674606 J-146.785312
G02 X-290.365687 Y158.817569 Z-5.250000 I-1062.723749 J-1027.738206
G02 X-290.013000 Y158.452000 Z-5.250000 I-213.702954 J-206.525665
G02 X-289.852225 Y158.230086 Z-5.250000 I-0.711174 J-0.684438
G02 X-289.727000 Y157.957000 Z-5.250000 I-2.298569 J-1.219273
G02 X-289.625395 Y157.684231 Z-5.250000 I-7.479886 J-2.941528
G03 X-289.519000 Y157.422000 Z-5.250000 I2.842514 J1.000593
G00 Z5.000000

(End cutting path id: path320)


(Start cutting path id: path282)
(Change tool to Default tool)

G00 Z5.000000
G00 X-287.351000 Y155.657000

G01 Z-5.250000 F6000.0(Penetrate)
G03 X-287.036289 Y155.208060 Z-5.250000 I33.550704 J23.184539 F6000.000000
G03 X-286.717000 Y154.762000 Z-5.250000 I71.487889 J50.833672
G02 X-286.395848 Y154.317714 Z-5.250000 I-2743.213750 J-1983.269225
G02 X-286.077000 Y153.872000 Z-5.250000 I-45.763577 J-33.074546
G02 X-285.761781 Y153.422989 Z-5.250000 I-35.737420 J-25.423936
G02 X-285.455000 Y152.969000 Z-5.250000 I-19.459953 J-13.480591
G02 X-285.159928 Y152.507580 Z-5.250000 I-16.645231 J-10.969480
G02 X-284.879000 Y152.037000 Z-5.250000 I-13.686636 J-8.489812
G01 X-284.326000 Y151.067000 Z-5.250000
G02 X-284.050695 Y150.580998 Z-5.250000 I-224.133432 J-127.285644
G02 X-283.776000 Y150.094000 Z-5.250000 I-327.065235 J-184.804577
G02 X-283.501730 Y149.607341 Z-5.250000 I-259.058313 J-146.319976
G02 X-283.229000 Y149.120000 Z-5.250000 I-117.986908 J-66.348862
G02 X-282.957232 Y148.631843 Z-5.250000 I-97.533009 J-54.618485
G02 X-282.687000 Y148.143000 Z-5.250000 I-488.716624 J-270.481576
G02 X-282.417894 Y147.654010 Z-5.250000 I-175.409227 J-96.851721
G02 X-282.150000 Y147.163000 Z-5.250000 I-109.062890 J-59.822959
G02 X-281.884896 Y146.672519 Z-5.250000 I-403.365453 J-218.335430
G02 X-281.621000 Y146.180000 Z-5.250000 I-81.151894 J-43.798790
G02 X-281.358439 Y145.687370 Z-5.250000 I-87.687054 J-47.051590
G02 X-281.098000 Y145.193000 Z-5.250000 I-122.749416 J-64.981354
G02 X-280.840744 Y144.697365 Z-5.250000 I-144.981622 J-75.566178
G02 X-280.585000 Y144.201000 Z-5.250000 I-191.306087 J-98.881597
G02 X-280.331346 Y143.702570 Z-5.250000 I-99.824793 J-51.115105
G02 X-280.081000 Y143.204000 Z-5.250000 I-85.727582 J-43.358438
G02 X-279.886661 Y142.771714 Z-5.250000 I-5.338173 J-2.659655
G02 X-279.722000 Y142.321000 Z-5.250000 I-6.855205 J-2.759880
G02 X-279.584375 Y141.868243 Z-5.250000 I-8.113916 J-2.713684
G02 X-279.466000 Y141.402000 Z-5.250000 I-12.340389 J-3.381275
G02 X-279.363242 Y140.936136 Z-5.250000 I-15.586361 J-3.682215
G02 X-279.271000 Y140.468000 Z-5.250000 I-30.534554 J-6.259741
G02 X-279.181455 Y139.995908 Z-5.250000 I-53.279594 J-10.350494
G03 X-279.094000 Y139.530000 Z-5.250000 I92.322584 J17.088520
G02 X-278.991742 Y138.990832 Z-5.250000 I-52.435472 J-10.224187
G02 X-278.894000 Y138.451000 Z-5.250000 I-84.858948 J-15.643244
G03 X-278.799387 Y137.910564 Z-5.250000 I4047.726308 J708.353910
G03 X-278.704000 Y137.370000 Z-5.250000 I211.169061 J36.983640
G03 X-278.606760 Y136.829668 Z-5.250000 I127.627703 J22.689370
G03 X-278.505000 Y136.290000 Z-5.250000 I43.589573 J7.939850
G03 X-278.398145 Y135.752354 Z-5.250000 I42.691437 J8.205318
G03 X-278.283000 Y135.216000 Z-5.250000 I29.931520 J6.145186
G03 X-278.156503 Y134.681504 Z-5.250000 I28.870774 J6.550512
G03 X-278.018000 Y134.150000 Z-5.250000 I20.123462 J4.960114
G03 X-277.866430 Y133.624220 Z-5.250000 I18.312601 J4.994346
G03 X-277.698000 Y133.101000 Z-5.250000 I16.078789 J4.887219
G03 X-277.512539 Y132.586987 Z-5.250000 I15.466007 J5.289823
G03 X-277.306000 Y132.076000 Z-5.250000 I12.192885 J4.631085
G03 X-277.090877 Y131.609448 Z-5.250000 I8.237434 J3.515338
G03 X-276.845000 Y131.171000 Z-5.250000 I4.472055 J2.219714
G03 X-276.543989 Y130.754890 Z-5.250000 I3.352789 J2.108455
G03 X-276.190000 Y130.398000 Z-5.250000 I2.150317 J1.778837
G03 X-275.792624 Y130.124807 Z-5.250000 I1.577878 J1.869524
G03 X-275.301000 Y129.920000 Z-5.250000 I1.183015 J2.147277
G03 X-274.775580 Y129.787941 Z-5.250000 I2.046405 J7.030718
G03 X-274.290000 Y129.706000 Z-5.250000 I1.216223 J5.727561
G03 X-273.748079 Y129.666258 Z-5.250000 I0.639378 J5.003827
G03 X-273.258000 Y129.687000 Z-5.250000 I0.076943 J3.981979
G03 X-272.732008 Y129.780307 Z-5.250000 I-0.357342 J3.543643
G03 X-272.260000 Y129.944000 Z-5.250000 I-0.745553 J2.912158
G03 X-271.815702 Y130.190593 Z-5.250000 I-1.163319 J2.619560
G03 X-271.410000 Y130.523000 Z-5.250000 I-1.618991 J2.389758
G03 X-271.093085 Y130.890520 Z-5.250000 I-2.188708 J2.207740
G03 X-270.802000 Y131.356000 Z-5.250000 I-2.967675 J2.179568
G03 X-270.605055 Y131.790460 Z-5.250000 I-3.759295 J1.965992
G03 X-270.431000 Y132.320000 Z-5.250000 I-5.021259 J1.943821
G03 X-270.310786 Y132.797791 Z-5.250000 I-12.901223 J3.500016
G03 X-270.209000 Y133.276000 Z-5.250000 I-12.985140 J3.013801
G03 X-270.124112 Y133.760001 Z-5.250000 I-14.537928 J2.799228
G03 X-270.055000 Y134.246000 Z-5.250000 I-15.375393 J2.434382
G03 X-269.999914 Y134.732965 Z-5.250000 I-14.938324 J1.936449
G03 X-269.959000 Y135.223000 Z-5.250000 I-18.714627 J1.809232
G03 X-269.931249 Y135.712991 Z-5.250000 I-22.656195 J1.528946
G03 X-269.914000 Y136.204000 Z-5.250000 I-23.032422 J1.054916
G03 X-269.907124 Y136.694772 Z-5.250000 I-23.475755 J0.574330
G03 X-269.910000 Y137.187000 Z-5.250000 I-26.181596 J0.093162
G03 X-269.921128 Y137.678153 Z-5.250000 I-33.352075 J-0.509971
G03 X-269.939000 Y138.168000 Z-5.250000 I-37.979319 J-1.140399
G03 X-270.096782 Y138.711004 Z-5.250000 I-1.180172 J-0.048500
G03 X-270.241000 Y138.779000 Z-5.250000 I-0.121199 J-0.070120
G02 X-270.586486 Y138.729873 Z-5.250000 I-2.052092 J13.192017
G03 X-270.946000 Y138.669000 Z-5.250000 I0.589414 J-4.573122
G03 X-271.311732 Y138.559362 Z-5.250000 I0.488019 J-2.292768
G03 X-271.592000 Y138.388000 Z-5.250000 I0.341671 J-0.873687
G03 X-271.956548 Y138.050798 Z-5.250000 I8.783044 J-9.860964
G03 X-272.299000 Y137.707000 Z-5.250000 I7.604064 J-7.916759
G03 X-272.633406 Y137.339303 Z-5.250000 I7.513878 J-7.169492
G03 X-272.941000 Y136.963000 Z-5.250000 I6.372946 J-5.523179
G03 X-273.230550 Y136.562880 Z-5.250000 I6.561452 J-5.053072
G03 X-273.491000 Y136.149000 Z-5.250000 I5.792288 J-3.933912
G03 X-273.721652 Y135.717951 Z-5.250000 I5.966633 J-3.469956
G03 X-273.921000 Y135.267000 Z-5.250000 I5.580354 J-2.736389
G03 X-274.081279 Y134.811143 Z-5.250000 I5.682828 J-2.254188
G03 X-274.208000 Y134.328000 Z-5.250000 I5.676276 J-1.746986
G03 X-274.292371 Y133.858794 Z-5.250000 I5.759603 J-1.277854
G03 X-274.342000 Y133.356000 Z-5.250000 I6.399674 J-0.885542
G00 Z5.000000

(End cutting path id: path282)


(Start cutting path id: path282)
(Change tool to Default tool)

G00 Z5.000000
G00 X-287.351000 Y155.657000

G01 Z-5.250000 F6000.0(Penetrate)
G03 X-287.036289 Y155.208060 Z-5.250000 I33.550704 J23.184539 F6000.000000
G03 X-286.717000 Y154.762000 Z-5.250000 I71.487889 J50.833672
G02 X-286.395848 Y154.317714 Z-5.250000 I-2743.213750 J-1983.269225
G02 X-286.077000 Y153.872000 Z-5.250000 I-45.763577 J-33.074546
G02 X-285.761781 Y153.422989 Z-5.250000 I-35.737420 J-25.423936
G02 X-285.455000 Y152.969000 Z-5.250000 I-19.459953 J-13.480591
G02 X-285.159928 Y152.507580 Z-5.250000 I-16.645231 J-10.969480
G02 X-284.879000 Y152.037000 Z-5.250000 I-13.686636 J-8.489812
G01 X-284.326000 Y151.067000 Z-5.250000
G02 X-284.050695 Y150.580998 Z-5.250000 I-224.133432 J-127.285644
G02 X-283.776000 Y150.094000 Z-5.250000 I-327.065235 J-184.804577
G02 X-283.501730 Y149.607341 Z-5.250000 I-259.058313 J-146.319976
G02 X-283.229000 Y149.120000 Z-5.250000 I-117.986908 J-66.348862
G02 X-282.957232 Y148.631843 Z-5.250000 I-97.533009 J-54.618485
G02 X-282.687000 Y148.143000 Z-5.250000 I-488.716624 J-270.481576
G02 X-282.417894 Y147.654010 Z-5.250000 I-175.409227 J-96.851721
G02 X-282.150000 Y147.163000 Z-5.250000 I-109.062890 J-59.822959
G02 X-281.884896 Y146.672519 Z-5.250000 I-403.365453 J-218.335430
G02 X-281.621000 Y146.180000 Z-5.250000 I-81.151894 J-43.798790
G02 X-281.358439 Y145.687370 Z-5.250000 I-87.687054 J-47.051590
G02 X-281.098000 Y145.193000 Z-5.250000 I-122.749416 J-64.981354
G02 X-280.840744 Y144.697365 Z-5.250000 I-144.981622 J-75.566178
G02 X-280.585000 Y144.201000 Z-5.250000 I-191.306087 J-98.881597
G02 X-280.331346 Y143.702570 Z-5.250000 I-99.824793 J-51.115105
G02 X-280.081000 Y143.204000 Z-5.250000 I-85.727582 J-43.358438
G02 X-279.886661 Y142.771714 Z-5.250000 I-5.338173 J-2.659655
G02 X-279.722000 Y142.321000 Z-5.250000 I-6.855205 J-2.759880
G02 X-279.584375 Y141.868243 Z-5.250000 I-8.113916 J-2.713684
G02 X-279.466000 Y141.402000 Z-5.250000 I-12.340389 J-3.381275
G02 X-279.363242 Y140.936136 Z-5.250000 I-15.586361 J-3.682215
G02 X-279.271000 Y140.468000 Z-5.250000 I-30.534554 J-6.259741
G02 X-279.181455 Y139.995908 Z-5.250000 I-53.279594 J-10.350494
G03 X-279.094000 Y139.530000 Z-5.250000 I92.322584 J17.088520
G02 X-278.991742 Y138.990832 Z-5.250000 I-52.435472 J-10.224187
G02 X-278.894000 Y138.451000 Z-5.250000 I-84.858948 J-15.643244
G03 X-278.799387 Y137.910564 Z-5.250000 I4047.726308 J708.353910
G03 X-278.704000 Y137.370000 Z-5.250000 I211.169061 J36.983640
G03 X-278.606760 Y136.829668 Z-5.250000 I127.627703 J22.689370
G03 X-278.505000 Y136.290000 Z-5.250000 I43.589573 J7.939850
G03 X-278.398145 Y135.752354 Z-5.250000 I42.691437 J8.205318
G03 X-278.283000 Y135.216000 Z-5.250000 I29.931520 J6.145186
G03 X-278.156503 Y134.681504 Z-5.250000 I28.870774 J6.550512
G03 X-278.018000 Y134.150000 Z-5.250000 I20.123462 J4.960114
G03 X-277.866430 Y133.624220 Z-5.250000 I18.312601 J4.994346
G03 X-277.698000 Y133.101000 Z-5.250000 I16.078789 J4.887219
G03 X-277.512539 Y132.586987 Z-5.250000 I15.466007 J5.289823
G03 X-277.306000 Y132.076000 Z-5.250000 I12.192885 J4.631085
G03 X-277.090877 Y131.609448 Z-5.250000 I8.237434 J3.515338
G03 X-276.845000 Y131.171000 Z-5.250000 I4.472055 J2.219714
G03 X-276.543989 Y130.754890 Z-5.250000 I3.352789 J2.108455
G03 X-276.190000 Y130.398000 Z-5.250000 I2.150317 J1.778837
G03 X-275.792624 Y130.124807 Z-5.250000 I1.577878 J1.869524
G03 X-275.301000 Y129.920000 Z-5.250000 I1.183015 J2.147277
G03 X-274.775580 Y129.787941 Z-5.250000 I2.046405 J7.030718
G03 X-274.290000 Y129.706000 Z-5.250000 I1.216223 J5.727561
G03 X-273.748079 Y129.666258 Z-5.250000 I0.639378 J5.003827
G03 X-273.258000 Y129.687000 Z-5.250000 I0.076943 J3.981979
G03 X-272.732008 Y129.780307 Z-5.250000 I-0.357342 J3.543643
G03 X-272.260000 Y129.944000 Z-5.250000 I-0.745553 J2.912158
G03 X-271.815702 Y130.190593 Z-5.250000 I-1.163319 J2.619560
G03 X-271.410000 Y130.523000 Z-5.250000 I-1.618991 J2.389758
G03 X-271.093085 Y130.890520 Z-5.250000 I-2.188708 J2.207740
G03 X-270.802000 Y131.356000 Z-5.250000 I-2.967675 J2.179568
G03 X-270.605055 Y131.790460 Z-5.250000 I-3.759295 J1.965992
G03 X-270.431000 Y132.320000 Z-5.250000 I-5.021259 J1.943821
G03 X-270.310786 Y132.797791 Z-5.250000 I-12.901223 J3.500016
G03 X-270.209000 Y133.276000 Z-5.250000 I-12.985140 J3.013801
G03 X-270.124112 Y133.760001 Z-5.250000 I-14.537928 J2.799228
G03 X-270.055000 Y134.246000 Z-5.250000 I-15.375393 J2.434382
G03 X-269.999914 Y134.732965 Z-5.250000 I-14.938324 J1.936449
G03 X-269.959000 Y135.223000 Z-5.250000 I-18.714627 J1.809232
G03 X-269.931249 Y135.712991 Z-5.250000 I-22.656195 J1.528946
G03 X-269.914000 Y136.204000 Z-5.250000 I-23.032422 J1.054916
G03 X-269.907124 Y136.694772 Z-5.250000 I-23.475755 J0.574330
G03 X-269.910000 Y137.187000 Z-5.250000 I-26.181596 J0.093162
G03 X-269.921128 Y137.678153 Z-5.250000 I-33.352075 J-0.509971
G03 X-269.939000 Y138.168000 Z-5.250000 I-37.979319 J-1.140399
G03 X-270.096782 Y138.711004 Z-5.250000 I-1.180172 J-0.048500
G03 X-270.241000 Y138.779000 Z-5.250000 I-0.121199 J-0.070120
G02 X-270.586486 Y138.729873 Z-5.250000 I-2.052092 J13.192017
G03 X-270.946000 Y138.669000 Z-5.250000 I0.589414 J-4.573122
G03 X-271.311732 Y138.559362 Z-5.250000 I0.488019 J-2.292768
G03 X-271.592000 Y138.388000 Z-5.250000 I0.341671 J-0.873687
G03 X-271.956548 Y138.050798 Z-5.250000 I8.783044 J-9.860964
G03 X-272.299000 Y137.707000 Z-5.250000 I7.604064 J-7.916759
G03 X-272.633406 Y137.339303 Z-5.250000 I7.513878 J-7.169492
G03 X-272.941000 Y136.963000 Z-5.250000 I6.372946 J-5.523179
G03 X-273.230550 Y136.562880 Z-5.250000 I6.561452 J-5.053072
G03 X-273.491000 Y136.149000 Z-5.250000 I5.792288 J-3.933912
G03 X-273.721652 Y135.717951 Z-5.250000 I5.966633 J-3.469956
G03 X-273.921000 Y135.267000 Z-5.250000 I5.580354 J-2.736389
G03 X-274.081279 Y134.811143 Z-5.250000 I5.682828 J-2.254188
G03 X-274.208000 Y134.328000 Z-5.250000 I5.676276 J-1.746986
G03 X-274.292371 Y133.858794 Z-5.250000 I5.759603 J-1.277854
G03 X-274.342000 Y133.356000 Z-5.250000 I6.399674 J-0.885542
G00 Z5.000000

(End cutting path id: path282)


(Start cutting path id: path348)
(Change tool to Default tool)

G00 Z5.000000
G00 X-288.636000 Y140.977000

G01 Z-5.250000 F6000.0(Penetrate)
G03 X-289.019566 Y141.224589 Z-5.250000 I-1.450696 J-1.826525 F6000.000000
G03 X-289.370000 Y141.359000 Z-5.250000 I-0.789748 J-1.534983
G03 X-289.777530 Y141.412790 Z-5.250000 I-0.417798 J-1.594694
G03 X-290.195000 Y141.369000 Z-5.250000 I-0.011830 J-1.899098
G03 X-290.564046 Y141.255967 Z-5.250000 I0.493597 J-2.270546
G03 X-290.969000 Y141.065000 Z-5.250000 I1.379317 J-3.449739
G03 X-291.461854 Y140.749707 Z-5.250000 I2.112705 J-3.845347
G03 X-291.858000 Y140.406000 Z-5.250000 I1.978516 J-2.680526
G03 X-292.212498 Y139.972041 Z-5.250000 I2.198025 J-2.157321
G03 X-292.474000 Y139.489000 Z-5.250000 I2.334236 J-1.575983
G03 X-292.633426 Y138.988995 Z-5.250000 I2.636515 J-1.116071
G03 X-292.710000 Y138.409000 Z-5.250000 I3.340784 J-0.736118
G03 X-292.701312 Y137.869379 Z-5.250000 I4.262039 J-0.201263
G03 X-292.642000 Y137.323000 Z-5.250000 I9.529952 J0.758117
G03 X-292.562546 Y136.783088 Z-5.250000 I25.846087 J3.527739
G02 X-292.490000 Y136.244000 Z-5.250000 I-11.781204 J-1.859840
G00 Z5.000000

(End cutting path id: path348)


(Start cutting path id: path348)
(Change tool to Default tool)

G00 Z5.000000
G00 X-288.636000 Y140.977000

G01 Z-5.250000 F6000.0(Penetrate)
G03 X-289.019566 Y141.224589 Z-5.250000 I-1.450696 J-1.826525 F6000.000000
G03 X-289.370000 Y141.359000 Z-5.250000 I-0.789748 J-1.534983
G03 X-289.777530 Y141.412790 Z-5.250000 I-0.417798 J-1.594694
G03 X-290.195000 Y141.369000 Z-5.250000 I-0.011830 J-1.899098
G03 X-290.564046 Y141.255967 Z-5.250000 I0.493597 J-2.270546
G03 X-290.969000 Y141.065000 Z-5.250000 I1.379317 J-3.449739
G03 X-291.461854 Y140.749707 Z-5.250000 I2.112705 J-3.845347
G03 X-291.858000 Y140.406000 Z-5.250000 I1.978516 J-2.680526
G03 X-292.212498 Y139.972041 Z-5.250000 I2.198025 J-2.157321
G03 X-292.474000 Y139.489000 Z-5.250000 I2.334236 J-1.575983
G03 X-292.633426 Y138.988995 Z-5.250000 I2.636515 J-1.116071
G03 X-292.710000 Y138.409000 Z-5.250000 I3.340784 J-0.736118
G03 X-292.701312 Y137.869379 Z-5.250000 I4.262039 J-0.201263
G03 X-292.642000 Y137.323000 Z-5.250000 I9.529952 J0.758117
G03 X-292.562546 Y136.783088 Z-5.250000 I25.846087 J3.527739
G02 X-292.490000 Y136.244000 Z-5.250000 I-11.781204 J-1.859840
G00 Z5.000000

(End cutting path id: path348)


(Start cutting path id: path280)
(Change tool to Default tool)

G00 Z5.000000
G00 X-295.220000 Y159.587000

G01 Z-5.250000 F6000.0(Penetrate)
G03 X-294.918972 Y159.538597 Z-5.250000 I0.840708 J4.268209 F6000.000000
G02 X-294.613000 Y159.496000 Z-5.250000 I-1.373740 J-10.987815
G02 X-294.303830 Y159.434088 Z-5.250000 I-0.533049 J-3.464818
G02 X-294.023000 Y159.332000 Z-5.250000 I-0.339113 J-1.370153
G02 X-293.555191 Y159.102595 Z-5.250000 I-17.597416 J-36.476763
G02 X-293.091000 Y158.869000 Z-5.250000 I-29.938316 J-60.070376
G02 X-292.627618 Y158.630554 Z-5.250000 I-30.481978 J-59.806412
G02 X-292.166000 Y158.390000 Z-5.250000 I-94.450619 J-181.811789
G02 X-291.704653 Y158.148956 Z-5.250000 I-50.853001 J-97.892027
G03 X-291.243000 Y157.907000 Z-5.250000 I111.976754 J213.091281
G03 X-290.781882 Y157.665943 Z-5.250000 I92.571276 J176.517898
G03 X-290.319000 Y157.427000 Z-5.250000 I31.176308 J59.827187
G03 X-290.173646 Y157.406138 Z-5.250000 I0.103554 J0.204699
G02 X-290.001000 Y157.422000 Z-5.250000 I0.172646 J-0.931626
G00 Z5.000000

(End cutting path id: path280)


(Start cutting path id: path280)
(Change tool to Default tool)

G00 Z5.000000
G00 X-295.220000 Y159.587000

G01 Z-5.250000 F6000.0(Penetrate)
G03 X-294.918972 Y159.538597 Z-5.250000 I0.840708 J4.268209 F6000.000000
G02 X-294.613000 Y159.496000 Z-5.250000 I-1.373740 J-10.987815
G02 X-294.303830 Y159.434088 Z-5.250000 I-0.533049 J-3.464818
G02 X-294.023000 Y159.332000 Z-5.250000 I-0.339113 J-1.370153
G02 X-293.555191 Y159.102595 Z-5.250000 I-17.597416 J-36.476763
G02 X-293.091000 Y158.869000 Z-5.250000 I-29.938316 J-60.070376
G02 X-292.627618 Y158.630554 Z-5.250000 I-30.481978 J-59.806412
G02 X-292.166000 Y158.390000 Z-5.250000 I-94.450619 J-181.811789
G02 X-291.704653 Y158.148956 Z-5.250000 I-50.853001 J-97.892027
G03 X-291.243000 Y157.907000 Z-5.250000 I111.976754 J213.091281
G03 X-290.781882 Y157.665943 Z-5.250000 I92.571276 J176.517898
G03 X-290.319000 Y157.427000 Z-5.250000 I31.176308 J59.827187
G03 X-290.173646 Y157.406138 Z-5.250000 I0.103554 J0.204699
G02 X-290.001000 Y157.422000 Z-5.250000 I0.172646 J-0.931626
G00 Z5.000000

(End cutting path id: path280)


(Start cutting path id: path366)
(Change tool to Default tool)

G00 Z5.000000
G00 X-295.301000 Y159.587000

G01 Z-5.250000 F6000.0(Penetrate)
G03 X-295.675457 Y159.332319 Z-5.250000 I44.782040 J-66.245621 F6000.000000
G02 X-296.049000 Y159.077000 Z-5.250000 I-241.496402 J352.918737
G02 X-296.422718 Y158.821187 Z-5.250000 I-84.171095 J122.564926
G02 X-296.797000 Y158.567000 Z-5.250000 I-59.389293 J87.046125
G02 X-297.172956 Y158.315072 Z-5.250000 I-31.212135 J46.171797
G02 X-297.551000 Y158.067000 Z-5.250000 I-22.353563 J33.653187
G03 X-297.984832 Y157.773994 Z-5.250000 I8.318653 J-12.784456
G02 X-298.419000 Y157.480000 Z-5.250000 I-9.426017 J13.452708
G02 X-298.868664 Y157.207008 Z-5.250000 I-4.372401 J6.695239
G02 X-299.339000 Y156.983000 Z-5.250000 I-1.873868 J3.328682
G02 X-299.816279 Y156.838527 Z-5.250000 I-1.115747 J2.825358
G02 X-300.360000 Y156.780000 Z-5.250000 I-0.550784 J2.561973
G00 Z5.000000

(End cutting path id: path366)


(Start cutting path id: path366)
(Change tool to Default tool)

G00 Z5.000000
G00 X-295.301000 Y159.587000

G01 Z-5.250000 F6000.0(Penetrate)
G03 X-295.675457 Y159.332319 Z-5.250000 I44.782040 J-66.245621 F6000.000000
G02 X-296.049000 Y159.077000 Z-5.250000 I-241.496402 J352.918737
G02 X-296.422718 Y158.821187 Z-5.250000 I-84.171095 J122.564926
G02 X-296.797000 Y158.567000 Z-5.250000 I-59.389293 J87.046125
G02 X-297.172956 Y158.315072 Z-5.250000 I-31.212135 J46.171797
G02 X-297.551000 Y158.067000 Z-5.250000 I-22.353563 J33.653187
G03 X-297.984832 Y157.773994 Z-5.250000 I8.318653 J-12.784456
G02 X-298.419000 Y157.480000 Z-5.250000 I-9.426017 J13.452708
G02 X-298.868664 Y157.207008 Z-5.250000 I-4.372401 J6.695239
G02 X-299.339000 Y156.983000 Z-5.250000 I-1.873868 J3.328682
G02 X-299.816279 Y156.838527 Z-5.250000 I-1.115747 J2.825358
G02 X-300.360000 Y156.780000 Z-5.250000 I-0.550784 J2.561973
G00 Z5.000000

(End cutting path id: path366)


(Start cutting path id: path360)
(Change tool to Default tool)

G00 Z5.000000
G00 X-299.075000 Y162.395000

G01 Z-5.250000 F6000.0(Penetrate)
G03 X-299.542546 Y162.297007 Z-5.250000 I2.613893 J-13.635807 F6000.000000
G03 X-300.002000 Y162.183000 Z-5.250000 I2.705359 J-11.885567
G03 X-300.459460 Y162.049643 Z-5.250000 I3.171154 J-11.729449
G03 X-300.908000 Y161.898000 Z-5.250000 I3.107508 J-9.930776
G03 X-301.350711 Y161.724528 Z-5.250000 I3.582683 J-9.794857
G03 X-301.784000 Y161.531000 Z-5.250000 I3.846061 J-9.192750
G03 X-302.206213 Y161.314977 Z-5.250000 I4.137936 J-8.608115
G03 X-302.618000 Y161.076000 Z-5.250000 I4.047250 J-7.448199
G03 X-303.012409 Y160.818081 Z-5.250000 I4.529736 J-7.357389
G03 X-303.398000 Y160.534000 Z-5.250000 I4.781201 J-6.893379
G03 X-303.598684 Y160.321835 Z-5.250000 I0.599793 J-0.768330
G03 X-303.766000 Y160.049000 Z-5.250000 I2.302161 J-1.599522
G03 X-303.907278 Y159.772767 Z-5.250000 I7.960839 J-4.245781
G02 X-304.054000 Y159.507000 Z-5.250000 I-2.790670 J1.367260
G00 Z5.000000

(End cutting path id: path360)


(Start cutting path id: path360)
(Change tool to Default tool)

G00 Z5.000000
G00 X-299.075000 Y162.395000

G01 Z-5.250000 F6000.0(Penetrate)
G03 X-299.542546 Y162.297007 Z-5.250000 I2.613893 J-13.635807 F6000.000000
G03 X-300.002000 Y162.183000 Z-5.250000 I2.705359 J-11.885567
G03 X-300.459460 Y162.049643 Z-5.250000 I3.171154 J-11.729449
G03 X-300.908000 Y161.898000 Z-5.250000 I3.107508 J-9.930776
G03 X-301.350711 Y161.724528 Z-5.250000 I3.582683 J-9.794857
G03 X-301.784000 Y161.531000 Z-5.250000 I3.846061 J-9.192750
G03 X-302.206213 Y161.314977 Z-5.250000 I4.137936 J-8.608115
G03 X-302.618000 Y161.076000 Z-5.250000 I4.047250 J-7.448199
G03 X-303.012409 Y160.818081 Z-5.250000 I4.529736 J-7.357389
G03 X-303.398000 Y160.534000 Z-5.250000 I4.781201 J-6.893379
G03 X-303.598684 Y160.321835 Z-5.250000 I0.599793 J-0.768330
G03 X-303.766000 Y160.049000 Z-5.250000 I2.302161 J-1.599522
G03 X-303.907278 Y159.772767 Z-5.250000 I7.960839 J-4.245781
G02 X-304.054000 Y159.507000 Z-5.250000 I-2.790670 J1.367260
G00 Z5.000000

(End cutting path id: path360)


(Start cutting path id: path318)
(Change tool to Default tool)

G00 Z5.000000
G00 X-300.279000 Y166.085000

G01 Z-5.250000 F6000.0(Penetrate)
G03 X-299.838224 Y166.205404 Z-5.250000 I-61.057737 J224.386807 F6000.000000
G02 X-299.396000 Y166.326000 Z-5.250000 I42.926509 J-156.540023
G00 Z5.000000

(End cutting path id: path318)


(Start cutting path id: path318)
(Change tool to Default tool)

G00 Z5.000000
G00 X-300.279000 Y166.085000

G01 Z-5.250000 F6000.0(Penetrate)
G03 X-299.838224 Y166.205404 Z-5.250000 I-61.057737 J224.386807 F6000.000000
G02 X-299.396000 Y166.326000 Z-5.250000 I42.926509 J-156.540023
G00 Z5.000000

(End cutting path id: path318)


(Start cutting path id: path304)
(Change tool to Default tool)

G00 Z5.000000
G00 X-293.293000 Y177.637000

G01 Z-5.250000 F6000.0(Penetrate)
G02 X-293.034835 Y177.119118 Z-5.250000 I-3.846224 J-2.240635 F6000.000000
G03 X-292.720000 Y176.686000 Z-5.250000 I1.077538 J0.452280
G01 X-291.915000 Y175.990000 Z-5.250000
G01 X-291.109000 Y175.295000 Z-5.250000
G03 X-290.705315 Y174.946965 Z-5.250000 I980.057198 J1136.362014
G03 X-290.302000 Y174.600000 Z-5.250000 I195.068478 J226.340935
G03 X-289.898315 Y174.252466 Z-5.250000 I195.555718 J226.743519
G03 X-289.495000 Y173.906000 Z-5.250000 I971.466704 J1130.458059
G01 X-288.686000 Y173.213000 Z-5.250000
G02 X-288.280815 Y172.867467 Z-5.250000 I-321.489182 J-377.400126
G03 X-287.876000 Y172.523000 Z-5.250000 I107.036781 J125.378787
G02 X-287.469908 Y172.178154 Z-5.250000 I-625.036627 J-736.456286
G03 X-287.063000 Y171.834000 Z-5.250000 I76.416193 J89.937617
G03 X-286.656409 Y171.491154 Z-5.250000 I163.497748 J193.484249
G03 X-286.249000 Y171.149000 Z-5.250000 I183.068850 J217.569722
G03 X-285.840226 Y170.806626 Z-5.250000 I67.323714 J79.965284
G03 X-285.431000 Y170.466000 Z-5.250000 I333.410664 J400.141299
G03 X-285.021230 Y170.125629 Z-5.250000 I333.320327 J400.865424
G03 X-284.611000 Y169.787000 Z-5.250000 I66.355677 J79.968270
G03 X-284.178687 Y169.437274 Z-5.250000 I18.203252 J22.059873
G03 X-283.740000 Y169.094000 Z-5.250000 I26.705669 J33.676519
G03 X-283.299611 Y168.755681 Z-5.250000 I87.063283 J112.874103
G02 X-282.858000 Y168.417000 Z-5.250000 I-150.388415 J-196.551263
G02 X-282.418729 Y168.074882 Z-5.250000 I-40.527169 J-52.488932
G02 X-281.985000 Y167.727000 Z-5.250000 I-16.994675 J-21.632785
G02 X-281.558404 Y167.371010 Z-5.250000 I-15.399138 J-18.886977
G02 X-281.142000 Y167.002000 Z-5.250000 I-9.867986 J-11.554822
G02 X-280.739296 Y166.620400 Z-5.250000 I-8.942663 J-9.840521
G02 X-280.352000 Y166.219000 Z-5.250000 I-8.195333 J-8.294913
G02 X-279.989014 Y165.804068 Z-5.250000 I-8.321776 J-7.646208
G02 X-279.643000 Y165.362000 Z-5.250000 I-7.139859 J-5.944929
G02 X-279.372347 Y164.990386 Z-5.250000 I-63.520122 J-46.547134
G02 X-279.103000 Y164.617000 Z-5.250000 I-113.780554 J-82.361066
G02 X-278.836177 Y164.242625 Z-5.250000 I-131.635016 J-94.100532
G03 X-278.569000 Y163.867000 Z-5.250000 I397.110060 J282.176489
G03 X-278.303001 Y163.492177 Z-5.250000 I169.189844 J119.786413
G03 X-278.036000 Y163.117000 Z-5.250000 I848.456314 J603.535509
G00 Z5.000000

(End cutting path id: path304)


(Start cutting path id: path304)
(Change tool to Default tool)

G00 Z5.000000
G00 X-293.293000 Y177.637000

G01 Z-5.250000 F6000.0(Penetrate)
G02 X-293.034835 Y177.119118 Z-5.250000 I-3.846224 J-2.240635 F6000.000000
G03 X-292.720000 Y176.686000 Z-5.250000 I1.077538 J0.452280
G01 X-291.915000 Y175.990000 Z-5.250000
G01 X-291.109000 Y175.295000 Z-5.250000
G03 X-290.705315 Y174.946965 Z-5.250000 I980.057198 J1136.362014
G03 X-290.302000 Y174.600000 Z-5.250000 I195.068478 J226.340935
G03 X-289.898315 Y174.252466 Z-5.250000 I195.555718 J226.743519
G03 X-289.495000 Y173.906000 Z-5.250000 I971.466704 J1130.458059
G01 X-288.686000 Y173.213000 Z-5.250000
G02 X-288.280815 Y172.867467 Z-5.250000 I-321.489182 J-377.400126
G03 X-287.876000 Y172.523000 Z-5.250000 I107.036781 J125.378787
G02 X-287.469908 Y172.178154 Z-5.250000 I-625.036627 J-736.456286
G03 X-287.063000 Y171.834000 Z-5.250000 I76.416193 J89.937617
G03 X-286.656409 Y171.491154 Z-5.250000 I163.497748 J193.484249
G03 X-286.249000 Y171.149000 Z-5.250000 I183.068850 J217.569722
G03 X-285.840226 Y170.806626 Z-5.250000 I67.323714 J79.965284
G03 X-285.431000 Y170.466000 Z-5.250000 I333.410664 J400.141299
G03 X-285.021230 Y170.125629 Z-5.250000 I333.320327 J400.865424
G03 X-284.611000 Y169.787000 Z-5.250000 I66.355677 J79.968270
G03 X-284.178687 Y169.437274 Z-5.250000 I18.203252 J22.059873
G03 X-283.740000 Y169.094000 Z-5.250000 I26.705669 J33.676519
G03 X-283.299611 Y168.755681 Z-5.250000 I87.063283 J112.874103
G02 X-282.858000 Y168.417000 Z-5.250000 I-150.388415 J-196.551263
G02 X-282.418729 Y168.074882 Z-5.250000 I-40.527169 J-52.488932
G02 X-281.985000 Y167.727000 Z-5.250000 I-16.994675 J-21.632785
G02 X-281.558404 Y167.371010 Z-5.250000 I-15.399138 J-18.886977
G02 X-281.142000 Y167.002000 Z-5.250000 I-9.867986 J-11.554822
G02 X-280.739296 Y166.620400 Z-5.250000 I-8.942663 J-9.840521
G02 X-280.352000 Y166.219000 Z-5.250000 I-8.195333 J-8.294913
G02 X-279.989014 Y165.804068 Z-5.250000 I-8.321776 J-7.646208
G02 X-279.643000 Y165.362000 Z-5.250000 I-7.139859 J-5.944929
G02 X-279.372347 Y164.990386 Z-5.250000 I-63.520122 J-46.547134
G02 X-279.103000 Y164.617000 Z-5.250000 I-113.780554 J-82.361066
G02 X-278.836177 Y164.242625 Z-5.250000 I-131.635016 J-94.100532
G03 X-278.569000 Y163.867000 Z-5.250000 I397.110060 J282.176489
G03 X-278.303001 Y163.492177 Z-5.250000 I169.189844 J119.786413
G03 X-278.036000 Y163.117000 Z-5.250000 I848.456314 J603.535509
G00 Z5.000000

(End cutting path id: path304)


(Start cutting path id: path264)
(Change tool to Default tool)

G00 Z5.000000
G00 X-277.393000 Y162.315000

G01 Z-5.250000 F6000.0(Penetrate)
G03 X-277.537303 Y161.846429 Z-5.250000 I0.789677 J-0.499697 F6000.000000
G03 X-277.482000 Y161.458000 Z-5.250000 I1.127771 J-0.037585
G03 X-277.296291 Y161.030105 Z-5.250000 I2.312083 J0.749212
G02 X-277.122000 Y160.641000 Z-5.250000 I-2.211014 J-1.223962
G03 X-276.939832 Y160.117734 Z-5.250000 I204.844502 J71.020583
G03 X-276.756000 Y159.594000 Z-5.250000 I205.394330 J71.799741
G03 X-276.570752 Y159.072357 Z-5.250000 I175.306587 J61.961812
G03 X-276.383000 Y158.550000 Z-5.250000 I112.059688 J39.982999
G03 X-276.193979 Y158.029402 Z-5.250000 I103.206231 J37.178037
G03 X-276.001000 Y157.509000 Z-5.250000 I60.639976 J22.190897
G03 X-275.805863 Y156.990719 Z-5.250000 I80.487399 J30.008308
G03 X-275.607000 Y156.474000 Z-5.250000 I63.606987 J24.182957
G03 X-275.404170 Y155.957680 Z-5.250000 I67.251612 J26.120916
G03 X-275.197000 Y155.444000 Z-5.250000 I49.562873 J19.690409
G03 X-274.985318 Y154.931915 Z-5.250000 I74.646520 J30.557055
G03 X-274.769000 Y154.421000 Z-5.250000 I50.269925 J20.982693
G03 X-274.546641 Y153.913413 Z-5.250000 I68.102604 J29.531218
G03 X-274.319000 Y153.408000 Z-5.250000 I38.574910 J17.070418
G03 X-274.084969 Y152.905434 Z-5.250000 I41.661152 J19.094695
G03 X-273.845000 Y152.406000 Z-5.250000 I41.383451 J19.576603
G03 X-273.598262 Y151.909645 Z-5.250000 I33.830945 J16.507871
G03 X-273.344000 Y151.417000 Z-5.250000 I31.832152 J16.117133
G03 X-273.083434 Y150.929072 Z-5.250000 I28.271383 J14.784118
G03 X-272.814000 Y150.443000 Z-5.250000 I34.956834 J19.059151
G03 X-272.534246 Y149.962492 Z-5.250000 I17.167841 J9.673520
G02 X-272.247000 Y149.483000 Z-5.250000 I-148.654513 J-89.379105
G02 X-271.966269 Y149.001821 Z-5.250000 I-26.456738 J-15.757932
G02 X-271.703000 Y148.512000 Z-5.250000 I-9.316974 J-5.323358
G03 X-271.370470 Y148.188659 Z-5.250000 I0.637499 J0.322954
G03 X-270.888000 Y148.084000 Z-5.250000 I0.467499 J0.990733
G02 X-270.466139 Y148.081136 Z-5.250000 I0.142824 J-10.033359
G02 X-270.044000 Y148.064000 Z-5.250000 I-0.460407 J-16.550172
G02 X-269.622702 Y148.037016 Z-5.250000 I-1.058216 J-19.823910
G02 X-269.201000 Y148.004000 Z-5.250000 I-4.457230 J-59.640831
G02 X-268.779942 Y147.968746 Z-5.250000 I-9.243187 J-112.927619
G03 X-268.359000 Y147.935000 Z-5.250000 I3.334117 J38.947314
G03 X-267.937516 Y147.908635 Z-5.250000 I1.746361 J24.536372
G03 X-267.515000 Y147.892000 Z-5.250000 I0.783497 J14.525748
G03 X-267.101554 Y147.916649 Z-5.250000 I0.060833 J2.459371
G03 X-266.622000 Y148.000000 Z-5.250000 I-1.234405 J8.523301
G03 X-266.233128 Y148.079834 Z-5.250000 I-13.633577 J67.396174
G02 X-265.736000 Y148.173000 Z-5.250000 I2.564586 J-12.311582
G03 X-265.493380 Y147.779342 Z-5.250000 I43.234106 J26.374473
G02 X-265.175000 Y147.265000 Z-5.250000 I-97.922738 J-60.970413
G02 X-264.906011 Y146.823474 Z-5.250000 I-37.765632 J-23.310510
G02 X-264.628000 Y146.350000 Z-5.250000 I-22.586071 J-13.580272
G02 X-264.360424 Y145.881834 Z-5.250000 I-142.681738 J-81.859075
G02 X-264.095000 Y145.412000 Z-5.250000 I-69.824537 J-39.755926
G02 X-263.830731 Y144.942340 Z-5.250000 I-109.864734 J-62.127980
G02 X-263.568000 Y144.472000 Z-5.250000 I-241.987805 J-135.482582
G01 X-263.045000 Y143.529000 Z-5.250000
G01 X-262.521000 Y142.587000 Z-5.250000
G03 X-262.257735 Y142.116821 Z-5.250000 I118.699911 J66.154408
G03 X-261.992000 Y141.647000 Z-5.250000 I100.858957 J56.736549
G03 X-261.725546 Y141.178834 Z-5.250000 I84.911023 J48.016777
G03 X-261.456000 Y140.712000 Z-5.250000 I67.888310 J38.886852
G03 X-261.184057 Y140.246847 Z-5.250000 I53.309118 J30.854152
G03 X-260.909000 Y139.783000 Z-5.250000 I126.713736 J74.826499
G03 X-260.629863 Y139.322061 Z-5.250000 I63.846838 J38.349562
G03 X-260.346000 Y138.863000 Z-5.250000 I40.584160 J24.778175
G03 X-260.058393 Y138.408095 Z-5.250000 I44.006008 J27.503755
G03 X-259.766000 Y137.955000 Z-5.250000 I55.255129 J35.336593
G03 X-259.485338 Y137.555397 Z-5.250000 I6.740688 J4.435967
G03 X-259.190000 Y137.187000 Z-5.250000 I5.693240 J4.261602
G03 X-258.861153 Y136.828654 Z-5.250000 I5.203651 J4.445224
G03 X-258.516000 Y136.502000 Z-5.250000 I4.851956 J4.781055
G03 X-258.143490 Y136.196407 Z-5.250000 I4.340193 J4.910735
G03 X-257.752000 Y135.921000 Z-5.250000 I3.894856 J5.120581
G03 X-257.339983 Y135.676120 Z-5.250000 I3.434969 J5.310383
G03 X-256.908000 Y135.462000 Z-5.250000 I3.019329 J5.548605
G03 X-256.467691 Y135.284177 Z-5.250000 I2.505803 J5.570592
G03 X-256.005000 Y135.136000 Z-5.250000 I2.346098 J6.529356
G03 X-255.546182 Y135.026013 Z-5.250000 I1.831654 J6.628842
G03 X-255.064000 Y134.945000 Z-5.250000 I1.414292 J6.942321
G03 X-254.597003 Y134.899780 Z-5.250000 I0.953672 J7.414801
G03 X-254.105000 Y134.883000 Z-5.250000 I0.516100 J7.911057
G03 X-253.519877 Y134.923881 Z-5.250000 I0.000000 J4.207864
G03 X-253.018000 Y135.033000 Z-5.250000 I-0.479226 J3.412834
G03 X-252.483006 Y135.245484 Z-5.250000 I-0.912069 J3.076160
G03 X-252.039000 Y135.524000 Z-5.250000 I-1.281729 J2.536487
G03 X-251.636156 Y135.904609 Z-5.250000 I-1.713798 J2.217414
G03 X-251.321000 Y136.351000 Z-5.250000 I-2.067239 J1.793933
G03 X-251.105195 Y136.836849 Z-5.250000 I-2.454026 J1.380883
G03 X-250.975000 Y137.389000 Z-5.250000 I-2.930571 J0.982445
G03 X-250.941718 Y137.909835 Z-5.250000 I-3.243876 J0.468768
G03 X-250.995000 Y138.486000 Z-5.250000 I-3.793569 J-0.060271
G03 X-251.085906 Y139.013979 Z-5.250000 I-59.567133 J-9.984264
G03 X-251.183000 Y139.543000 Z-5.250000 I-40.275436 J-7.118561
G03 X-251.286852 Y140.069150 Z-5.250000 I-42.062145 J-8.028956
G03 X-251.399000 Y140.594000 Z-5.250000 I-28.056552 J-5.720604
G03 X-251.521896 Y141.116593 Z-5.250000 I-31.315753 J-7.088666
G03 X-251.656000 Y141.636000 Z-5.250000 I-19.536140 J-4.766945
G03 X-251.803399 Y142.151837 Z-5.250000 I-21.002742 J-5.722486
G03 X-251.965000 Y142.663000 Z-5.250000 I-16.516600 J-4.940503
G03 X-252.143839 Y143.169134 Z-5.250000 I-16.685523 J-5.611061
G03 X-252.339000 Y143.668000 Z-5.250000 I-13.948099 J-5.169011
G03 X-252.553665 Y144.158653 Z-5.250000 I-13.073736 J-5.427581
G03 X-252.789000 Y144.642000 Z-5.250000 I-11.218698 J-5.163272
G02 X-253.008890 Y145.119963 Z-5.250000 I5.330672 J2.741975
G02 X-253.189000 Y145.597000 Z-5.250000 I8.985347 J3.665022
G02 X-253.349821 Y146.091827 Z-5.250000 I12.126755 J4.214787
G02 X-253.498000 Y146.586000 Z-5.250000 I93.241934 J28.228206
G03 X-253.650625 Y147.081093 Z-5.250000 I-44.007700 J-13.295378
G03 X-253.819000 Y147.571000 Z-5.250000 I-9.369084 J-2.946160
G03 X-253.999942 Y148.046564 Z-5.250000 I-28.928977 J-10.734652
G03 X-254.187000 Y148.516000 Z-5.250000 I-31.897552 J-12.438361
G03 X-254.382215 Y148.984384 Z-5.250000 I-35.071209 J-14.342220
G03 X-254.583000 Y149.448000 Z-5.250000 I-32.691068 J-13.882742
G03 X-254.791745 Y149.910137 Z-5.250000 I-33.403539 J-14.809983
G03 X-255.007000 Y150.368000 Z-5.250000 I-27.801618 J-12.790850
G03 X-255.229059 Y150.823357 Z-5.250000 I-31.418338 J-15.039598
G03 X-255.458000 Y151.276000 Z-5.250000 I-31.248970 J-15.521126
G03 X-255.693461 Y151.723920 Z-5.250000 I-31.728756 J-16.393191
G03 X-255.935000 Y152.169000 Z-5.250000 I-36.304373 J-19.413846
G03 X-256.183438 Y152.609667 Z-5.250000 I-37.013219 J-20.576840
G03 X-256.439000 Y153.048000 Z-5.250000 I-25.858548 J-14.782687
G03 X-256.698735 Y153.480778 Z-5.250000 I-28.026180 J-16.525782
G03 X-256.967000 Y153.913000 Z-5.250000 I-30.214322 J-18.453618
G03 X-257.238632 Y154.337875 Z-5.250000 I-33.097625 J-20.860827
G03 X-257.518000 Y154.762000 Z-5.250000 I-29.663696 J-19.235140
G03 X-257.801736 Y155.180120 Z-5.250000 I-28.423771 J-18.983019
G03 X-258.092000 Y155.596000 Z-5.250000 I-36.372777 J-25.077200
G02 X-258.403646 Y156.037425 Z-5.250000 I223.085775 J157.829396
G02 X-258.715000 Y156.481000 Z-5.250000 I127.279615 J89.671042
G02 X-259.023645 Y156.923919 Z-5.250000 I225.040148 J157.146682
G02 X-259.332000 Y157.369000 Z-5.250000 I127.813388 J88.879279
G02 X-259.637809 Y157.815392 Z-5.250000 I182.159517 J125.119670
G02 X-259.941000 Y158.262000 Z-5.250000 I74.205493 J50.702466
G02 X-260.242105 Y158.712095 Z-5.250000 I49.321529 J33.320899
G02 X-260.539000 Y159.163000 Z-5.250000 I81.359092 J53.893528
G02 X-260.833412 Y159.617434 Z-5.250000 I41.547201 J27.239555
G02 X-261.124000 Y160.074000 Z-5.250000 I86.920220 J55.642422
G02 X-261.409697 Y160.532418 Z-5.250000 I50.635848 J31.875681
G02 X-261.691000 Y160.994000 Z-5.250000 I41.970750 J25.894857
G02 X-261.968114 Y161.459198 Z-5.250000 I33.216643 J20.101981
G02 X-262.239000 Y161.927000 Z-5.250000 I43.253554 J25.358776
G02 X-262.504407 Y162.397466 Z-5.250000 I40.013722 J22.883247
G02 X-262.764000 Y162.872000 Z-5.250000 I32.839702 J18.273212
G02 X-263.016672 Y163.349362 Z-5.250000 I30.185276 J16.282909
G02 X-263.263000 Y163.832000 Z-5.250000 I34.202958 J17.760608
G02 X-263.501128 Y164.316245 Z-5.250000 I36.447510 J18.223755
G02 X-263.733000 Y164.806000 Z-5.250000 I29.652834 J14.338765
G02 X-263.951617 Y165.278712 Z-5.250000 I281.844287 J130.632572
G03 X-264.172000 Y165.752000 Z-5.250000 I-68.798752 J-31.747659
G03 X-264.394271 Y166.223163 Z-5.250000 I-56.671845 J-26.446861
G03 X-264.621000 Y166.692000 Z-5.250000 I-42.857164 J-20.436473
G03 X-264.854037 Y167.159689 Z-5.250000 I-30.872306 J-15.090936
G03 X-265.094000 Y167.621000 Z-5.250000 I-23.679402 J-12.024403
G03 X-265.342440 Y168.080221 Z-5.250000 I-19.747901 J-10.386883
G03 X-265.601000 Y168.532000 Z-5.250000 I-18.639515 J-10.367780
G03 X-265.872009 Y168.976552 Z-5.250000 I-17.273919 J-10.225698
G03 X-266.156000 Y169.414000 Z-5.250000 I-14.364142 J-9.014279
G03 X-266.452732 Y169.840649 Z-5.250000 I-12.482751 J-8.365177
G03 X-266.767000 Y170.259000 Z-5.250000 I-11.003352 J-7.938569
G03 X-267.094008 Y170.660443 Z-5.250000 I-10.602697 J-8.302847
G03 X-267.441000 Y171.053000 Z-5.250000 I-9.487592 J-8.036712
G03 X-267.706798 Y171.336300 Z-5.250000 I-22.374163 J-20.725540
G03 X-267.977000 Y171.615000 Z-5.250000 I-14.048142 J-13.349480
G03 X-268.253167 Y171.887669 Z-5.250000 I-11.653169 J-11.526504
G03 X-268.537000 Y172.153000 Z-5.250000 I-8.720507 J-9.044103
G03 X-268.829058 Y172.409406 Z-5.250000 I-8.274263 J-9.130221
G03 X-269.129000 Y172.655000 Z-5.250000 I-6.746833 J-7.933898
G03 X-269.535966 Y172.973653 Z-5.250000 I-86.549429 J-110.116880
G03 X-269.945000 Y173.292000 Z-5.250000 I-147.599453 J-189.224030
G03 X-270.353573 Y173.609334 Z-5.250000 I-93.810842 J-120.361081
G03 X-270.763000 Y173.926000 Z-5.250000 I-467.586960 J-604.135775
G02 X-271.172571 Y174.242833 Z-5.250000 I371.861508 J481.128744
G03 X-271.583000 Y174.559000 Z-5.250000 I-64.532898 J-83.348384
G02 X-271.992889 Y174.874318 Z-5.250000 I5277.974106 J6861.185814
G03 X-272.404000 Y175.190000 Z-5.250000 I-173.096571 J-224.997534
G01 X-273.225000 Y175.821000 Z-5.250000
G01 X-274.045000 Y176.454000 Z-5.250000
G02 X-274.454318 Y176.770485 Z-5.250000 I827.626263 J1070.817458
G02 X-274.864000 Y177.088000 Z-5.250000 I166.313624 J215.012995
G02 X-275.273034 Y177.406347 Z-5.250000 I147.190417 J189.542378
G02 X-275.680000 Y177.725000 Z-5.250000 I86.142463 J110.435533
G02 X-276.087241 Y178.044646 Z-5.250000 I141.819062 J181.102272
G02 X-276.494000 Y178.366000 Z-5.250000 I78.490237 J99.768267
G02 X-276.898635 Y178.687958 Z-5.250000 I84.955200 J107.186466
G02 X-277.304000 Y179.012000 Z-5.250000 I430.514047 J538.973341
G02 X-277.732551 Y179.357613 Z-5.250000 I125.136090 J155.604006
G02 X-278.161000 Y179.706000 Z-5.250000 I65.569384 J81.075351
G02 X-278.588647 Y180.054792 Z-5.250000 I65.360819 J80.574113
G02 X-279.015000 Y180.406000 Z-5.250000 I79.252389 J96.643816
G02 X-279.439131 Y180.757444 Z-5.250000 I167.536149 J202.618498
G02 X-279.864000 Y181.111000 Z-5.250000 I169.131120 J203.677058
G02 X-280.286041 Y181.464594 Z-5.250000 I66.728438 J80.074126
G02 X-280.708000 Y181.821000 Z-5.250000 I131.073194 J155.609084
G02 X-281.128723 Y182.177621 Z-5.250000 I72.244956 J85.657521
G02 X-281.549000 Y182.536000 Z-5.250000 I364.591458 J427.987205
G02 X-281.967219 Y182.895116 Z-5.250000 I152.034417 J177.479515
G02 X-282.385000 Y183.256000 Z-5.250000 I101.799699 J118.271501
G02 X-282.802307 Y183.617300 Z-5.250000 I56.338883 J65.493952
G02 X-283.218000 Y183.980000 Z-5.250000 I283.410272 J325.237882
G02 X-283.633401 Y184.343648 Z-5.250000 I181.430632 J207.670607
G02 X-284.048000 Y184.708000 Z-5.250000 I198.344297 J226.115188
G02 X-284.421315 Y185.041346 Z-5.250000 I33.196542 J37.552649
G02 X-284.793000 Y185.379000 Z-5.250000 I47.105661 J52.226612
G02 X-285.160478 Y185.719364 Z-5.250000 I41.725861 J45.418415
G02 X-285.526000 Y186.063000 Z-5.250000 I50.733761 J54.331139
G02 X-285.888964 Y186.408344 Z-5.250000 I35.926824 J38.123223
G02 X-286.250000 Y186.757000 Z-5.250000 I65.725322 J68.420441
G02 X-286.609072 Y187.106200 Z-5.250000 I57.815624 J59.809266
G02 X-286.967000 Y187.458000 Z-5.250000 I76.566998 J78.258747
G02 X-287.323377 Y187.811127 Z-5.250000 I100.041384 J101.318506
G02 X-287.679000 Y188.165000 Z-5.250000 I501.967971 J504.806029
G01 X-288.387000 Y188.874000 Z-5.250000
G02 X-288.750083 Y189.244331 Z-5.250000 I23.441551 J23.345871
G02 X-289.108000 Y189.620000 Z-5.250000 I28.843474 J27.838882
G02 X-289.461495 Y189.999127 Z-5.250000 I29.954591 J28.283817
G02 X-289.811000 Y190.381000 Z-5.250000 I64.223065 J59.130251
G02 X-290.159544 Y190.765187 Z-5.250000 I119.437262 J108.706558
G03 X-290.507000 Y191.149000 Z-5.250000 I-358.427718 J-324.126311
G03 X-290.855467 Y191.533366 Z-5.250000 I-997.717694 J-904.181639
G03 X-291.205000 Y191.915000 Z-5.250000 I-39.272993 J-35.618720
G00 Z5.000000

(End cutting path id: path264)


(Start cutting path id: path264)
(Change tool to Default tool)

G00 Z5.000000
G00 X-277.393000 Y162.315000

G01 Z-5.250000 F6000.0(Penetrate)
G03 X-277.537303 Y161.846429 Z-5.250000 I0.789677 J-0.499697 F6000.000000
G03 X-277.482000 Y161.458000 Z-5.250000 I1.127771 J-0.037585
G03 X-277.296291 Y161.030105 Z-5.250000 I2.312083 J0.749212
G02 X-277.122000 Y160.641000 Z-5.250000 I-2.211014 J-1.223962
G03 X-276.939832 Y160.117734 Z-5.250000 I204.844502 J71.020583
G03 X-276.756000 Y159.594000 Z-5.250000 I205.394330 J71.799741
G03 X-276.570752 Y159.072357 Z-5.250000 I175.306587 J61.961812
G03 X-276.383000 Y158.550000 Z-5.250000 I112.059688 J39.982999
G03 X-276.193979 Y158.029402 Z-5.250000 I103.206231 J37.178037
G03 X-276.001000 Y157.509000 Z-5.250000 I60.639976 J22.190897
G03 X-275.805863 Y156.990719 Z-5.250000 I80.487399 J30.008308
G03 X-275.607000 Y156.474000 Z-5.250000 I63.606987 J24.182957
G03 X-275.404170 Y155.957680 Z-5.250000 I67.251612 J26.120916
G03 X-275.197000 Y155.444000 Z-5.250000 I49.562873 J19.690409
G03 X-274.985318 Y154.931915 Z-5.250000 I74.646520 J30.557055
G03 X-274.769000 Y154.421000 Z-5.250000 I50.269925 J20.982693
G03 X-274.546641 Y153.913413 Z-5.250000 I68.102604 J29.531218
G03 X-274.319000 Y153.408000 Z-5.250000 I38.574910 J17.070418
G03 X-274.084969 Y152.905434 Z-5.250000 I41.661152 J19.094695
G03 X-273.845000 Y152.406000 Z-5.250000 I41.383451 J19.576603
G03 X-273.598262 Y151.909645 Z-5.250000 I33.830945 J16.507871
G03 X-273.344000 Y151.417000 Z-5.250000 I31.832152 J16.117133
G03 X-273.083434 Y150.929072 Z-5.250000 I28.271383 J14.784118
G03 X-272.814000 Y150.443000 Z-5.250000 I34.956834 J19.059151
G03 X-272.534246 Y149.962492 Z-5.250000 I17.167841 J9.673520
G02 X-272.247000 Y149.483000 Z-5.250000 I-148.654513 J-89.379105
G02 X-271.966269 Y149.001821 Z-5.250000 I-26.456738 J-15.757932
G02 X-271.703000 Y148.512000 Z-5.250000 I-9.316974 J-5.323358
G03 X-271.370470 Y148.188659 Z-5.250000 I0.637499 J0.322954
G03 X-270.888000 Y148.084000 Z-5.250000 I0.467499 J0.990733
G02 X-270.466139 Y148.081136 Z-5.250000 I0.142824 J-10.033359
G02 X-270.044000 Y148.064000 Z-5.250000 I-0.460407 J-16.550172
G02 X-269.622702 Y148.037016 Z-5.250000 I-1.058216 J-19.823910
G02 X-269.201000 Y148.004000 Z-5.250000 I-4.457230 J-59.640831
G02 X-268.779942 Y147.968746 Z-5.250000 I-9.243187 J-112.927619
G03 X-268.359000 Y147.935000 Z-5.250000 I3.334117 J38.947314
G03 X-267.937516 Y147.908635 Z-5.250000 I1.746361 J24.536372
G03 X-267.515000 Y147.892000 Z-5.250000 I0.783497 J14.525748
G03 X-267.101554 Y147.916649 Z-5.250000 I0.060833 J2.459371
G03 X-266.622000 Y148.000000 Z-5.250000 I-1.234405 J8.523301
G03 X-266.233128 Y148.079834 Z-5.250000 I-13.633577 J67.396174
G02 X-265.736000 Y148.173000 Z-5.250000 I2.564586 J-12.311582
G03 X-265.493380 Y147.779342 Z-5.250000 I43.234106 J26.374473
G02 X-265.175000 Y147.265000 Z-5.250000 I-97.922738 J-60.970413
G02 X-264.906011 Y146.823474 Z-5.250000 I-37.765632 J-23.310510
G02 X-264.628000 Y146.350000 Z-5.250000 I-22.586071 J-13.580272
G02 X-264.360424 Y145.881834 Z-5.250000 I-142.681738 J-81.859075
G02 X-264.095000 Y145.412000 Z-5.250000 I-69.824537 J-39.755926
G02 X-263.830731 Y144.942340 Z-5.250000 I-109.864734 J-62.127980
G02 X-263.568000 Y144.472000 Z-5.250000 I-241.987805 J-135.482582
G01 X-263.045000 Y143.529000 Z-5.250000
G01 X-262.521000 Y142.587000 Z-5.250000
G03 X-262.257735 Y142.116821 Z-5.250000 I118.699911 J66.154408
G03 X-261.992000 Y141.647000 Z-5.250000 I100.858957 J56.736549
G03 X-261.725546 Y141.178834 Z-5.250000 I84.911023 J48.016777
G03 X-261.456000 Y140.712000 Z-5.250000 I67.888310 J38.886852
G03 X-261.184057 Y140.246847 Z-5.250000 I53.309118 J30.854152
G03 X-260.909000 Y139.783000 Z-5.250000 I126.713736 J74.826499
G03 X-260.629863 Y139.322061 Z-5.250000 I63.846838 J38.349562
G03 X-260.346000 Y138.863000 Z-5.250000 I40.584160 J24.778175
G03 X-260.058393 Y138.408095 Z-5.250000 I44.006008 J27.503755
G03 X-259.766000 Y137.955000 Z-5.250000 I55.255129 J35.336593
G03 X-259.485338 Y137.555397 Z-5.250000 I6.740688 J4.435967
G03 X-259.190000 Y137.187000 Z-5.250000 I5.693240 J4.261602
G03 X-258.861153 Y136.828654 Z-5.250000 I5.203651 J4.445224
G03 X-258.516000 Y136.502000 Z-5.250000 I4.851956 J4.781055
G03 X-258.143490 Y136.196407 Z-5.250000 I4.340193 J4.910735
G03 X-257.752000 Y135.921000 Z-5.250000 I3.894856 J5.120581
G03 X-257.339983 Y135.676120 Z-5.250000 I3.434969 J5.310383
G03 X-256.908000 Y135.462000 Z-5.250000 I3.019329 J5.548605
G03 X-256.467691 Y135.284177 Z-5.250000 I2.505803 J5.570592
G03 X-256.005000 Y135.136000 Z-5.250000 I2.346098 J6.529356
G03 X-255.546182 Y135.026013 Z-5.250000 I1.831654 J6.628842
G03 X-255.064000 Y134.945000 Z-5.250000 I1.414292 J6.942321
G03 X-254.597003 Y134.899780 Z-5.250000 I0.953672 J7.414801
G03 X-254.105000 Y134.883000 Z-5.250000 I0.516100 J7.911057
G03 X-253.519877 Y134.923881 Z-5.250000 I0.000000 J4.207864
G03 X-253.018000 Y135.033000 Z-5.250000 I-0.479226 J3.412834
G03 X-252.483006 Y135.245484 Z-5.250000 I-0.912069 J3.076160
G03 X-252.039000 Y135.524000 Z-5.250000 I-1.281729 J2.536487
G03 X-251.636156 Y135.904609 Z-5.250000 I-1.713798 J2.217414
G03 X-251.321000 Y136.351000 Z-5.250000 I-2.067239 J1.793933
G03 X-251.105195 Y136.836849 Z-5.250000 I-2.454026 J1.380883
G03 X-250.975000 Y137.389000 Z-5.250000 I-2.930571 J0.982445
G03 X-250.941718 Y137.909835 Z-5.250000 I-3.243876 J0.468768
G03 X-250.995000 Y138.486000 Z-5.250000 I-3.793569 J-0.060271
G03 X-251.085906 Y139.013979 Z-5.250000 I-59.567133 J-9.984264
G03 X-251.183000 Y139.543000 Z-5.250000 I-40.275436 J-7.118561
G03 X-251.286852 Y140.069150 Z-5.250000 I-42.062145 J-8.028956
G03 X-251.399000 Y140.594000 Z-5.250000 I-28.056552 J-5.720604
G03 X-251.521896 Y141.116593 Z-5.250000 I-31.315753 J-7.088666
G03 X-251.656000 Y141.636000 Z-5.250000 I-19.536140 J-4.766945
G03 X-251.803399 Y142.151837 Z-5.250000 I-21.002742 J-5.722486
G03 X-251.965000 Y142.663000 Z-5.250000 I-16.516600 J-4.940503
G03 X-252.143839 Y143.169134 Z-5.250000 I-16.685523 J-5.611061
G03 X-252.339000 Y143.668000 Z-5.250000 I-13.948099 J-5.169011
G03 X-252.553665 Y144.158653 Z-5.250000 I-13.073736 J-5.427581
G03 X-252.789000 Y144.642000 Z-5.250000 I-11.218698 J-5.163272
G02 X-253.008890 Y145.119963 Z-5.250000 I5.330672 J2.741975
G02 X-253.189000 Y145.597000 Z-5.250000 I8.985347 J3.665022
G02 X-253.349821 Y146.091827 Z-5.250000 I12.126755 J4.214787
G02 X-253.498000 Y146.586000 Z-5.250000 I93.241934 J28.228206
G03 X-253.650625 Y147.081093 Z-5.250000 I-44.007700 J-13.295378
G03 X-253.819000 Y147.571000 Z-5.250000 I-9.369084 J-2.946160
G03 X-253.999942 Y148.046564 Z-5.250000 I-28.928977 J-10.734652
G03 X-254.187000 Y148.516000 Z-5.250000 I-31.897552 J-12.438361
G03 X-254.382215 Y148.984384 Z-5.250000 I-35.071209 J-14.342220
G03 X-254.583000 Y149.448000 Z-5.250000 I-32.691068 J-13.882742
G03 X-254.791745 Y149.910137 Z-5.250000 I-33.403539 J-14.809983
G03 X-255.007000 Y150.368000 Z-5.250000 I-27.801618 J-12.790850
G03 X-255.229059 Y150.823357 Z-5.250000 I-31.418338 J-15.039598
G03 X-255.458000 Y151.276000 Z-5.250000 I-31.248970 J-15.521126
G03 X-255.693461 Y151.723920 Z-5.250000 I-31.728756 J-16.393191
G03 X-255.935000 Y152.169000 Z-5.250000 I-36.304373 J-19.413846
G03 X-256.183438 Y152.609667 Z-5.250000 I-37.013219 J-20.576840
G03 X-256.439000 Y153.048000 Z-5.250000 I-25.858548 J-14.782687
G03 X-256.698735 Y153.480778 Z-5.250000 I-28.026180 J-16.525782
G03 X-256.967000 Y153.913000 Z-5.250000 I-30.214322 J-18.453618
G03 X-257.238632 Y154.337875 Z-5.250000 I-33.097625 J-20.860827
G03 X-257.518000 Y154.762000 Z-5.250000 I-29.663696 J-19.235140
G03 X-257.801736 Y155.180120 Z-5.250000 I-28.423771 J-18.983019
G03 X-258.092000 Y155.596000 Z-5.250000 I-36.372777 J-25.077200
G02 X-258.403646 Y156.037425 Z-5.250000 I223.085775 J157.829396
G02 X-258.715000 Y156.481000 Z-5.250000 I127.279615 J89.671042
G02 X-259.023645 Y156.923919 Z-5.250000 I225.040148 J157.146682
G02 X-259.332000 Y157.369000 Z-5.250000 I127.813388 J88.879279
G02 X-259.637809 Y157.815392 Z-5.250000 I182.159517 J125.119670
G02 X-259.941000 Y158.262000 Z-5.250000 I74.205493 J50.702466
G02 X-260.242105 Y158.712095 Z-5.250000 I49.321529 J33.320899
G02 X-260.539000 Y159.163000 Z-5.250000 I81.359092 J53.893528
G02 X-260.833412 Y159.617434 Z-5.250000 I41.547201 J27.239555
G02 X-261.124000 Y160.074000 Z-5.250000 I86.920220 J55.642422
G02 X-261.409697 Y160.532418 Z-5.250000 I50.635848 J31.875681
G02 X-261.691000 Y160.994000 Z-5.250000 I41.970750 J25.894857
G02 X-261.968114 Y161.459198 Z-5.250000 I33.216643 J20.101981
G02 X-262.239000 Y161.927000 Z-5.250000 I43.253554 J25.358776
G02 X-262.504407 Y162.397466 Z-5.250000 I40.013722 J22.883247
G02 X-262.764000 Y162.872000 Z-5.250000 I32.839702 J18.273212
G02 X-263.016672 Y163.349362 Z-5.250000 I30.185276 J16.282909
G02 X-263.263000 Y163.832000 Z-5.250000 I34.202958 J17.760608
G02 X-263.501128 Y164.316245 Z-5.250000 I36.447510 J18.223755
G02 X-263.733000 Y164.806000 Z-5.250000 I29.652834 J14.338765
G02 X-263.951617 Y165.278712 Z-5.250000 I281.844287 J130.632572
G03 X-264.172000 Y165.752000 Z-5.250000 I-68.798752 J-31.747659
G03 X-264.394271 Y166.223163 Z-5.250000 I-56.671845 J-26.446861
G03 X-264.621000 Y166.692000 Z-5.250000 I-42.857164 J-20.436473
G03 X-264.854037 Y167.159689 Z-5.250000 I-30.872306 J-15.090936
G03 X-265.094000 Y167.621000 Z-5.250000 I-23.679402 J-12.024403
G03 X-265.342440 Y168.080221 Z-5.250000 I-19.747901 J-10.386883
G03 X-265.601000 Y168.532000 Z-5.250000 I-18.639515 J-10.367780
G03 X-265.872009 Y168.976552 Z-5.250000 I-17.273919 J-10.225698
G03 X-266.156000 Y169.414000 Z-5.250000 I-14.364142 J-9.014279
G03 X-266.452732 Y169.840649 Z-5.250000 I-12.482751 J-8.365177
G03 X-266.767000 Y170.259000 Z-5.250000 I-11.003352 J-7.938569
G03 X-267.094008 Y170.660443 Z-5.250000 I-10.602697 J-8.302847
G03 X-267.441000 Y171.053000 Z-5.250000 I-9.487592 J-8.036712
G03 X-267.706798 Y171.336300 Z-5.250000 I-22.374163 J-20.725540
G03 X-267.977000 Y171.615000 Z-5.250000 I-14.048142 J-13.349480
G03 X-268.253167 Y171.887669 Z-5.250000 I-11.653169 J-11.526504
G03 X-268.537000 Y172.153000 Z-5.250000 I-8.720507 J-9.044103
G03 X-268.829058 Y172.409406 Z-5.250000 I-8.274263 J-9.130221
G03 X-269.129000 Y172.655000 Z-5.250000 I-6.746833 J-7.933898
G03 X-269.535966 Y172.973653 Z-5.250000 I-86.549429 J-110.116880
G03 X-269.945000 Y173.292000 Z-5.250000 I-147.599453 J-189.224030
G03 X-270.353573 Y173.609334 Z-5.250000 I-93.810842 J-120.361081
G03 X-270.763000 Y173.926000 Z-5.250000 I-467.586960 J-604.135775
G02 X-271.172571 Y174.242833 Z-5.250000 I371.861508 J481.128744
G03 X-271.583000 Y174.559000 Z-5.250000 I-64.532898 J-83.348384
G02 X-271.992889 Y174.874318 Z-5.250000 I5277.974106 J6861.185814
G03 X-272.404000 Y175.190000 Z-5.250000 I-173.096571 J-224.997534
G01 X-273.225000 Y175.821000 Z-5.250000
G01 X-274.045000 Y176.454000 Z-5.250000
G02 X-274.454318 Y176.770485 Z-5.250000 I827.626263 J1070.817458
G02 X-274.864000 Y177.088000 Z-5.250000 I166.313624 J215.012995
G02 X-275.273034 Y177.406347 Z-5.250000 I147.190417 J189.542378
G02 X-275.680000 Y177.725000 Z-5.250000 I86.142463 J110.435533
G02 X-276.087241 Y178.044646 Z-5.250000 I141.819062 J181.102272
G02 X-276.494000 Y178.366000 Z-5.250000 I78.490237 J99.768267
G02 X-276.898635 Y178.687958 Z-5.250000 I84.955200 J107.186466
G02 X-277.304000 Y179.012000 Z-5.250000 I430.514047 J538.973341
G02 X-277.732551 Y179.357613 Z-5.250000 I125.136090 J155.604006
G02 X-278.161000 Y179.706000 Z-5.250000 I65.569384 J81.075351
G02 X-278.588647 Y180.054792 Z-5.250000 I65.360819 J80.574113
G02 X-279.015000 Y180.406000 Z-5.250000 I79.252389 J96.643816
G02 X-279.439131 Y180.757444 Z-5.250000 I167.536149 J202.618498
G02 X-279.864000 Y181.111000 Z-5.250000 I169.131120 J203.677058
G02 X-280.286041 Y181.464594 Z-5.250000 I66.728438 J80.074126
G02 X-280.708000 Y181.821000 Z-5.250000 I131.073194 J155.609084
G02 X-281.128723 Y182.177621 Z-5.250000 I72.244956 J85.657521
G02 X-281.549000 Y182.536000 Z-5.250000 I364.591458 J427.987205
G02 X-281.967219 Y182.895116 Z-5.250000 I152.034417 J177.479515
G02 X-282.385000 Y183.256000 Z-5.250000 I101.799699 J118.271501
G02 X-282.802307 Y183.617300 Z-5.250000 I56.338883 J65.493952
G02 X-283.218000 Y183.980000 Z-5.250000 I283.410272 J325.237882
G02 X-283.633401 Y184.343648 Z-5.250000 I181.430632 J207.670607
G02 X-284.048000 Y184.708000 Z-5.250000 I198.344297 J226.115188
G02 X-284.421315 Y185.041346 Z-5.250000 I33.196542 J37.552649
G02 X-284.793000 Y185.379000 Z-5.250000 I47.105661 J52.226612
G02 X-285.160478 Y185.719364 Z-5.250000 I41.725861 J45.418415
G02 X-285.526000 Y186.063000 Z-5.250000 I50.733761 J54.331139
G02 X-285.888964 Y186.408344 Z-5.250000 I35.926824 J38.123223
G02 X-286.250000 Y186.757000 Z-5.250000 I65.725322 J68.420441
G02 X-286.609072 Y187.106200 Z-5.250000 I57.815624 J59.809266
G02 X-286.967000 Y187.458000 Z-5.250000 I76.566998 J78.258747
G02 X-287.323377 Y187.811127 Z-5.250000 I100.041384 J101.318506
G02 X-287.679000 Y188.165000 Z-5.250000 I501.967971 J504.806029
G01 X-288.387000 Y188.874000 Z-5.250000
G02 X-288.750083 Y189.244331 Z-5.250000 I23.441551 J23.345871
G02 X-289.108000 Y189.620000 Z-5.250000 I28.843474 J27.838882
G02 X-289.461495 Y189.999127 Z-5.250000 I29.954591 J28.283817
G02 X-289.811000 Y190.381000 Z-5.250000 I64.223065 J59.130251
G02 X-290.159544 Y190.765187 Z-5.250000 I119.437262 J108.706558
G03 X-290.507000 Y191.149000 Z-5.250000 I-358.427718 J-324.126311
G03 X-290.855467 Y191.533366 Z-5.250000 I-997.717694 J-904.181639
G03 X-291.205000 Y191.915000 Z-5.250000 I-39.272993 J-35.618720
G00 Z5.000000

(End cutting path id: path264)


(Start cutting path id: path266)
(Change tool to Default tool)

G00 Z5.000000
G00 X-292.249000 Y192.517000

G01 Z-5.250000 F6000.0(Penetrate)
G01 X-293.293000 Y192.718000 Z-5.250000 F6000.000000
G02 X-293.814931 Y192.817612 Z-5.250000 I42.850523 J225.939241
G02 X-294.337000 Y192.918000 Z-5.250000 I217.138984 J1130.635407
G01 X-295.381000 Y193.119000 Z-5.250000
G00 Z5.000000

(End cutting path id: path266)


(Start cutting path id: path266)
(Change tool to Default tool)

G00 Z5.000000
G00 X-292.249000 Y192.517000

G01 Z-5.250000 F6000.0(Penetrate)
G01 X-293.293000 Y192.718000 Z-5.250000 F6000.000000
G02 X-293.814931 Y192.817612 Z-5.250000 I42.850523 J225.939241
G02 X-294.337000 Y192.918000 Z-5.250000 I217.138984 J1130.635407
G01 X-295.381000 Y193.119000 Z-5.250000
G00 Z5.000000

(End cutting path id: path266)


(Start cutting path id: path332)
(Change tool to Default tool)

G00 Z5.000000
G00 X-296.184000 Y192.798000

G01 Z-5.250000 F6000.0(Penetrate)
G02 X-296.555539 Y192.535823 Z-5.250000 I-0.935422 J0.931264 F6000.000000
G02 X-296.935000 Y192.406000 Z-5.250000 I-0.768155 J1.625777
G02 X-297.348249 Y192.341604 Z-5.250000 I-0.693552 J3.092559
G03 X-297.787000 Y192.292000 Z-5.250000 I0.812892 J-9.155309
G03 X-298.233992 Y192.217455 Z-5.250000 I1.042859 J-7.630677
G03 X-298.679000 Y192.121000 Z-5.250000 I2.346165 J-11.899130
G03 X-299.118934 Y192.011992 Z-5.250000 I4.186598 J-17.838550
G03 X-299.559000 Y191.896000 Z-5.250000 I23.358637 J-89.513684
G02 X-299.999645 Y191.782519 Z-5.250000 I-11.729070 J44.631396
G02 X-300.441000 Y191.679000 Z-5.250000 I-3.311525 J13.126170
G02 X-300.990198 Y191.568466 Z-5.250000 I-3.496055 J15.950752
G02 X-301.537000 Y191.481000 Z-5.250000 I-2.187560 J11.922877
G02 X-302.091976 Y191.418177 Z-5.250000 I-1.553038 J11.236685
G02 X-302.646000 Y191.384000 Z-5.250000 I-0.921964 J10.437977
G02 X-303.201956 Y191.381881 Z-5.250000 I-0.315120 J9.742464
G02 X-303.759000 Y191.415000 Z-5.250000 I0.198844 J8.045534
G02 X-304.303999 Y191.484226 Z-5.250000 I0.753796 J8.114394
G02 X-304.857000 Y191.595000 Z-5.250000 I1.194262 J7.397655
G00 Z5.000000

(End cutting path id: path332)


(Start cutting path id: path332)
(Change tool to Default tool)

G00 Z5.000000
G00 X-296.184000 Y192.798000

G01 Z-5.250000 F6000.0(Penetrate)
G02 X-296.555539 Y192.535823 Z-5.250000 I-0.935422 J0.931264 F6000.000000
G02 X-296.935000 Y192.406000 Z-5.250000 I-0.768155 J1.625777
G02 X-297.348249 Y192.341604 Z-5.250000 I-0.693552 J3.092559
G03 X-297.787000 Y192.292000 Z-5.250000 I0.812892 J-9.155309
G03 X-298.233992 Y192.217455 Z-5.250000 I1.042859 J-7.630677
G03 X-298.679000 Y192.121000 Z-5.250000 I2.346165 J-11.899130
G03 X-299.118934 Y192.011992 Z-5.250000 I4.186598 J-17.838550
G03 X-299.559000 Y191.896000 Z-5.250000 I23.358637 J-89.513684
G02 X-299.999645 Y191.782519 Z-5.250000 I-11.729070 J44.631396
G02 X-300.441000 Y191.679000 Z-5.250000 I-3.311525 J13.126170
G02 X-300.990198 Y191.568466 Z-5.250000 I-3.496055 J15.950752
G02 X-301.537000 Y191.481000 Z-5.250000 I-2.187560 J11.922877
G02 X-302.091976 Y191.418177 Z-5.250000 I-1.553038 J11.236685
G02 X-302.646000 Y191.384000 Z-5.250000 I-0.921964 J10.437977
G02 X-303.201956 Y191.381881 Z-5.250000 I-0.315120 J9.742464
G02 X-303.759000 Y191.415000 Z-5.250000 I0.198844 J8.045534
G02 X-304.303999 Y191.484226 Z-5.250000 I0.753796 J8.114394
G02 X-304.857000 Y191.595000 Z-5.250000 I1.194262 J7.397655
G00 Z5.000000

(End cutting path id: path332)


(Start cutting path id: path268)
(Change tool to Default tool)

G00 Z5.000000
G00 X-296.586000 Y193.319000

G01 Z-5.250000 F6000.0(Penetrate)
G01 X-297.489000 Y193.429000 Z-5.250000 F6000.000000
G03 X-297.940256 Y193.482956 Z-5.250000 I-826.482814 J-6907.694683
G03 X-298.393000 Y193.537000 Z-5.250000 I-166.433007 J-1392.442367
G02 X-298.844409 Y193.591739 Z-5.250000 I16.492963 J137.899500
G02 X-299.296000 Y193.648000 Z-5.250000 I16.971662 J138.066761
G02 X-299.747407 Y193.704238 Z-5.250000 I16.964747 J138.010500
G02 X-300.199000 Y193.762000 Z-5.250000 I17.444935 J138.182262
G02 X-300.672902 Y193.824737 Z-5.250000 I11.865725 J91.452902
G02 X-301.147000 Y193.889000 Z-5.250000 I61.820847 J457.859760
G02 X-301.619707 Y193.953067 Z-5.250000 I14.592686 J109.445165
G03 X-302.094000 Y194.018000 Z-5.250000 I-40.155490 J-291.545883
G01 X-303.041000 Y194.148000 Z-5.250000
G03 X-303.515050 Y194.211882 Z-5.250000 I-24.901497 J-182.997122
G03 X-303.989000 Y194.275000 Z-5.250000 I-122.015158 J-914.387851
G03 X-304.463596 Y194.336763 Z-5.250000 I-11.564189 J-87.006754
G03 X-304.938000 Y194.397000 Z-5.250000 I-78.308928 J-614.832736
G03 X-305.457990 Y194.448342 Z-5.250000 I-1.277429 J-10.278849
G03 X-305.981000 Y194.484000 Z-5.250000 I-3.744401 J-51.067321
G02 X-306.503149 Y194.518731 Z-5.250000 I5.028542 J79.542398
G02 X-307.025000 Y194.567000 Z-5.250000 I0.809946 J11.601608
G02 X-307.554869 Y194.628358 Z-5.250000 I12.244123 J108.054394
G02 X-308.085000 Y194.692000 Z-5.250000 I18.035522 J152.474686
G02 X-308.614256 Y194.756954 Z-5.250000 I35.775419 J293.680418
G03 X-309.145000 Y194.822000 Z-5.250000 I-30.641098 J-247.812495
G03 X-309.674546 Y194.887881 Z-5.250000 I-141.975695 J-1139.034008
G03 X-310.204000 Y194.953000 Z-5.250000 I-28.265925 J-227.631881
G03 X-310.734134 Y195.017642 Z-5.250000 I-12.369470 J-99.236888
G03 X-311.264000 Y195.080000 Z-5.250000 I-20.799357 J-174.453002
G03 X-311.795207 Y195.140898 Z-5.250000 I-7.974294 J-67.211910
G03 X-312.326000 Y195.198000 Z-5.250000 I-9.702909 J-87.697738
G03 X-312.862903 Y195.252977 Z-5.250000 I-7.681814 J-72.370775
G03 X-313.401000 Y195.305000 Z-5.250000 I-13.582673 J-137.683356
G03 X-313.939101 Y195.354633 Z-5.250000 I-10.403040 J-109.843862
G03 X-314.477000 Y195.402000 Z-5.250000 I-14.237777 J-158.606056
G03 X-315.015033 Y195.448877 Z-5.250000 I-12.025964 J-134.916363
G02 X-315.553000 Y195.495000 Z-5.250000 I37.444616 J439.909847
G02 X-316.090967 Y195.541623 Z-5.250000 I74.706454 J865.148700
G02 X-316.629000 Y195.589000 Z-5.250000 I21.845238 J251.159712
G02 X-317.166896 Y195.637866 Z-5.250000 I14.127391 J158.491671
G02 X-317.705000 Y195.689000 Z-5.250000 I10.187687 J110.067106
G02 X-318.154963 Y195.733121 Z-5.250000 I15.811084 J163.562882
G02 X-318.605000 Y195.778000 Z-5.250000 I81.368514 J818.231836
G02 X-319.054923 Y195.823742 Z-5.250000 I13.639499 J136.395000
G02 X-319.505000 Y195.871000 Z-5.250000 I14.108644 J136.535258
G02 X-319.954460 Y195.919121 Z-5.250000 I60.970420 J571.597532
G02 X-320.404000 Y195.968000 Z-5.250000 I19.262006 J179.244767
G02 X-320.853460 Y196.017121 Z-5.250000 I9.251660 J86.734318
G03 X-321.303000 Y196.067000 Z-5.250000 I-26.632282 J-237.975107
G01 X-322.202000 Y196.169000 Z-5.250000
G02 X-322.732657 Y196.231284 Z-5.250000 I20.071800 J173.302851
G02 X-323.262000 Y196.295000 Z-5.250000 I22.109121 J185.909720
G02 X-323.792700 Y196.358665 Z-5.250000 I24.205208 J204.015195
G02 X-324.322000 Y196.423000 Z-5.250000 I122.953198 J1013.772684
G01 X-325.382000 Y196.553000 Z-5.250000
G03 X-325.911346 Y196.618216 Z-5.250000 I-23.169973 J-185.886337
G03 X-326.442000 Y196.682000 Z-5.250000 I-21.061570 J-172.982538
G03 X-326.971840 Y196.744717 Z-5.250000 I-52.338519 J-439.892733
G03 X-327.503000 Y196.806000 Z-5.250000 I-13.299083 J-112.934844
G03 X-328.024042 Y196.865880 Z-5.250000 I-86.971954 J-754.483459
G03 X-328.545000 Y196.925000 Z-5.250000 I-27.701775 J-241.780274
G03 X-329.067041 Y196.983380 Z-5.250000 I-123.694530 J-1103.739000
G03 X-329.589000 Y197.041000 Z-5.250000 I-24.616004 J-220.592980
G03 X-330.111081 Y197.098759 Z-5.250000 I-20.607128 J-183.879000
G03 X-330.633000 Y197.155000 Z-5.250000 I-20.060154 J-183.708759
G03 X-331.155077 Y197.209758 Z-5.250000 I-19.526431 J-183.654000
G03 X-331.677000 Y197.263000 Z-5.250000 I-18.982010 J-183.492758
G03 X-332.200319 Y197.315294 Z-5.250000 I-73.808417 J-735.975581
G03 X-332.722000 Y197.366000 Z-5.250000 I-11.057533 J-111.054636
G02 X-333.263254 Y197.417464 Z-5.250000 I28.552259 J303.155828
G03 X-333.806000 Y197.469000 Z-5.250000 I-25.491548 J-265.578301
G03 X-334.347535 Y197.519878 Z-5.250000 I-111.455092 J-1183.391945
G03 X-334.889000 Y197.570000 Z-5.250000 I-22.169158 J-236.543681
G03 X-335.430287 Y197.619344 Z-5.250000 I-98.975473 J-1082.730246
G03 X-335.973000 Y197.668000 Z-5.250000 I-19.805127 J-217.857461
G03 X-336.514317 Y197.715223 Z-5.250000 I-17.205487 J-194.099406
G03 X-337.057000 Y197.761000 Z-5.250000 I-15.846603 J-184.621512
G03 X-337.598810 Y197.804225 Z-5.250000 I-39.626794 J-493.285372
G03 X-338.142000 Y197.846000 Z-5.250000 I-9.325132 J-117.701289
G03 X-338.683855 Y197.884982 Z-5.250000 I-7.145649 J-95.539978
G03 X-339.227000 Y197.921000 Z-5.250000 I-6.782045 J-98.158839
G03 X-339.735068 Y197.953128 Z-5.250000 I-9.965611 J-153.560980
G03 X-340.243000 Y197.983000 Z-5.250000 I-5.676301 J-92.184723
G03 X-340.751561 Y198.012128 Z-5.250000 I-8.745988 J-148.244510
G03 X-341.260000 Y198.039000 Z-5.250000 I-5.236877 J-94.263748
G03 X-341.768571 Y198.064003 Z-5.250000 I-3.440532 J-64.796686
G03 X-342.277000 Y198.086000 Z-5.250000 I-5.857240 J-129.495635
G03 X-342.785569 Y198.106377 Z-5.250000 I-2.696306 J-60.936518
G03 X-343.294000 Y198.123000 Z-5.250000 I-2.857778 J-79.626225
G03 X-343.803035 Y198.136502 Z-5.250000 I-2.526910 J-85.662231
G03 X-344.312000 Y198.147000 Z-5.250000 I-2.048700 J-86.984557
G03 X-344.820264 Y198.153370 Z-5.250000 I-1.691937 J-114.713359
G03 X-345.330000 Y198.156000 Z-5.250000 I-0.509736 J-49.402783
G03 X-345.882914 Y198.151871 Z-5.250000 I0.000000 J-37.025954
G03 X-346.436000 Y198.138000 Z-5.250000 I0.407357 J-27.275678
G03 X-346.988991 Y198.114366 Z-5.250000 I1.299842 J-36.895515
G03 X-347.541000 Y198.081000 Z-5.250000 I1.365443 J-27.172680
G03 X-348.091584 Y198.038914 Z-5.250000 I2.267454 J-33.286218
G03 X-348.643000 Y197.987000 Z-5.250000 I2.513977 J-29.657152
G03 X-349.191467 Y197.925564 Z-5.250000 I3.520400 J-33.907009
G03 X-349.741000 Y197.855000 Z-5.250000 I4.100602 J-34.109555
G03 X-350.286823 Y197.775608 Z-5.250000 I4.730915 J-34.441060
G03 X-350.834000 Y197.687000 Z-5.250000 I5.150294 J-33.538275
G03 X-351.377434 Y197.590581 Z-5.250000 I5.020196 J-29.874284
G03 X-351.921000 Y197.485000 Z-5.250000 I7.121390 J-38.115366
G02 X-352.388967 Y197.398359 Z-5.250000 I-2.812621 J13.884524
G02 X-352.859000 Y197.326000 Z-5.250000 I-2.909814 J17.338802
G02 X-353.329907 Y197.265921 Z-5.250000 I-2.588865 J18.416241
G02 X-353.804000 Y197.217000 Z-5.250000 I-2.399970 J20.936500
G02 X-354.276788 Y197.177285 Z-5.250000 I-2.718371 J29.527133
G02 X-354.752000 Y197.145000 Z-5.250000 I-2.263178 J29.798514
G02 X-355.227613 Y197.119745 Z-5.250000 I-2.090584 J34.879748
G02 X-355.703000 Y197.099000 Z-5.250000 I-4.190522 J90.571400
G02 X-356.178791 Y197.081361 Z-5.250000 I-2.482168 J60.526702
G02 X-356.653000 Y197.066000 Z-5.250000 I-10.533649 J317.862990
G02 X-357.168052 Y197.050122 Z-5.250000 I-2.169322 J62.006445
G02 X-357.683000 Y197.038000 Z-5.250000 I-2.193705 J82.246990
G02 X-358.198522 Y197.029001 Z-5.250000 I-1.813580 J89.124506
G02 X-358.714000 Y197.023000 Z-5.250000 I-1.285094 J88.243310
G02 X-359.229005 Y197.019374 Z-5.250000 I-1.320685 J150.998174
G02 X-359.744000 Y197.018000 Z-5.250000 I-0.514995 J96.521321
G02 X-360.259496 Y197.019751 Z-5.250000 I1.531658 J526.881017
G02 X-360.775000 Y197.023000 Z-5.250000 I0.414231 J106.613051
G02 X-361.289985 Y197.028874 Z-5.250000 I0.847024 J96.843143
G02 X-361.805000 Y197.037000 Z-5.250000 I2.113805 J150.288911
G02 X-362.320734 Y197.046758 Z-5.250000 I3.043871 J174.515113
G02 X-362.835000 Y197.058000 Z-5.250000 I3.587733 J175.884567
G02 X-363.357469 Y197.071373 Z-5.250000 I2.304766 J100.257358
G02 X-363.880000 Y197.087000 Z-5.250000 I4.331382 J153.575738
G02 X-364.401989 Y197.103125 Z-5.250000 I3.483369 J121.221375
G03 X-364.924000 Y197.120000 Z-5.250000 I-12.017462 J-363.658500
G01 X-365.968000 Y197.158000 Z-5.250000
G02 X-366.489985 Y197.178124 Z-5.250000 I8.155376 J218.313605
G02 X-367.012000 Y197.199000 Z-5.250000 I43.398957 J1091.759743
G02 X-367.533484 Y197.220125 Z-5.250000 I37.664638 J936.233360
G02 X-368.055000 Y197.242000 Z-5.250000 I9.202606 J225.621606
G01 X-369.099000 Y197.285000 Z-5.250000
G03 X-369.621016 Y197.306876 Z-5.250000 I-9.412373 J-218.367365
G03 X-370.143000 Y197.328000 Z-5.250000 I-44.439471 J-1091.633750
G03 X-370.665015 Y197.348876 Z-5.250000 I-43.920631 J-1091.738882
G03 X-371.187000 Y197.369000 Z-5.250000 I-8.677375 J-218.293480
G00 Z5.000000

(End cutting path id: path268)


(Start cutting path id: path268)
(Change tool to Default tool)

G00 Z5.000000
G00 X-296.586000 Y193.319000

G01 Z-5.250000 F6000.0(Penetrate)
G01 X-297.489000 Y193.429000 Z-5.250000 F6000.000000
G03 X-297.940256 Y193.482956 Z-5.250000 I-826.482814 J-6907.694683
G03 X-298.393000 Y193.537000 Z-5.250000 I-166.433007 J-1392.442367
G02 X-298.844409 Y193.591739 Z-5.250000 I16.492963 J137.899500
G02 X-299.296000 Y193.648000 Z-5.250000 I16.971662 J138.066761
G02 X-299.747407 Y193.704238 Z-5.250000 I16.964747 J138.010500
G02 X-300.199000 Y193.762000 Z-5.250000 I17.444935 J138.182262
G02 X-300.672902 Y193.824737 Z-5.250000 I11.865725 J91.452902
G02 X-301.147000 Y193.889000 Z-5.250000 I61.820847 J457.859760
G02 X-301.619707 Y193.953067 Z-5.250000 I14.592686 J109.445165
G03 X-302.094000 Y194.018000 Z-5.250000 I-40.155490 J-291.545883
G01 X-303.041000 Y194.148000 Z-5.250000
G03 X-303.515050 Y194.211882 Z-5.250000 I-24.901497 J-182.997122
G03 X-303.989000 Y194.275000 Z-5.250000 I-122.015158 J-914.387851
G03 X-304.463596 Y194.336763 Z-5.250000 I-11.564189 J-87.006754
G03 X-304.938000 Y194.397000 Z-5.250000 I-78.308928 J-614.832736
G03 X-305.457990 Y194.448342 Z-5.250000 I-1.277429 J-10.278849
G03 X-305.981000 Y194.484000 Z-5.250000 I-3.744401 J-51.067321
G02 X-306.503149 Y194.518731 Z-5.250000 I5.028542 J79.542398
G02 X-307.025000 Y194.567000 Z-5.250000 I0.809946 J11.601608
G02 X-307.554869 Y194.628358 Z-5.250000 I12.244123 J108.054394
G02 X-308.085000 Y194.692000 Z-5.250000 I18.035522 J152.474686
G02 X-308.614256 Y194.756954 Z-5.250000 I35.775419 J293.680418
G03 X-309.145000 Y194.822000 Z-5.250000 I-30.641098 J-247.812495
G03 X-309.674546 Y194.887881 Z-5.250000 I-141.975695 J-1139.034008
G03 X-310.204000 Y194.953000 Z-5.250000 I-28.265925 J-227.631881
G03 X-310.734134 Y195.017642 Z-5.250000 I-12.369470 J-99.236888
G03 X-311.264000 Y195.080000 Z-5.250000 I-20.799357 J-174.453002
G03 X-311.795207 Y195.140898 Z-5.250000 I-7.974294 J-67.211910
G03 X-312.326000 Y195.198000 Z-5.250000 I-9.702909 J-87.697738
G03 X-312.862903 Y195.252977 Z-5.250000 I-7.681814 J-72.370775
G03 X-313.401000 Y195.305000 Z-5.250000 I-13.582673 J-137.683356
G03 X-313.939101 Y195.354633 Z-5.250000 I-10.403040 J-109.843862
G03 X-314.477000 Y195.402000 Z-5.250000 I-14.237777 J-158.606056
G03 X-315.015033 Y195.448877 Z-5.250000 I-12.025964 J-134.916363
G02 X-315.553000 Y195.495000 Z-5.250000 I37.444616 J439.909847
G02 X-316.090967 Y195.541623 Z-5.250000 I74.706454 J865.148700
G02 X-316.629000 Y195.589000 Z-5.250000 I21.845238 J251.159712
G02 X-317.166896 Y195.637866 Z-5.250000 I14.127391 J158.491671
G02 X-317.705000 Y195.689000 Z-5.250000 I10.187687 J110.067106
G02 X-318.154963 Y195.733121 Z-5.250000 I15.811084 J163.562882
G02 X-318.605000 Y195.778000 Z-5.250000 I81.368514 J818.231836
G02 X-319.054923 Y195.823742 Z-5.250000 I13.639499 J136.395000
G02 X-319.505000 Y195.871000 Z-5.250000 I14.108644 J136.535258
G02 X-319.954460 Y195.919121 Z-5.250000 I60.970420 J571.597532
G02 X-320.404000 Y195.968000 Z-5.250000 I19.262006 J179.244767
G02 X-320.853460 Y196.017121 Z-5.250000 I9.251660 J86.734318
G03 X-321.303000 Y196.067000 Z-5.250000 I-26.632282 J-237.975107
G01 X-322.202000 Y196.169000 Z-5.250000
G02 X-322.732657 Y196.231284 Z-5.250000 I20.071800 J173.302851
G02 X-323.262000 Y196.295000 Z-5.250000 I22.109121 J185.909720
G02 X-323.792700 Y196.358665 Z-5.250000 I24.205208 J204.015195
G02 X-324.322000 Y196.423000 Z-5.250000 I122.953198 J1013.772684
G01 X-325.382000 Y196.553000 Z-5.250000
G03 X-325.911346 Y196.618216 Z-5.250000 I-23.169973 J-185.886337
G03 X-326.442000 Y196.682000 Z-5.250000 I-21.061570 J-172.982538
G03 X-326.971840 Y196.744717 Z-5.250000 I-52.338519 J-439.892733
G03 X-327.503000 Y196.806000 Z-5.250000 I-13.299083 J-112.934844
G03 X-328.024042 Y196.865880 Z-5.250000 I-86.971954 J-754.483459
G03 X-328.545000 Y196.925000 Z-5.250000 I-27.701775 J-241.780274
G03 X-329.067041 Y196.983380 Z-5.250000 I-123.694530 J-1103.739000
G03 X-329.589000 Y197.041000 Z-5.250000 I-24.616004 J-220.592980
G03 X-330.111081 Y197.098759 Z-5.250000 I-20.607128 J-183.879000
G03 X-330.633000 Y197.155000 Z-5.250000 I-20.060154 J-183.708759
G03 X-331.155077 Y197.209758 Z-5.250000 I-19.526431 J-183.654000
G03 X-331.677000 Y197.263000 Z-5.250000 I-18.982010 J-183.492758
G03 X-332.200319 Y197.315294 Z-5.250000 I-73.808417 J-735.975581
G03 X-332.722000 Y197.366000 Z-5.250000 I-11.057533 J-111.054636
G02 X-333.263254 Y197.417464 Z-5.250000 I28.552259 J303.155828
G03 X-333.806000 Y197.469000 Z-5.250000 I-25.491548 J-265.578301
G03 X-334.347535 Y197.519878 Z-5.250000 I-111.455092 J-1183.391945
G03 X-334.889000 Y197.570000 Z-5.250000 I-22.169158 J-236.543681
G03 X-335.430287 Y197.619344 Z-5.250000 I-98.975473 J-1082.730246
G03 X-335.973000 Y197.668000 Z-5.250000 I-19.805127 J-217.857461
G03 X-336.514317 Y197.715223 Z-5.250000 I-17.205487 J-194.099406
G03 X-337.057000 Y197.761000 Z-5.250000 I-15.846603 J-184.621512
G03 X-337.598810 Y197.804225 Z-5.250000 I-39.626794 J-493.285372
G03 X-338.142000 Y197.846000 Z-5.250000 I-9.325132 J-117.701289
G03 X-338.683855 Y197.884982 Z-5.250000 I-7.145649 J-95.539978
G03 X-339.227000 Y197.921000 Z-5.250000 I-6.782045 J-98.158839
G03 X-339.735068 Y197.953128 Z-5.250000 I-9.965611 J-153.560980
G03 X-340.243000 Y197.983000 Z-5.250000 I-5.676301 J-92.184723
G03 X-340.751561 Y198.012128 Z-5.250000 I-8.745988 J-148.244510
G03 X-341.260000 Y198.039000 Z-5.250000 I-5.236877 J-94.263748
G03 X-341.768571 Y198.064003 Z-5.250000 I-3.440532 J-64.796686
G03 X-342.277000 Y198.086000 Z-5.250000 I-5.857240 J-129.495635
G03 X-342.785569 Y198.106377 Z-5.250000 I-2.696306 J-60.936518
G03 X-343.294000 Y198.123000 Z-5.250000 I-2.857778 J-79.626225
G03 X-343.803035 Y198.136502 Z-5.250000 I-2.526910 J-85.662231
G03 X-344.312000 Y198.147000 Z-5.250000 I-2.048700 J-86.984557
G03 X-344.820264 Y198.153370 Z-5.250000 I-1.691937 J-114.713359
G03 X-345.330000 Y198.156000 Z-5.250000 I-0.509736 J-49.402783
G03 X-345.882914 Y198.151871 Z-5.250000 I0.000000 J-37.025954
G03 X-346.436000 Y198.138000 Z-5.250000 I0.407357 J-27.275678
G03 X-346.988991 Y198.114366 Z-5.250000 I1.299842 J-36.895515
G03 X-347.541000 Y198.081000 Z-5.250000 I1.365443 J-27.172680
G03 X-348.091584 Y198.038914 Z-5.250000 I2.267454 J-33.286218
G03 X-348.643000 Y197.987000 Z-5.250000 I2.513977 J-29.657152
G03 X-349.191467 Y197.925564 Z-5.250000 I3.520400 J-33.907009
G03 X-349.741000 Y197.855000 Z-5.250000 I4.100602 J-34.109555
G03 X-350.286823 Y197.775608 Z-5.250000 I4.730915 J-34.441060
G03 X-350.834000 Y197.687000 Z-5.250000 I5.150294 J-33.538275
G03 X-351.377434 Y197.590581 Z-5.250000 I5.020196 J-29.874284
G03 X-351.921000 Y197.485000 Z-5.250000 I7.121390 J-38.115366
G02 X-352.388967 Y197.398359 Z-5.250000 I-2.812621 J13.884524
G02 X-352.859000 Y197.326000 Z-5.250000 I-2.909814 J17.338802
G02 X-353.329907 Y197.265921 Z-5.250000 I-2.588865 J18.416241
G02 X-353.804000 Y197.217000 Z-5.250000 I-2.399970 J20.936500
G02 X-354.276788 Y197.177285 Z-5.250000 I-2.718371 J29.527133
G02 X-354.752000 Y197.145000 Z-5.250000 I-2.263178 J29.798514
G02 X-355.227613 Y197.119745 Z-5.250000 I-2.090584 J34.879748
G02 X-355.703000 Y197.099000 Z-5.250000 I-4.190522 J90.571400
G02 X-356.178791 Y197.081361 Z-5.250000 I-2.482168 J60.526702
G02 X-356.653000 Y197.066000 Z-5.250000 I-10.533649 J317.862990
G02 X-357.168052 Y197.050122 Z-5.250000 I-2.169322 J62.006445
G02 X-357.683000 Y197.038000 Z-5.250000 I-2.193705 J82.246990
G02 X-358.198522 Y197.029001 Z-5.250000 I-1.813580 J89.124506
G02 X-358.714000 Y197.023000 Z-5.250000 I-1.285094 J88.243310
G02 X-359.229005 Y197.019374 Z-5.250000 I-1.320685 J150.998174
G02 X-359.744000 Y197.018000 Z-5.250000 I-0.514995 J96.521321
G02 X-360.259496 Y197.019751 Z-5.250000 I1.531658 J526.881017
G02 X-360.775000 Y197.023000 Z-5.250000 I0.414231 J106.613051
G02 X-361.289985 Y197.028874 Z-5.250000 I0.847024 J96.843143
G02 X-361.805000 Y197.037000 Z-5.250000 I2.113805 J150.288911
G02 X-362.320734 Y197.046758 Z-5.250000 I3.043871 J174.515113
G02 X-362.835000 Y197.058000 Z-5.250000 I3.587733 J175.884567
G02 X-363.357469 Y197.071373 Z-5.250000 I2.304766 J100.257358
G02 X-363.880000 Y197.087000 Z-5.250000 I4.331382 J153.575738
G02 X-364.401989 Y197.103125 Z-5.250000 I3.483369 J121.221375
G03 X-364.924000 Y197.120000 Z-5.250000 I-12.017462 J-363.658500
G01 X-365.968000 Y197.158000 Z-5.250000
G02 X-366.489985 Y197.178124 Z-5.250000 I8.155376 J218.313605
G02 X-367.012000 Y197.199000 Z-5.250000 I43.398957 J1091.759743
G02 X-367.533484 Y197.220125 Z-5.250000 I37.664638 J936.233360
G02 X-368.055000 Y197.242000 Z-5.250000 I9.202606 J225.621606
G01 X-369.099000 Y197.285000 Z-5.250000
G03 X-369.621016 Y197.306876 Z-5.250000 I-9.412373 J-218.367365
G03 X-370.143000 Y197.328000 Z-5.250000 I-44.439471 J-1091.633750
G03 X-370.665015 Y197.348876 Z-5.250000 I-43.920631 J-1091.738882
G03 X-371.187000 Y197.369000 Z-5.250000 I-8.677375 J-218.293480
G00 Z5.000000

(End cutting path id: path268)


(Start cutting path id: path326)
(Change tool to Default tool)

G00 Z5.000000
G00 X-356.251000 Y195.365000

G01 Z-5.250000 F6000.0(Penetrate)
G03 X-356.692543 Y195.390753 Z-5.250000 I-4.678260 J-76.411582 F6000.000000
G03 X-357.134000 Y195.415000 Z-5.250000 I-24.406359 J-440.330664
G03 X-357.575954 Y195.440248 Z-5.250000 I-25.642440 J-444.971697
G02 X-358.018000 Y195.467000 Z-5.250000 I3.231818 J57.068312
G02 X-358.458840 Y195.495739 Z-5.250000 I3.415997 J55.794620
G02 X-358.900000 Y195.529000 Z-5.250000 I2.461545 J35.591390
G03 X-359.325896 Y195.534437 Z-5.250000 I-0.251194 J-2.993397
G03 X-359.717000 Y195.488000 Z-5.250000 I0.191032 J-3.279151
G03 X-360.111593 Y195.393117 Z-5.250000 I0.609264 J-3.401725
G03 X-360.501000 Y195.257000 Z-5.250000 I1.442516 J-4.751846
G03 X-360.866948 Y195.098491 Z-5.250000 I2.260605 J-5.720714
