%
(Header)
(Generated by gcodetools from Inkscape.)
(Using default header. To add your own header create file "header" in the output dir.)
M3
(Header end.)
G21 (All units in mm)

(Start cutting path id: path24837)
(Change tool to Default tool)

G00 Z5.000000
G00 X-287.777000 Y106.753000

G01 Z-5.250000 F6000.0(Penetrate)
G02 X-287.910388 Y106.797087 Z-5.250000 I5.155047 J15.820662 F6000.000000
G02 X-288.044000 Y106.842000 Z-5.250000 I26.656245 J79.521491
G00 Z5.000000

(End cutting path id: path24837)


(Start cutting path id: path24837)
(Change tool to Default tool)

G00 Z5.000000
G00 X-287.777000 Y106.753000

G01 Z-5.250000 F6000.0(Penetrate)
G02 X-287.910388 Y106.797087 Z-5.250000 I5.155047 J15.820662 F6000.000000
G02 X-288.044000 Y106.842000 Z-5.250000 I26.656245 J79.521491
G00 Z5.000000

(End cutting path id: path24837)


(Start cutting path id: path24061)
(Change tool to Default tool)

G00 Z5.000000
G00 X-286.267000 Y106.087000

G01 Z-5.250000 F6000.0(Penetrate)
G03 X-286.408710 Y105.350704 Z-5.250000 I0.306031 J-0.440685 F6000.000000
G02 X-286.161000 Y104.895000 Z-5.250000 I-2.530413 J-1.670649
G03 X-285.798210 Y104.259169 Z-5.250000 I3.160048 J1.381635
G02 X-285.379000 Y103.643000 Z-5.250000 I-11.024159 J-7.950955
G00 Z5.000000

(End cutting path id: path24061)


(Start cutting path id: path24061)
(Change tool to Default tool)

G00 Z5.000000
G00 X-286.267000 Y106.087000

G01 Z-5.250000 F6000.0(Penetrate)
G03 X-286.408710 Y105.350704 Z-5.250000 I0.306031 J-0.440685 F6000.000000
G02 X-286.161000 Y104.895000 Z-5.250000 I-2.530413 J-1.670649
G03 X-285.798210 Y104.259169 Z-5.250000 I3.160048 J1.381635
G02 X-285.379000 Y103.643000 Z-5.250000 I-11.024159 J-7.950955
G00 Z5.000000

(End cutting path id: path24061)


(Start cutting path id: path24757)
(Change tool to Default tool)

G00 Z5.000000
G00 X-286.090000 Y105.953000

G01 Z-5.250000 F6000.0(Penetrate)
G01 X-285.468000 Y105.953000 Z-5.250000 F6000.000000
G00 Z5.000000

(End cutting path id: path24757)


(Start cutting path id: path24757)
(Change tool to Default tool)

G00 Z5.000000
G00 X-286.090000 Y105.953000

G01 Z-5.250000 F6000.0(Penetrate)
G01 X-285.468000 Y105.953000 Z-5.250000 F6000.000000
G00 Z5.000000

(End cutting path id: path24757)


(Start cutting path id: path22771)
(Change tool to Default tool)

G00 Z5.000000
G00 X-281.737000 Y103.643000

G01 Z-5.250000 F6000.0(Penetrate)
G02 X-281.289632 Y103.535240 Z-5.250000 I-1.113508 J-5.605286 F6000.000000
G03 X-280.848000 Y103.473000 Z-5.250000 I0.447163 J1.574942
G01 X-277.600000 Y103.470000 Z-5.250000
G01 X-274.352000 Y103.467000 Z-5.250000
G01 X-271.103000 Y103.466000 Z-5.250000
G01 X-267.854000 Y103.466000 Z-5.250000
G01 X-264.606000 Y103.467000 Z-5.250000
G01 X-261.356000 Y103.470000 Z-5.250000
G01 X-258.106000 Y103.473000 Z-5.250000
G03 X-257.664130 Y103.535329 Z-5.250000 I-0.005529 J1.636644
G02 X-257.218000 Y103.643000 Z-5.250000 I1.565874 J-5.510024
G00 Z5.000000

(End cutting path id: path22771)


(Start cutting path id: path22771)
(Change tool to Default tool)

G00 Z5.000000
G00 X-281.737000 Y103.643000

G01 Z-5.250000 F6000.0(Penetrate)
G02 X-281.289632 Y103.535240 Z-5.250000 I-1.113508 J-5.605286 F6000.000000
G03 X-280.848000 Y103.473000 Z-5.250000 I0.447163 J1.574942
G01 X-277.600000 Y103.470000 Z-5.250000
G01 X-274.352000 Y103.467000 Z-5.250000
G01 X-271.103000 Y103.466000 Z-5.250000
G01 X-267.854000 Y103.466000 Z-5.250000
G01 X-264.606000 Y103.467000 Z-5.250000
G01 X-261.356000 Y103.470000 Z-5.250000
G01 X-258.106000 Y103.473000 Z-5.250000
G03 X-257.664130 Y103.535329 Z-5.250000 I-0.005529 J1.636644
G02 X-257.218000 Y103.643000 Z-5.250000 I1.565874 J-5.510024
G00 Z5.000000

(End cutting path id: path22771)


(Start cutting path id: path23467)
(Change tool to Default tool)

G00 Z5.000000
G00 X-258.017000 Y104.710000

G01 Z-5.250000 F6000.0(Penetrate)
G02 X-258.109318 Y104.897568 Z-5.250000 I0.653527 J0.438160 F6000.000000
G03 X-258.196000 Y104.965000 Z-5.250000 I-0.094187 J-0.031646
G02 X-259.553312 Y105.249470 Z-5.250000 I0.431347 J5.438469
G02 X-260.850000 Y105.727000 Z-5.250000 I12.038016 J34.687395
G03 X-262.147411 Y106.179495 Z-5.250000 I-6.913546 J-17.736538
G03 X-263.525000 Y106.397000 Z-5.250000 I-1.444736 J-4.679081
G03 X-263.747005 Y106.397750 Z-5.250000 I-0.148001 J-10.952083
G02 X-263.969000 Y106.397000 Z-5.250000 I-0.221995 J32.856000
G00 Z5.000000

(End cutting path id: path23467)


(Start cutting path id: path23467)
(Change tool to Default tool)

G00 Z5.000000
G00 X-258.017000 Y104.710000

G01 Z-5.250000 F6000.0(Penetrate)
G02 X-258.109318 Y104.897568 Z-5.250000 I0.653527 J0.438160 F6000.000000
G03 X-258.196000 Y104.965000 Z-5.250000 I-0.094187 J-0.031646
G02 X-259.553312 Y105.249470 Z-5.250000 I0.431347 J5.438469
G02 X-260.850000 Y105.727000 Z-5.250000 I12.038016 J34.687395
G03 X-262.147411 Y106.179495 Z-5.250000 I-6.913546 J-17.736538
G03 X-263.525000 Y106.397000 Z-5.250000 I-1.444736 J-4.679081
G03 X-263.747005 Y106.397750 Z-5.250000 I-0.148001 J-10.952083
G02 X-263.969000 Y106.397000 Z-5.250000 I-0.221995 J32.856000
G00 Z5.000000

(End cutting path id: path23467)


(Start cutting path id: path23297)
(Change tool to Default tool)

G00 Z5.000000
G00 X-264.147000 Y106.309000

G01 Z-5.250000 F6000.0(Penetrate)
G03 X-264.888903 Y106.335502 Z-5.250000 I-0.507982 J-3.822783 F6000.000000
G02 X-265.455000 Y106.516000 Z-5.250000 I-0.049918 J0.821421
G03 X-266.647686 Y106.837622 Z-5.250000 I-0.961384 J-1.192888
G02 X-267.700000 Y106.740000 Z-5.250000 I-1.351809 J8.851299
G03 X-268.231739 Y106.624311 Z-5.250000 I0.055786 J-1.536265
G02 X-268.767000 Y106.497000 Z-5.250000 I-0.665491 J1.609092
G02 X-270.009695 Y106.434621 Z-5.250000 I-1.826372 J23.974757
G03 X-271.254000 Y106.397000 Z-5.250000 I2.540570 J-104.626338
G00 Z5.000000

(End cutting path id: path23297)


(Start cutting path id: path23297)
(Change tool to Default tool)

G00 Z5.000000
G00 X-264.147000 Y106.309000

G01 Z-5.250000 F6000.0(Penetrate)
G03 X-264.888903 Y106.335502 Z-5.250000 I-0.507982 J-3.822783 F6000.000000
G02 X-265.455000 Y106.516000 Z-5.250000 I-0.049918 J0.821421
G03 X-266.647686 Y106.837622 Z-5.250000 I-0.961384 J-1.192888
G02 X-267.700000 Y106.740000 Z-5.250000 I-1.351809 J8.851299
G03 X-268.231739 Y106.624311 Z-5.250000 I0.055786 J-1.536265
G02 X-268.767000 Y106.497000 Z-5.250000 I-0.665491 J1.609092
G02 X-270.009695 Y106.434621 Z-5.250000 I-1.826372 J23.974757
G03 X-271.254000 Y106.397000 Z-5.250000 I2.540570 J-104.626338
G00 Z5.000000

(End cutting path id: path23297)


(Start cutting path id: path23769)
(Change tool to Default tool)

G00 Z5.000000
G00 X-271.431000 Y105.953000

G01 Z-5.250000 F6000.0(Penetrate)
G03 X-273.149952 Y105.652064 Z-5.250000 I-0.387208 J-2.848075 F6000.000000
G02 X-274.718000 Y105.065000 Z-5.250000 I-3.148423 J6.021777
G00 Z5.000000

(End cutting path id: path23769)


(Start cutting path id: path23769)
(Change tool to Default tool)

G00 Z5.000000
G00 X-271.431000 Y105.953000

G01 Z-5.250000 F6000.0(Penetrate)
G03 X-273.149952 Y105.652064 Z-5.250000 I-0.387208 J-2.848075 F6000.000000
G02 X-274.718000 Y105.065000 Z-5.250000 I-3.148423 J6.021777
G00 Z5.000000

(End cutting path id: path23769)


(Start cutting path id: path24097)
(Change tool to Default tool)

G00 Z5.000000
G00 X-274.807000 Y104.887000

G01 Z-5.250000 F6000.0(Penetrate)
G03 X-275.887623 Y104.473671 Z-5.250000 I1.639918 J-5.906740 F6000.000000
G03 X-276.762000 Y103.643000 Z-5.250000 I0.905761 J-1.828945
G00 Z5.000000

(End cutting path id: path24097)


(Start cutting path id: path24097)
(Change tool to Default tool)

G00 Z5.000000
G00 X-274.807000 Y104.887000

G01 Z-5.250000 F6000.0(Penetrate)
G03 X-275.887623 Y104.473671 Z-5.250000 I1.639918 J-5.906740 F6000.000000
G03 X-276.762000 Y103.643000 Z-5.250000 I0.905761 J-1.828945
G00 Z5.000000

(End cutting path id: path24097)


(Start cutting path id: path23581)
(Change tool to Default tool)

G00 Z5.000000
G00 X-281.026000 Y109.063000

G01 Z-5.250000 F6000.0(Penetrate)
G02 X-281.500476 Y108.164823 Z-5.250000 I-1.423798 J0.177731 F6000.000000
G02 X-282.196000 Y107.571000 Z-5.250000 I-18.571369 J21.047746
G02 X-283.590370 Y106.663374 Z-5.250000 I-4.702254 J5.699105
G02 X-285.201000 Y106.131000 Z-5.250000 I-2.628688 J5.250195
G00 Z5.000000

(End cutting path id: path23581)


(Start cutting path id: path23581)
(Change tool to Default tool)

G00 Z5.000000
G00 X-281.026000 Y109.063000

G01 Z-5.250000 F6000.0(Penetrate)
G02 X-281.500476 Y108.164823 Z-5.250000 I-1.423798 J0.177731 F6000.000000
G02 X-282.196000 Y107.571000 Z-5.250000 I-18.571369 J21.047746
G02 X-283.590370 Y106.663374 Z-5.250000 I-4.702254 J5.699105
G02 X-285.201000 Y106.131000 Z-5.250000 I-2.628688 J5.250195
G00 Z5.000000

(End cutting path id: path23581)


(Start cutting path id: path24083)
(Change tool to Default tool)

G00 Z5.000000
G00 X-286.623000 Y111.816000

G01 Z-5.250000 F6000.0(Penetrate)
G01 X-284.402000 Y111.816000 Z-5.250000 F6000.000000
G00 Z5.000000

(End cutting path id: path24083)


(Start cutting path id: path24083)
(Change tool to Default tool)

G00 Z5.000000
G00 X-286.623000 Y111.816000

G01 Z-5.250000 F6000.0(Penetrate)
G01 X-284.402000 Y111.816000 Z-5.250000 F6000.000000
G00 Z5.000000

(End cutting path id: path24083)


(Start cutting path id: path24385)
(Change tool to Default tool)

G00 Z5.000000
G00 X-283.424000 Y114.037000

G01 Z-5.250000 F6000.0(Penetrate)
G03 X-283.468853 Y113.327226 Z-5.250000 I1538.951800 J-97.609425 F6000.000000
G03 X-283.513000 Y112.616000 Z-5.250000 I400.976187 J-25.246124
G00 Z5.000000

(End cutting path id: path24385)


(Start cutting path id: path24385)
(Change tool to Default tool)

G00 Z5.000000
G00 X-283.424000 Y114.037000

G01 Z-5.250000 F6000.0(Penetrate)
G03 X-283.468853 Y113.327226 Z-5.250000 I1538.951800 J-97.609425 F6000.000000
G03 X-283.513000 Y112.616000 Z-5.250000 I400.976187 J-25.246124
G00 Z5.000000

(End cutting path id: path24385)


(Start cutting path id: path23259)
(Change tool to Default tool)

G00 Z5.000000
G00 X-281.204000 Y112.971000

G01 Z-5.250000 F6000.0(Penetrate)
G02 X-281.459209 Y111.715046 Z-5.250000 I-5.534942 J0.470788 F6000.000000
G02 X-281.951000 Y110.750000 Z-5.250000 I-3.329618 J1.088955
G02 X-282.708912 Y110.002968 Z-5.250000 I-2.613552 J1.893625
G02 X-283.871000 Y109.425000 Z-5.250000 I-2.480015 J3.529169
G02 X-284.534808 Y109.237697 Z-5.250000 I-3.077577 J9.637084
G02 X-285.201000 Y109.167000 Z-5.250000 I-0.592963 J2.413446
G03 X-286.380693 Y109.182725 Z-5.250000 I-1.076651 J-36.512498
G02 X-287.542000 Y109.265000 Z-5.250000 I-0.022346 J7.921613
G02 X-288.600554 Y109.548671 Z-5.250000 I0.656998 J4.568569
G02 X-289.650000 Y110.210000 Z-5.250000 I1.277260 J3.190184
G03 X-289.727367 Y110.216730 Z-5.250000 I-0.042953 J-0.045725
G02 X-289.910000 Y110.129000 Z-5.250000 I-0.419634 J0.639617
G00 Z5.000000

(End cutting path id: path23259)


(Start cutting path id: path23259)
(Change tool to Default tool)

G00 Z5.000000
G00 X-281.204000 Y112.971000

G01 Z-5.250000 F6000.0(Penetrate)
G02 X-281.459209 Y111.715046 Z-5.250000 I-5.534942 J0.470788 F6000.000000
G02 X-281.951000 Y110.750000 Z-5.250000 I-3.329618 J1.088955
G02 X-282.708912 Y110.002968 Z-5.250000 I-2.613552 J1.893625
G02 X-283.871000 Y109.425000 Z-5.250000 I-2.480015 J3.529169
G02 X-284.534808 Y109.237697 Z-5.250000 I-3.077577 J9.637084
G02 X-285.201000 Y109.167000 Z-5.250000 I-0.592963 J2.413446
G03 X-286.380693 Y109.182725 Z-5.250000 I-1.076651 J-36.512498
G02 X-287.542000 Y109.265000 Z-5.250000 I-0.022346 J7.921613
G02 X-288.600554 Y109.548671 Z-5.250000 I0.656998 J4.568569
G02 X-289.650000 Y110.210000 Z-5.250000 I1.277260 J3.190184
G03 X-289.727367 Y110.216730 Z-5.250000 I-0.042953 J-0.045725
G02 X-289.910000 Y110.129000 Z-5.250000 I-0.419634 J0.639617
G00 Z5.000000

(End cutting path id: path23259)


(Start cutting path id: path24831)
(Change tool to Default tool)

G00 Z5.000000
G00 X-290.709000 Y111.283000

G01 Z-5.250000 F6000.0(Penetrate)
G02 X-290.664611 Y111.150713 Z-5.250000 I-13.723386 J-4.678427 F6000.000000
G03 X-290.620000 Y111.017000 Z-5.250000 I21.629591 J7.142124
G00 Z5.000000

(End cutting path id: path24831)


(Start cutting path id: path24831)
(Change tool to Default tool)

G00 Z5.000000
G00 X-290.709000 Y111.283000

G01 Z-5.250000 F6000.0(Penetrate)
G02 X-290.664611 Y111.150713 Z-5.250000 I-13.723386 J-4.678427 F6000.000000
G03 X-290.620000 Y111.017000 Z-5.250000 I21.629591 J7.142124
G00 Z5.000000

(End cutting path id: path24831)


(Start cutting path id: path24381)
(Change tool to Default tool)

G00 Z5.000000
G00 X-291.153000 Y112.794000

G01 Z-5.250000 F6000.0(Penetrate)
G01 X-290.887000 Y111.372000 Z-5.250000 F6000.000000
G00 Z5.000000

(End cutting path id: path24381)


(Start cutting path id: path24381)
(Change tool to Default tool)

G00 Z5.000000
G00 X-291.153000 Y112.794000

G01 Z-5.250000 F6000.0(Penetrate)
G01 X-290.887000 Y111.372000 Z-5.250000 F6000.000000
G00 Z5.000000

(End cutting path id: path24381)


(Start cutting path id: path23641)
(Change tool to Default tool)

G00 Z5.000000
G00 X-293.907000 Y110.662000

G01 Z-5.250000 F6000.0(Penetrate)
G03 X-294.378194 Y110.622924 Z-5.250000 I0.000000 J-2.860494 F6000.000000
G02 X-294.789000 Y110.677000 Z-5.250000 I-0.116857 J0.699714
G03 X-296.150348 Y111.214302 Z-5.250000 I-5.921230 J-13.009205
G03 X-297.522000 Y111.588000 Z-5.250000 I-3.864845 J-11.481690
G03 X-298.926117 Y111.793089 Z-5.250000 I-2.375120 J-11.351858
G03 X-300.392000 Y111.821000 Z-5.250000 I-0.948053 J-11.283792
G02 X-301.325108 Y111.801353 Z-5.250000 I-0.850018 J18.202105
G02 X-302.258000 Y111.820000 Z-5.250000 I0.137913 J30.244566
G03 X-303.301973 Y111.798601 Z-5.250000 I-0.331958 J-9.281547
G03 X-304.306000 Y111.661000 Z-5.250000 I0.653682 J-8.501497
G03 X-305.285337 Y111.403844 Z-5.250000 I1.611315 J-8.129815
G03 X-306.255000 Y111.017000 Z-5.250000 I2.646599 J-8.042677
G00 Z5.000000

(End cutting path id: path23641)


(Start cutting path id: path23641)
(Change tool to Default tool)

G00 Z5.000000
G00 X-293.907000 Y110.662000

G01 Z-5.250000 F6000.0(Penetrate)
G03 X-294.378194 Y110.622924 Z-5.250000 I0.000000 J-2.860494 F6000.000000
G02 X-294.789000 Y110.677000 Z-5.250000 I-0.116857 J0.699714
G03 X-296.150348 Y111.214302 Z-5.250000 I-5.921230 J-13.009205
G03 X-297.522000 Y111.588000 Z-5.250000 I-3.864845 J-11.481690
G03 X-298.926117 Y111.793089 Z-5.250000 I-2.375120 J-11.351858
G03 X-300.392000 Y111.821000 Z-5.250000 I-0.948053 J-11.283792
G02 X-301.325108 Y111.801353 Z-5.250000 I-0.850018 J18.202105
G02 X-302.258000 Y111.820000 Z-5.250000 I0.137913 J30.244566
G03 X-303.301973 Y111.798601 Z-5.250000 I-0.331958 J-9.281547
G03 X-304.306000 Y111.661000 Z-5.250000 I0.653682 J-8.501497
G03 X-305.285337 Y111.403844 Z-5.250000 I1.611315 J-8.129815
G03 X-306.255000 Y111.017000 Z-5.250000 I2.646599 J-8.042677
G00 Z5.000000

(End cutting path id: path23641)


(Start cutting path id: path23899)
(Change tool to Default tool)

G00 Z5.000000
G00 X-305.012000 Y114.393000

G01 Z-5.250000 F6000.0(Penetrate)
G01 X-305.278000 Y111.550000 Z-5.250000 F6000.000000
G00 Z5.000000

(End cutting path id: path23899)


(Start cutting path id: path23899)
(Change tool to Default tool)

G00 Z5.000000
G00 X-305.012000 Y114.393000

G01 Z-5.250000 F6000.0(Penetrate)
G01 X-305.278000 Y111.550000 Z-5.250000 F6000.000000
G00 Z5.000000

(End cutting path id: path23899)


(Start cutting path id: path23023)
(Change tool to Default tool)

G00 Z5.000000
G00 X-301.281000 Y112.083000

G01 Z-5.250000 F6000.0(Penetrate)
G03 X-301.313164 Y113.379993 Z-5.250000 I-26.166382 J-0.000000 F6000.000000
G02 X-301.249000 Y114.654000 Z-5.250000 I6.386699 J0.316960
G03 X-301.422264 Y115.394647 Z-5.250000 I-1.011510 J0.153961
G03 X-301.825000 Y115.799000 Z-5.250000 I-1.360123 J-0.951946
G03 X-302.508699 Y116.189150 Z-5.250000 I-2.346084 J-3.317145
G02 X-303.236000 Y116.523000 Z-5.250000 I18.595507 J41.469961
G02 X-304.475269 Y117.169109 Z-5.250000 I7.116924 J15.162142
G02 X-305.286000 Y117.704000 Z-5.250000 I3.981957 J6.917292
G02 X-306.085667 Y118.392110 Z-5.250000 I4.723447 J6.297930
G02 X-306.993000 Y119.344000 Z-5.250000 I14.532144 J14.760279
G03 X-307.687554 Y120.004037 Z-5.250000 I-4.444897 J-3.981887
G02 X-308.299000 Y120.789000 Z-5.250000 I1.374557 J1.701334
G00 Z5.000000

(End cutting path id: path23023)


(Start cutting path id: path23023)
(Change tool to Default tool)

G00 Z5.000000
G00 X-301.281000 Y112.083000

G01 Z-5.250000 F6000.0(Penetrate)
G03 X-301.313164 Y113.379993 Z-5.250000 I-26.166382 J-0.000000 F6000.000000
G02 X-301.249000 Y114.654000 Z-5.250000 I6.386699 J0.316960
G03 X-301.422264 Y115.394647 Z-5.250000 I-1.011510 J0.153961
G03 X-301.825000 Y115.799000 Z-5.250000 I-1.360123 J-0.951946
G03 X-302.508699 Y116.189150 Z-5.250000 I-2.346084 J-3.317145
G02 X-303.236000 Y116.523000 Z-5.250000 I18.595507 J41.469961
G02 X-304.475269 Y117.169109 Z-5.250000 I7.116924 J15.162142
G02 X-305.286000 Y117.704000 Z-5.250000 I3.981957 J6.917292
G02 X-306.085667 Y118.392110 Z-5.250000 I4.723447 J6.297930
G02 X-306.993000 Y119.344000 Z-5.250000 I14.532144 J14.760279
G03 X-307.687554 Y120.004037 Z-5.250000 I-4.444897 J-3.981887
G02 X-308.299000 Y120.789000 Z-5.250000 I1.374557 J1.701334
G00 Z5.000000

(End cutting path id: path23023)


(Start cutting path id: path23025)
(Change tool to Default tool)

G00 Z5.000000
G00 X-309.987000 Y122.210000

G01 Z-5.250000 F6000.0(Penetrate)
G03 X-310.258880 Y122.436678 Z-5.250000 I-89.418302 J-106.972823 F6000.000000
G03 X-310.678000 Y122.785000 Z-5.250000 I-572.568673 J-688.519517
G02 X-311.420910 Y121.984612 Z-5.250000 I-1373.118044 J1273.767729
G02 X-312.119000 Y121.233000 Z-5.250000 I-11236.815367 J10435.721788
G00 Z5.000000

(End cutting path id: path23025)


(Start cutting path id: path23025)
(Change tool to Default tool)

G00 Z5.000000
G00 X-309.987000 Y122.210000

G01 Z-5.250000 F6000.0(Penetrate)
G03 X-310.258880 Y122.436678 Z-5.250000 I-89.418302 J-106.972823 F6000.000000
G03 X-310.678000 Y122.785000 Z-5.250000 I-572.568673 J-688.519517
G02 X-311.420910 Y121.984612 Z-5.250000 I-1373.118044 J1273.767729
G02 X-312.119000 Y121.233000 Z-5.250000 I-11236.815367 J10435.721788
G00 Z5.000000

(End cutting path id: path23025)


(Start cutting path id: path23027)
(Change tool to Default tool)

G00 Z5.000000
G00 X-312.208000 Y121.144000

G01 Z-5.250000 F6000.0(Penetrate)
G02 X-312.778273 Y120.579310 Z-5.250000 I-0.941720 J0.380731 F6000.000000
G03 X-313.440000 Y120.239000 Z-5.250000 I1.354141 J-3.446612
G02 X-315.040284 Y119.344299 Z-5.250000 I-7.682161 J11.861991
G02 X-316.682000 Y118.682000 Z-5.250000 I-6.204473 J13.013837
G02 X-318.397435 Y118.220933 Z-5.250000 I-4.766225 J14.311350
G02 X-320.203000 Y117.944000 Z-5.250000 I-3.590899 J17.387715
G03 X-320.387163 Y117.916175 Z-5.250000 I0.184354 J-1.843539
G03 X-320.556000 Y117.854000 Z-5.250000 I0.117711 J-0.579973
G02 X-321.662845 Y117.510217 Z-5.250000 I-1.361323 J2.429229
G02 X-322.713000 Y117.528000 Z-5.250000 I-0.443408 J4.831751
G02 X-323.822183 Y117.715735 Z-5.250000 I1.611334 J12.890671
G03 X-324.908000 Y117.852000 Z-5.250000 I-1.331953 J-6.219300
G02 X-325.850057 Y118.004958 Z-5.250000 I0.144895 J3.869898
G02 X-326.815000 Y118.342000 Z-5.250000 I2.784345 J9.521344
G02 X-327.732198 Y118.734528 Z-5.250000 I10.304830 J25.346558
G03 X-328.642000 Y119.101000 Z-5.250000 I-5.069188 J-11.272175
G00 Z5.000000

(End cutting path id: path23027)


(Start cutting path id: path23027)
(Change tool to Default tool)

G00 Z5.000000
G00 X-312.208000 Y121.144000

G01 Z-5.250000 F6000.0(Penetrate)
G02 X-312.778273 Y120.579310 Z-5.250000 I-0.941720 J0.380731 F6000.000000
G03 X-313.440000 Y120.239000 Z-5.250000 I1.354141 J-3.446612
G02 X-315.040284 Y119.344299 Z-5.250000 I-7.682161 J11.861991
G02 X-316.682000 Y118.682000 Z-5.250000 I-6.204473 J13.013837
G02 X-318.397435 Y118.220933 Z-5.250000 I-4.766225 J14.311350
G02 X-320.203000 Y117.944000 Z-5.250000 I-3.590899 J17.387715
G03 X-320.387163 Y117.916175 Z-5.250000 I0.184354 J-1.843539
G03 X-320.556000 Y117.854000 Z-5.250000 I0.117711 J-0.579973
G02 X-321.662845 Y117.510217 Z-5.250000 I-1.361323 J2.429229
G02 X-322.713000 Y117.528000 Z-5.250000 I-0.443408 J4.831751
G02 X-323.822183 Y117.715735 Z-5.250000 I1.611334 J12.890671
G03 X-324.908000 Y117.852000 Z-5.250000 I-1.331953 J-6.219300
G02 X-325.850057 Y118.004958 Z-5.250000 I0.144895 J3.869898
G02 X-326.815000 Y118.342000 Z-5.250000 I2.784345 J9.521344
G02 X-327.732198 Y118.734528 Z-5.250000 I10.304830 J25.346558
G03 X-328.642000 Y119.101000 Z-5.250000 I-5.069188 J-11.272175
G00 Z5.000000

(End cutting path id: path23027)


(Start cutting path id: path23327)
(Change tool to Default tool)

G00 Z5.000000
G00 X-328.287000 Y118.124000

G01 Z-5.250000 F6000.0(Penetrate)
G02 X-328.592496 Y116.922535 Z-5.250000 I-20.131443 J4.479246 F6000.000000
G03 X-328.795000 Y115.724000 Z-5.250000 I5.242634 J-1.502167
G03 X-328.799513 Y113.906698 Z-5.250000 I17.165730 J-0.951285
G02 X-328.731000 Y112.083000 Z-5.250000 I-70.956822 J-3.578854
G00 Z5.000000

(End cutting path id: path23327)


(Start cutting path id: path23327)
(Change tool to Default tool)

G00 Z5.000000
G00 X-328.287000 Y118.124000

G01 Z-5.250000 F6000.0(Penetrate)
G02 X-328.592496 Y116.922535 Z-5.250000 I-20.131443 J4.479246 F6000.000000
G03 X-328.795000 Y115.724000 Z-5.250000 I5.242634 J-1.502167
G03 X-328.799513 Y113.906698 Z-5.250000 I17.165730 J-0.951285
G02 X-328.731000 Y112.083000 Z-5.250000 I-70.956822 J-3.578854
G00 Z5.000000

(End cutting path id: path23327)


(Start cutting path id: path23863)
(Change tool to Default tool)

G00 Z5.000000
G00 X-328.731000 Y111.728000

G01 Z-5.250000 F6000.0(Penetrate)
G01 X-328.731000 Y108.707000 Z-5.250000 F6000.000000
G00 Z5.000000

(End cutting path id: path23863)


(Start cutting path id: path23863)
(Change tool to Default tool)

G00 Z5.000000
G00 X-328.731000 Y111.728000

G01 Z-5.250000 F6000.0(Penetrate)
G01 X-328.731000 Y108.707000 Z-5.250000 F6000.000000
G00 Z5.000000

(End cutting path id: path23863)


(Start cutting path id: path23483)
(Change tool to Default tool)

G00 Z5.000000
G00 X-328.553000 Y108.441000

G01 Z-5.250000 F6000.0(Penetrate)
G02 X-327.359422 Y107.796974 Z-5.250000 I-4.925642 J-10.556780 F6000.000000
G02 X-326.278000 Y107.038000 Z-5.250000 I-5.894262 J-9.548337
G02 X-325.289623 Y106.156454 Z-5.250000 I-7.098105 J-8.953145
G02 X-324.387000 Y105.146000 Z-5.250000 I-8.661531 J-8.645589
G03 X-323.875556 Y104.547020 Z-5.250000 I9.207845 J7.344353
G02 X-323.579000 Y103.732000 Z-5.250000 I-0.839724 J-0.767008
G00 Z5.000000

(End cutting path id: path23483)


(Start cutting path id: path23483)
(Change tool to Default tool)

G00 Z5.000000
G00 X-328.553000 Y108.441000

G01 Z-5.250000 F6000.0(Penetrate)
G02 X-327.359422 Y107.796974 Z-5.250000 I-4.925642 J-10.556780 F6000.000000
G02 X-326.278000 Y107.038000 Z-5.250000 I-5.894262 J-9.548337
G02 X-325.289623 Y106.156454 Z-5.250000 I-7.098105 J-8.953145
G02 X-324.387000 Y105.146000 Z-5.250000 I-8.661531 J-8.645589
G03 X-323.875556 Y104.547020 Z-5.250000 I9.207845 J7.344353
G02 X-323.579000 Y103.732000 Z-5.250000 I-0.839724 J-0.767008
G00 Z5.000000

(End cutting path id: path23483)


(Start cutting path id: path23919)
(Change tool to Default tool)

G00 Z5.000000
G00 X-328.731000 Y104.798000

G01 Z-5.250000 F6000.0(Penetrate)
G01 X-328.859000 Y103.392000 Z-5.250000 F6000.000000
G02 X-327.983284 Y103.533948 Z-5.250000 I362.696190 J-2234.250672
G03 X-327.310000 Y103.643000 Z-5.250000 I-726.535022 J4484.894534
G00 Z5.000000

(End cutting path id: path23919)


(Start cutting path id: path23919)
(Change tool to Default tool)

G00 Z5.000000
G00 X-328.731000 Y104.798000

G01 Z-5.250000 F6000.0(Penetrate)
G01 X-328.859000 Y103.392000 Z-5.250000 F6000.000000
G02 X-327.983284 Y103.533948 Z-5.250000 I362.696190 J-2234.250672
G03 X-327.310000 Y103.643000 Z-5.250000 I-726.535022 J4484.894534
G00 Z5.000000

(End cutting path id: path23919)


(Start cutting path id: path23671)
(Change tool to Default tool)

G00 Z5.000000
G00 X-328.642000 Y105.331000

G01 Z-5.250000 F6000.0(Penetrate)
G02 X-328.025327 Y104.571669 Z-5.250000 I-57.621658 J-47.426175 F6000.000000
G03 X-327.390000 Y103.829000 Z-5.250000 I11.874599 J9.515212
G03 X-327.102380 Y103.585625 Z-5.250000 I1.075835 J0.979779
G03 X-326.776000 Y103.482000 Z-5.250000 I0.354108 J0.549504
G03 X-325.400705 Y103.459738 Z-5.250000 I1.127935 J27.189182
G02 X-324.023000 Y103.466000 Z-5.250000 I1.377705 J-151.558238
G01 X-323.046000 Y103.466000 Z-5.250000
G01 X-320.425000 Y103.465000 Z-5.250000
G03 X-319.114508 Y103.467626 Z-5.250000 I-0.872344 J762.419088
G03 X-317.804000 Y103.474000 Z-5.250000 I-0.937579 J327.477936
G03 X-317.630293 Y103.532383 Z-5.250000 I-0.002479 J0.294981
G02 X-317.449000 Y103.644000 Z-5.250000 I0.721648 J-0.969093
G00 Z5.000000

(End cutting path id: path23671)


(Start cutting path id: path23671)
(Change tool to Default tool)

G00 Z5.000000
G00 X-328.642000 Y105.331000

G01 Z-5.250000 F6000.0(Penetrate)
G02 X-328.025327 Y104.571669 Z-5.250000 I-57.621658 J-47.426175 F6000.000000
G03 X-327.390000 Y103.829000 Z-5.250000 I11.874599 J9.515212
G03 X-327.102380 Y103.585625 Z-5.250000 I1.075835 J0.979779
G03 X-326.776000 Y103.482000 Z-5.250000 I0.354108 J0.549504
G03 X-325.400705 Y103.459738 Z-5.250000 I1.127935 J27.189182
G02 X-324.023000 Y103.466000 Z-5.250000 I1.377705 J-151.558238
G01 X-323.046000 Y103.466000 Z-5.250000
G01 X-320.425000 Y103.465000 Z-5.250000
G03 X-319.114508 Y103.467626 Z-5.250000 I-0.872344 J762.419088
G03 X-317.804000 Y103.474000 Z-5.250000 I-0.937579 J327.477936
G03 X-317.630293 Y103.532383 Z-5.250000 I-0.002479 J0.294981
G02 X-317.449000 Y103.644000 Z-5.250000 I0.721648 J-0.969093
G00 Z5.000000

(End cutting path id: path23671)


(Start cutting path id: path23199)
(Change tool to Default tool)

G00 Z5.000000
G00 X-314.073000 Y104.443000

G01 Z-5.250000 F6000.0(Penetrate)
G02 X-313.758619 Y104.043249 Z-5.250000 I0.023528 J-0.304993 F6000.000000
G03 X-313.718000 Y103.732000 Z-5.250000 I0.346868 J-0.113007
G00 Z5.000000

(End cutting path id: path23199)


(Start cutting path id: path23199)
(Change tool to Default tool)

G00 Z5.000000
G00 X-314.073000 Y104.443000

G01 Z-5.250000 F6000.0(Penetrate)
G02 X-313.758619 Y104.043249 Z-5.250000 I0.023528 J-0.304993 F6000.000000
G03 X-313.718000 Y103.732000 Z-5.250000 I0.346868 J-0.113007
G00 Z5.000000

(End cutting path id: path23199)


(Start cutting path id: path24403)
(Change tool to Default tool)

G00 Z5.000000
G00 X-313.895000 Y103.643000

G01 Z-5.250000 F6000.0(Penetrate)
G01 X-315.317000 Y103.643000 Z-5.250000 F6000.000000
G00 Z5.000000

(End cutting path id: path24403)


(Start cutting path id: path24403)
(Change tool to Default tool)

G00 Z5.000000
G00 X-313.895000 Y103.643000

G01 Z-5.250000 F6000.0(Penetrate)
G01 X-315.317000 Y103.643000 Z-5.250000 F6000.000000
G00 Z5.000000

(End cutting path id: path24403)


(Start cutting path id: path22855)
(Change tool to Default tool)

G00 Z5.000000
G00 X-313.540000 Y103.643000

G01 Z-5.250000 F6000.0(Penetrate)
G02 X-313.048828 Y103.533692 Z-5.250000 I-1.122320 J-6.201296 F6000.000000
G03 X-312.563000 Y103.475000 Z-5.250000 I0.453157 J1.710963
G03 X-310.875131 Y103.518244 Z-5.250000 I-2.266997 J121.446282
G02 X-309.187000 Y103.572000 Z-5.250000 I37.569287 J-1153.268928
G02 X-307.498800 Y103.616509 Z-5.250000 I5.536484 J-177.958423
G02 X-305.811000 Y103.631000 Z-5.250000 I1.399939 J-64.754353
G02 X-304.279278 Y103.621379 Z-5.250000 I-1.269580 J-324.060059
G02 X-302.746000 Y103.605000 Z-5.250000 I-3.252705 J-376.268448
G02 X-301.214772 Y103.583506 Z-5.250000 I-7.473800 J-586.981618
G02 X-299.682000 Y103.559000 Z-5.250000 I-18.202560 J-1186.463478
G03 X-298.150238 Y103.533756 Z-5.250000 I75.105912 J4510.623421
G03 X-296.617000 Y103.510000 Z-5.250000 I15.312369 J938.801655
G03 X-295.084471 Y103.488250 Z-5.250000 I8.198139 J523.656422
G03 X-293.552000 Y103.471000 Z-5.250000 I6.627040 J520.647231
G03 X-292.026736 Y103.459873 Z-5.250000 I4.341631 J490.603619
G03 X-290.503000 Y103.454000 Z-5.250000 I2.318952 J403.966025
G03 X-288.977502 Y103.453250 Z-5.250000 I1.016995 J517.143500
G03 X-287.452000 Y103.457000 Z-5.250000 I-0.508503 J517.150250
G03 X-285.926262 Y103.465127 Z-5.250000 I-2.153156 J547.442966
G03 X-284.402000 Y103.477000 Z-5.250000 I-4.791472 J712.985843
G03 X-283.175172 Y103.565188 Z-5.250000 I-0.097237 J9.930298
G02 X-281.965000 Y103.706000 Z-5.250000 I4.539786 J-33.745384
G02 X-281.633492 Y104.531795 Z-5.250000 I2.353075 J-0.465182
G02 X-280.850000 Y104.997000 Z-5.250000 I0.853471 J-0.545028
G03 X-280.540646 Y105.137525 Z-5.250000 I-0.033491 J0.484498
G02 X-280.228000 Y105.423000 Z-5.250000 I3.416598 J-3.427842
G03 X-279.059974 Y106.478714 Z-5.250000 I-14.158035 J16.838241
G02 X-277.563000 Y107.211000 Z-5.250000 I1.869200 J-1.924872
G03 X-277.386333 Y107.325247 Z-5.250000 I-0.033475 J0.245484
G02 X-277.206000 Y107.553000 Z-5.250000 I1.107578 J-0.691700
G00 Z5.000000

(End cutting path id: path22855)


(Start cutting path id: path22855)
(Change tool to Default tool)

G00 Z5.000000
G00 X-313.540000 Y103.643000

G01 Z-5.250000 F6000.0(Penetrate)
G02 X-313.048828 Y103.533692 Z-5.250000 I-1.122320 J-6.201296 F6000.000000
G03 X-312.563000 Y103.475000 Z-5.250000 I0.453157 J1.710963
G03 X-310.875131 Y103.518244 Z-5.250000 I-2.266997 J121.446282
G02 X-309.187000 Y103.572000 Z-5.250000 I37.569287 J-1153.268928
G02 X-307.498800 Y103.616509 Z-5.250000 I5.536484 J-177.958423
G02 X-305.811000 Y103.631000 Z-5.250000 I1.399939 J-64.754353
G02 X-304.279278 Y103.621379 Z-5.250000 I-1.269580 J-324.060059
G02 X-302.746000 Y103.605000 Z-5.250000 I-3.252705 J-376.268448
G02 X-301.214772 Y103.583506 Z-5.250000 I-7.473800 J-586.981618
G02 X-299.682000 Y103.559000 Z-5.250000 I-18.202560 J-1186.463478
G03 X-298.150238 Y103.533756 Z-5.250000 I75.105912 J4510.623421
G03 X-296.617000 Y103.510000 Z-5.250000 I15.312369 J938.801655
G03 X-295.084471 Y103.488250 Z-5.250000 I8.198139 J523.656422
G03 X-293.552000 Y103.471000 Z-5.250000 I6.627040 J520.647231
G03 X-292.026736 Y103.459873 Z-5.250000 I4.341631 J490.603619
G03 X-290.503000 Y103.454000 Z-5.250000 I2.318952 J403.966025
G03 X-288.977502 Y103.453250 Z-5.250000 I1.016995 J517.143500
G03 X-287.452000 Y103.457000 Z-5.250000 I-0.508503 J517.150250
G03 X-285.926262 Y103.465127 Z-5.250000 I-2.153156 J547.442966
G03 X-284.402000 Y103.477000 Z-5.250000 I-4.791472 J712.985843
G03 X-283.175172 Y103.565188 Z-5.250000 I-0.097237 J9.930298
G02 X-281.965000 Y103.706000 Z-5.250000 I4.539786 J-33.745384
G02 X-281.633492 Y104.531795 Z-5.250000 I2.353075 J-0.465182
G02 X-280.850000 Y104.997000 Z-5.250000 I0.853471 J-0.545028
G03 X-280.540646 Y105.137525 Z-5.250000 I-0.033491 J0.484498
G02 X-280.228000 Y105.423000 Z-5.250000 I3.416598 J-3.427842
G03 X-279.059974 Y106.478714 Z-5.250000 I-14.158035 J16.838241
G02 X-277.563000 Y107.211000 Z-5.250000 I1.869200 J-1.924872
G03 X-277.386333 Y107.325247 Z-5.250000 I-0.033475 J0.245484
G02 X-277.206000 Y107.553000 Z-5.250000 I1.107578 J-0.691700
G00 Z5.000000

(End cutting path id: path22855)


(Start cutting path id: path23579)
(Change tool to Default tool)

G00 Z5.000000
G00 X-277.028000 Y112.083000

G01 Z-5.250000 F6000.0(Penetrate)
G02 X-277.144236 Y110.908727 Z-5.250000 I-5.089810 J-0.089072 F6000.000000
G02 X-277.452000 Y109.814000 Z-5.250000 I-9.383988 J2.047524
G02 X-277.862262 Y108.727738 Z-5.250000 I-19.109112 J6.596570
G03 X-278.268000 Y107.640000 Z-5.250000 I16.363478 J-6.723294
G03 X-278.324619 Y107.378211 Z-5.250000 I1.132370 J-0.381924
G02 X-278.361000 Y107.108000 Z-5.250000 I-4.093971 J0.413652
G00 Z5.000000

(End cutting path id: path23579)


(Start cutting path id: path23579)
(Change tool to Default tool)

G00 Z5.000000
G00 X-277.028000 Y112.083000

G01 Z-5.250000 F6000.0(Penetrate)
G02 X-277.144236 Y110.908727 Z-5.250000 I-5.089810 J-0.089072 F6000.000000
G02 X-277.452000 Y109.814000 Z-5.250000 I-9.383988 J2.047524
G02 X-277.862262 Y108.727738 Z-5.250000 I-19.109112 J6.596570
G03 X-278.268000 Y107.640000 Z-5.250000 I16.363478 J-6.723294
G03 X-278.324619 Y107.378211 Z-5.250000 I1.132370 J-0.381924
G02 X-278.361000 Y107.108000 Z-5.250000 I-4.093971 J0.413652
G00 Z5.000000

(End cutting path id: path23579)


(Start cutting path id: path23913)
(Change tool to Default tool)

G00 Z5.000000
G00 X-278.894000 Y112.705000

G01 Z-5.250000 F6000.0(Penetrate)
G03 X-279.324729 Y111.718912 Z-5.250000 I34.171574 J-15.513475 F6000.000000
G02 X-279.796000 Y110.758000 Z-5.250000 I-8.441974 J3.544268
G03 X-280.076926 Y110.110206 Z-5.250000 I2.934144 J-1.657248
G03 X-280.137000 Y109.418000 Z-5.250000 I1.534886 J-0.481917
G00 Z5.000000

(End cutting path id: path23913)


(Start cutting path id: path23913)
(Change tool to Default tool)

G00 Z5.000000
G00 X-278.894000 Y112.705000

G01 Z-5.250000 F6000.0(Penetrate)
G03 X-279.324729 Y111.718912 Z-5.250000 I34.171574 J-15.513475 F6000.000000
G02 X-279.796000 Y110.758000 Z-5.250000 I-8.441974 J3.544268
G03 X-280.076926 Y110.110206 Z-5.250000 I2.934144 J-1.657248
G03 X-280.137000 Y109.418000 Z-5.250000 I1.534886 J-0.481917
G00 Z5.000000

(End cutting path id: path23913)


(Start cutting path id: path23949)
(Change tool to Default tool)

G00 Z5.000000
G00 X-274.097000 Y111.905000

G01 Z-5.250000 F6000.0(Penetrate)
G03 X-274.318939 Y110.573240 Z-5.250000 I43749.379507 J-7284.472586 F6000.000000
G03 X-274.541000 Y109.240000 Z-5.250000 I8772.669782 J-1462.121968
G00 Z5.000000

(End cutting path id: path23949)


(Start cutting path id: path23949)
(Change tool to Default tool)

G00 Z5.000000
G00 X-274.097000 Y111.905000

G01 Z-5.250000 F6000.0(Penetrate)
G03 X-274.318939 Y110.573240 Z-5.250000 I43749.379507 J-7284.472586 F6000.000000
G03 X-274.541000 Y109.240000 Z-5.250000 I8772.669782 J-1462.121968
G00 Z5.000000

(End cutting path id: path23949)


(Start cutting path id: path24265)
(Change tool to Default tool)

G00 Z5.000000
G00 X-271.609000 Y111.994000

G01 Z-5.250000 F6000.0(Penetrate)
G02 X-271.475672 Y111.106187 Z-5.250000 I-2802.615497 J-421.339983 F6000.000000
G02 X-271.343000 Y110.217000 Z-5.250000 I-562.441959 J-84.374090
G00 Z5.000000

(End cutting path id: path24265)


(Start cutting path id: path24265)
(Change tool to Default tool)

G00 Z5.000000
G00 X-271.609000 Y111.994000

G01 Z-5.250000 F6000.0(Penetrate)
G02 X-271.475672 Y111.106187 Z-5.250000 I-2802.615497 J-421.339983 F6000.000000
G02 X-271.343000 Y110.217000 Z-5.250000 I-562.441959 J-84.374090
G00 Z5.000000

(End cutting path id: path24265)


(Start cutting path id: path23837)
(Change tool to Default tool)

G00 Z5.000000
G00 X-267.167000 Y112.261000

G01 Z-5.250000 F6000.0(Penetrate)
G01 X-266.945000 Y111.025000 Z-5.250000 F6000.000000
G02 X-268.427061 Y110.766445 Z-5.250000 I-10.976456 J58.541099
G03 X-269.829000 Y110.471000 Z-5.250000 I2.399281 J-14.858967
G03 X-270.784883 Y110.192176 Z-5.250000 I4.273314 J-16.427950
G02 X-271.735000 Y109.886000 Z-5.250000 I-109.088003 J336.892255
G02 X-272.693499 Y109.594276 Z-5.250000 I-9.391632 J29.136964
G02 X-273.659000 Y109.366000 Z-5.250000 I-2.913892 J10.168464
G03 X-274.773952 Y108.884801 Z-5.250000 I0.500304 J-2.691509
G02 X-275.704000 Y108.278000 Z-5.250000 I-6.184354 J8.462646
G02 X-276.744598 Y107.788734 Z-5.250000 I-3.358861 J5.792577
G02 X-278.005000 Y107.819000 Z-5.250000 I-0.592041 J1.604265
G00 Z5.000000

(End cutting path id: path23837)


(Start cutting path id: path23837)
(Change tool to Default tool)

G00 Z5.000000
G00 X-267.167000 Y112.261000

G01 Z-5.250000 F6000.0(Penetrate)
G01 X-266.945000 Y111.025000 Z-5.250000 F6000.000000
G02 X-268.427061 Y110.766445 Z-5.250000 I-10.976456 J58.541099
G03 X-269.829000 Y110.471000 Z-5.250000 I2.399281 J-14.858967
G03 X-270.784883 Y110.192176 Z-5.250000 I4.273314 J-16.427950
G02 X-271.735000 Y109.886000 Z-5.250000 I-109.088003 J336.892255
G02 X-272.693499 Y109.594276 Z-5.250000 I-9.391632 J29.136964
G02 X-273.659000 Y109.366000 Z-5.250000 I-2.913892 J10.168464
G03 X-274.773952 Y108.884801 Z-5.250000 I0.500304 J-2.691509
G02 X-275.704000 Y108.278000 Z-5.250000 I-6.184354 J8.462646
G02 X-276.744598 Y107.788734 Z-5.250000 I-3.358861 J5.792577
G02 X-278.005000 Y107.819000 Z-5.250000 I-0.592041 J1.604265
G00 Z5.000000

(End cutting path id: path23837)


(Start cutting path id: path23017)
(Change tool to Default tool)

G00 Z5.000000
G00 X-279.427000 Y117.058000

G01 Z-5.250000 F6000.0(Penetrate)
G03 X-278.346237 Y116.289571 Z-5.250000 I7.834038 J9.874004 F6000.000000
G03 X-277.227000 Y115.692000 Z-5.250000 I4.533840 J7.144844
G03 X-276.052029 Y115.285504 Z-5.250000 I3.038388 J6.881054
G03 X-274.720000 Y115.074000 Z-5.250000 I1.801500 J7.045403
G03 X-273.586521 Y115.103391 Z-5.250000 I0.406185 J6.206512
G03 X-272.519000 Y115.282000 Z-5.250000 I-1.303243 J11.068826
G03 X-271.444497 Y115.546126 Z-5.250000 I-4.680799 J21.359850
G02 X-270.365000 Y115.814000 Z-5.250000 I6.336104 J-23.224619
G00 Z5.000000

(End cutting path id: path23017)


(Start cutting path id: path23017)
(Change tool to Default tool)

G00 Z5.000000
G00 X-279.427000 Y117.058000

G01 Z-5.250000 F6000.0(Penetrate)
G03 X-278.346237 Y116.289571 Z-5.250000 I7.834038 J9.874004 F6000.000000
G03 X-277.227000 Y115.692000 Z-5.250000 I4.533840 J7.144844
G03 X-276.052029 Y115.285504 Z-5.250000 I3.038388 J6.881054
G03 X-274.720000 Y115.074000 Z-5.250000 I1.801500 J7.045403
G03 X-273.586521 Y115.103391 Z-5.250000 I0.406185 J6.206512
G03 X-272.519000 Y115.282000 Z-5.250000 I-1.303243 J11.068826
G03 X-271.444497 Y115.546126 Z-5.250000 I-4.680799 J21.359850
G02 X-270.365000 Y115.814000 Z-5.250000 I6.336104 J-23.224619
G00 Z5.000000

(End cutting path id: path23017)


(Start cutting path id: path24103)
(Change tool to Default tool)

G00 Z5.000000
G00 X-270.898000 Y118.302000

G01 Z-5.250000 F6000.0(Penetrate)
G02 X-271.681644 Y117.872704 Z-5.250000 I-0.624274 J0.209674 F6000.000000
G03 X-272.416000 Y117.688000 Z-5.250000 I-0.194384 J-0.779357
G02 X-272.603974 Y117.615344 Z-5.250000 I-0.188368 J0.207855
G03 X-272.853000 Y117.591000 Z-5.250000 I0.001831 J-1.304580
G00 Z5.000000

(End cutting path id: path24103)


(Start cutting path id: path24103)
(Change tool to Default tool)

G00 Z5.000000
G00 X-270.898000 Y118.302000

G01 Z-5.250000 F6000.0(Penetrate)
G02 X-271.681644 Y117.872704 Z-5.250000 I-0.624274 J0.209674 F6000.000000
G03 X-272.416000 Y117.688000 Z-5.250000 I-0.194384 J-0.779357
G02 X-272.603974 Y117.615344 Z-5.250000 I-0.188368 J0.207855
G03 X-272.853000 Y117.591000 Z-5.250000 I0.001831 J-1.304580
G00 Z5.000000

(End cutting path id: path24103)


(Start cutting path id: path24319)
(Change tool to Default tool)

G00 Z5.000000
G00 X-273.208000 Y117.591000

G01 Z-5.250000 F6000.0(Penetrate)
G02 X-274.007459 Y117.679620 Z-5.250000 I286.470742 J2587.949992 F6000.000000
G02 X-274.807000 Y117.769000 Z-5.250000 I57.482619 J517.829140
G00 Z5.000000

(End cutting path id: path24319)


(Start cutting path id: path24319)
(Change tool to Default tool)

G00 Z5.000000
G00 X-273.208000 Y117.591000

G01 Z-5.250000 F6000.0(Penetrate)
G02 X-274.007459 Y117.679620 Z-5.250000 I286.470742 J2587.949992 F6000.000000
G02 X-274.807000 Y117.769000 Z-5.250000 I57.482619 J517.829140
G00 Z5.000000

(End cutting path id: path24319)


(Start cutting path id: path24055)
(Change tool to Default tool)

G00 Z5.000000
G00 X-271.520000 Y121.677000

G01 Z-5.250000 F6000.0(Penetrate)
G02 X-272.286210 Y120.706224 Z-5.250000 I-1.417065 J0.330692 F6000.000000
G02 X-273.297000 Y120.789000 Z-5.250000 I-0.437192 J0.874221
G00 Z5.000000

(End cutting path id: path24055)


(Start cutting path id: path24055)
(Change tool to Default tool)

G00 Z5.000000
G00 X-271.520000 Y121.677000

G01 Z-5.250000 F6000.0(Penetrate)
G02 X-272.286210 Y120.706224 Z-5.250000 I-1.417065 J0.330692 F6000.000000
G02 X-273.297000 Y120.789000 Z-5.250000 I-0.437192 J0.874221
G00 Z5.000000

(End cutting path id: path24055)


(Start cutting path id: path24593)
(Change tool to Default tool)

G00 Z5.000000
G00 X-268.944000 Y119.012000

G01 Z-5.250000 F6000.0(Penetrate)
G02 X-269.256757 Y118.928270 Z-5.250000 I-2.759885 J9.682985 F6000.000000
G03 X-269.565000 Y118.831000 Z-5.250000 I0.653222 J-2.607068
G03 X-269.966492 Y118.660817 Z-5.250000 I2.265637 J-5.903727
G02 X-270.365000 Y118.479000 Z-5.250000 I-12.532092 J26.940314
G00 Z5.000000

(End cutting path id: path24593)


(Start cutting path id: path24593)
(Change tool to Default tool)

G00 Z5.000000
G00 X-268.944000 Y119.012000

G01 Z-5.250000 F6000.0(Penetrate)
G02 X-269.256757 Y118.928270 Z-5.250000 I-2.759885 J9.682985 F6000.000000
G03 X-269.565000 Y118.831000 Z-5.250000 I0.653222 J-2.607068
G03 X-269.966492 Y118.660817 Z-5.250000 I2.265637 J-5.903727
G02 X-270.365000 Y118.479000 Z-5.250000 I-12.532092 J26.940314
G00 Z5.000000

(End cutting path id: path24593)


(Start cutting path id: path24317)
(Change tool to Default tool)

G00 Z5.000000
G00 X-268.145000 Y121.322000

G01 Z-5.250000 F6000.0(Penetrate)
G02 X-268.411087 Y120.522612 Z-5.250000 I-568.050082 J188.639585 F6000.000000
G02 X-268.678000 Y119.723000 Z-5.250000 I-2842.755981 J948.472799
G00 Z5.000000

(End cutting path id: path24317)


(Start cutting path id: path24317)
(Change tool to Default tool)

G00 Z5.000000
G00 X-268.145000 Y121.322000

G01 Z-5.250000 F6000.0(Penetrate)
G02 X-268.411087 Y120.522612 Z-5.250000 I-568.050082 J188.639585 F6000.000000
G02 X-268.678000 Y119.723000 Z-5.250000 I-2842.755981 J948.472799
G00 Z5.000000

(End cutting path id: path24317)


(Start cutting path id: path24781)
(Change tool to Default tool)

G00 Z5.000000
G00 X-267.878000 Y121.855000

G01 Z-5.250000 F6000.0(Penetrate)
G01 X-267.967000 Y121.411000 Z-5.250000 F6000.000000
G00 Z5.000000

(End cutting path id: path24781)


(Start cutting path id: path24781)
(Change tool to Default tool)

G00 Z5.000000
G00 X-267.878000 Y121.855000

G01 Z-5.250000 F6000.0(Penetrate)
G01 X-267.967000 Y121.411000 Z-5.250000 F6000.000000
G00 Z5.000000

(End cutting path id: path24781)


(Start cutting path id: path23223)
(Change tool to Default tool)

G00 Z5.000000
G00 X-265.479000 Y121.855000

G01 Z-5.250000 F6000.0(Penetrate)
G02 X-265.651860 Y121.671558 Z-5.250000 I-0.920725 J0.694445 F6000.000000
G03 X-265.735000 Y121.499000 Z-5.250000 I0.153613 J-0.180320
G02 X-266.183109 Y119.588543 Z-5.250000 I-5.112558 J0.191399
G02 X-267.064000 Y118.244000 Z-5.250000 I-4.697343 J2.116678
G02 X-268.366472 Y117.099095 Z-5.250000 I-5.685993 J5.155212
G02 X-269.921000 Y116.080000 Z-5.250000 I-19.225766 J27.631799
G03 X-270.055272 Y115.992610 Z-5.250000 I1.658600 J-2.695225
G02 X-270.188000 Y115.903000 Z-5.250000 I-5.375434 J7.818877
G00 Z5.000000

(End cutting path id: path23223)


(Start cutting path id: path23223)
(Change tool to Default tool)

G00 Z5.000000
G00 X-265.479000 Y121.855000

G01 Z-5.250000 F6000.0(Penetrate)
G02 X-265.651860 Y121.671558 Z-5.250000 I-0.920725 J0.694445 F6000.000000
G03 X-265.735000 Y121.499000 Z-5.250000 I0.153613 J-0.180320
G02 X-266.183109 Y119.588543 Z-5.250000 I-5.112558 J0.191399
G02 X-267.064000 Y118.244000 Z-5.250000 I-4.697343 J2.116678
G02 X-268.366472 Y117.099095 Z-5.250000 I-5.685993 J5.155212
G02 X-269.921000 Y116.080000 Z-5.250000 I-19.225766 J27.631799
G03 X-270.055272 Y115.992610 Z-5.250000 I1.658600 J-2.695225
G02 X-270.188000 Y115.903000 Z-5.250000 I-5.375434 J7.818877
G00 Z5.000000

(End cutting path id: path23223)


(Start cutting path id: path23833)
(Change tool to Default tool)

G00 Z5.000000
G00 X-265.879000 Y114.659000

G01 Z-5.250000 F6000.0(Penetrate)
G01 X-264.502000 Y116.081000 Z-5.250000 F6000.000000
G00 Z5.000000

(End cutting path id: path23833)


(Start cutting path id: path23833)
(Change tool to Default tool)

G00 Z5.000000
G00 X-265.879000 Y114.659000

G01 Z-5.250000 F6000.0(Penetrate)
G01 X-264.502000 Y116.081000 Z-5.250000 F6000.000000
G00 Z5.000000

(End cutting path id: path23833)


(Start cutting path id: path23243)
(Change tool to Default tool)

G00 Z5.000000
G00 X-264.325000 Y115.992000

G01 Z-5.250000 F6000.0(Penetrate)
G03 X-264.221742 Y115.546906 Z-5.250000 I8.007218 J1.623085 F6000.000000
G02 X-264.154000 Y115.103000 Z-5.250000 I-2.082542 J-0.544926
G03 X-263.761584 Y113.876039 Z-5.250000 I2.489376 J0.119938
G03 X-262.809000 Y113.166000 Z-5.250000 I1.421469 J0.913024
G03 X-261.648356 Y113.058719 Z-5.250000 I0.861117 J2.984214
G03 X-260.503000 Y113.592000 Z-5.250000 I-0.183106 J1.889879
G03 X-260.201464 Y114.120697 Z-5.250000 I-0.778710 J0.794464
G03 X-260.327000 Y114.748000 Z-5.250000 I-0.731182 J0.179889
G00 Z5.000000

(End cutting path id: path23243)


(Start cutting path id: path23243)
(Change tool to Default tool)

G00 Z5.000000
G00 X-264.325000 Y115.992000

G01 Z-5.250000 F6000.0(Penetrate)
G03 X-264.221742 Y115.546906 Z-5.250000 I8.007218 J1.623085 F6000.000000
G02 X-264.154000 Y115.103000 Z-5.250000 I-2.082542 J-0.544926
G03 X-263.761584 Y113.876039 Z-5.250000 I2.489376 J0.119938
G03 X-262.809000 Y113.166000 Z-5.250000 I1.421469 J0.913024
G03 X-261.648356 Y113.058719 Z-5.250000 I0.861117 J2.984214
G03 X-260.503000 Y113.592000 Z-5.250000 I-0.183106 J1.889879
G03 X-260.201464 Y114.120697 Z-5.250000 I-0.778710 J0.794464
G03 X-260.327000 Y114.748000 Z-5.250000 I-0.731182 J0.179889
G00 Z5.000000

(End cutting path id: path23243)


(Start cutting path id: path24419)
(Change tool to Default tool)

G00 Z5.000000
G00 X-261.659000 Y115.725000

G01 Z-5.250000 F6000.0(Penetrate)
G03 X-261.295340 Y115.884469 Z-5.250000 I-93.927308 J214.690835 F6000.000000
G02 X-260.794000 Y116.104000 Z-5.250000 I80.510865 J-183.178845
G02 X-260.729958 Y115.529380 Z-5.250000 I-1379.107044 J-153.995196
G03 X-260.682000 Y115.103000 Z-5.250000 I174.713080 J19.435219
G00 Z5.000000

(End cutting path id: path24419)


(Start cutting path id: path24419)
(Change tool to Default tool)

G00 Z5.000000
G00 X-261.659000 Y115.725000

G01 Z-5.250000 F6000.0(Penetrate)
G03 X-261.295340 Y115.884469 Z-5.250000 I-93.927308 J214.690835 F6000.000000
G02 X-260.794000 Y116.104000 Z-5.250000 I80.510865 J-183.178845
G02 X-260.729958 Y115.529380 Z-5.250000 I-1379.107044 J-153.995196
G03 X-260.682000 Y115.103000 Z-5.250000 I174.713080 J19.435219
G00 Z5.000000

(End cutting path id: path24419)


(Start cutting path id: path24727)
(Change tool to Default tool)

G00 Z5.000000
G00 X-261.837000 Y115.636000

G01 Z-5.250000 F6000.0(Penetrate)
G03 X-261.732123 Y115.222605 Z-5.250000 I0.603521 J-0.066889 F6000.000000
G03 X-261.304000 Y115.005000 Z-5.250000 I0.416455 J0.289393
G02 X-260.817358 Y114.963321 Z-5.250000 I0.054719 J-2.222945
G03 X-260.327000 Y114.881000 Z-5.250000 I1.656406 J8.365050
G00 Z5.000000

(End cutting path id: path24727)


(Start cutting path id: path24727)
(Change tool to Default tool)

G00 Z5.000000
G00 X-261.837000 Y115.636000

G01 Z-5.250000 F6000.0(Penetrate)
G03 X-261.732123 Y115.222605 Z-5.250000 I0.603521 J-0.066889 F6000.000000
G03 X-261.304000 Y115.005000 Z-5.250000 I0.416455 J0.289393
G02 X-260.817358 Y114.963321 Z-5.250000 I0.054719 J-2.222945
G03 X-260.327000 Y114.881000 Z-5.250000 I1.656406 J8.365050
G00 Z5.000000

(End cutting path id: path24727)


(Start cutting path id: path23339)
(Change tool to Default tool)

G00 Z5.000000
G00 X-258.195000 Y115.370000

G01 Z-5.250000 F6000.0(Penetrate)
G02 X-258.797275 Y116.153506 Z-5.250000 I11.462875 J9.434652 F6000.000000
G03 X-259.452000 Y116.864000 Z-5.250000 I-3.212742 J-2.303652
G03 X-260.830931 Y117.486019 Z-5.250000 I-1.772214 J-2.089296
G03 X-262.371000 Y117.326000 Z-5.250000 I-0.453498 J-3.126441
G02 X-263.034136 Y117.098695 Z-5.250000 I-6.225387 J17.080907
G03 X-263.703000 Y116.880000 Z-5.250000 I21.242192 J-66.099913
G00 Z5.000000

(End cutting path id: path23339)


(Start cutting path id: path23339)
(Change tool to Default tool)

G00 Z5.000000
G00 X-258.195000 Y115.370000

G01 Z-5.250000 F6000.0(Penetrate)
G02 X-258.797275 Y116.153506 Z-5.250000 I11.462875 J9.434652 F6000.000000
G03 X-259.452000 Y116.864000 Z-5.250000 I-3.212742 J-2.303652
G03 X-260.830931 Y117.486019 Z-5.250000 I-1.772214 J-2.089296
G03 X-262.371000 Y117.326000 Z-5.250000 I-0.453498 J-3.126441
G02 X-263.034136 Y117.098695 Z-5.250000 I-6.225387 J17.080907
G03 X-263.703000 Y116.880000 Z-5.250000 I21.242192 J-66.099913
G00 Z5.000000

(End cutting path id: path23339)


(Start cutting path id: path23835)
(Change tool to Default tool)

G00 Z5.000000
G00 X-263.792000 Y117.058000

G01 Z-5.250000 F6000.0(Penetrate)
G03 X-263.448580 Y118.426868 Z-5.250000 I-1549.739170 J389.544384 F6000.000000
G02 X-263.071000 Y119.933000 Z-5.250000 I2804.969937 J-702.450683
G02 X-263.963390 Y120.789004 Z-5.250000 I31.021512 J33.233283
G03 X-265.044000 Y121.755000 Z-5.250000 I-10.442865 J-10.594492
G02 X-265.886478 Y122.904976 Z-5.250000 I1.762582 J2.174866
G02 X-266.368000 Y124.165000 Z-5.250000 I64.068943 J25.206164
G00 Z5.000000

(End cutting path id: path23835)


(Start cutting path id: path23835)
(Change tool to Default tool)

G00 Z5.000000
G00 X-263.792000 Y117.058000

G01 Z-5.250000 F6000.0(Penetrate)
G03 X-263.448580 Y118.426868 Z-5.250000 I-1549.739170 J389.544384 F6000.000000
G02 X-263.071000 Y119.933000 Z-5.250000 I2804.969937 J-702.450683
G02 X-263.963390 Y120.789004 Z-5.250000 I31.021512 J33.233283
G03 X-265.044000 Y121.755000 Z-5.250000 I-10.442865 J-10.594492
G02 X-265.886478 Y122.904976 Z-5.250000 I1.762582 J2.174866
G02 X-266.368000 Y124.165000 Z-5.250000 I64.068943 J25.206164
G00 Z5.000000

(End cutting path id: path23835)


(Start cutting path id: path23589)
(Change tool to Default tool)

G00 Z5.000000
G00 X-266.723000 Y124.698000

G01 Z-5.250000 F6000.0(Penetrate)
G01 X-267.167000 Y125.764000 Z-5.250000 F6000.000000
G01 X-266.990000 Y125.770000 Z-5.250000
G02 X-266.963800 Y126.661943 Z-5.250000 I15.195709 J0.000000
G03 X-267.006000 Y127.538000 Z-5.250000 I-4.104426 J0.241334
G03 X-267.794743 Y128.459793 Z-5.250000 I-1.141188 J-0.178125
G02 X-268.775000 Y128.950000 Z-5.250000 I1.092824 J3.410506
G03 X-269.281570 Y129.203673 Z-5.250000 I-1.066343 J-1.496794
G02 X-269.832000 Y129.406000 Z-5.250000 I2.090220 J6.536321
G00 Z5.000000

(End cutting path id: path23589)


(Start cutting path id: path23589)
(Change tool to Default tool)

G00 Z5.000000
G00 X-266.723000 Y124.698000

G01 Z-5.250000 F6000.0(Penetrate)
G01 X-267.167000 Y125.764000 Z-5.250000 F6000.000000
G01 X-266.990000 Y125.770000 Z-5.250000
G02 X-266.963800 Y126.661943 Z-5.250000 I15.195709 J0.000000
G03 X-267.006000 Y127.538000 Z-5.250000 I-4.104426 J0.241334
G03 X-267.794743 Y128.459793 Z-5.250000 I-1.141188 J-0.178125
G02 X-268.775000 Y128.950000 Z-5.250000 I1.092824 J3.410506
G03 X-269.281570 Y129.203673 Z-5.250000 I-1.066343 J-1.496794
G02 X-269.832000 Y129.406000 Z-5.250000 I2.090220 J6.536321
G00 Z5.000000

(End cutting path id: path23589)


(Start cutting path id: path23511)
(Change tool to Default tool)

G00 Z5.000000
G00 X-267.878000 Y132.071000

G01 Z-5.250000 F6000.0(Penetrate)
G03 X-267.997770 Y131.782399 Z-5.250000 I1.926023 J-0.968452 F6000.000000
G02 X-268.152000 Y131.547000 Z-5.250000 I-0.521026 J0.173146
G02 X-268.790716 Y131.062817 Z-5.250000 I-3.325134 J3.723013
G03 X-269.374000 Y130.549000 Z-5.250000 I1.364539 J-2.137003
G02 X-270.647241 Y129.518747 Z-5.250000 I-3.242096 J2.704856
G03 X-272.048000 Y128.775000 Z-5.250000 I123.301147 J-233.914176
G03 X-272.416871 Y128.494741 Z-5.250000 I0.692640 J-1.294519
G02 X-272.764000 Y128.162000 Z-5.250000 I-3.959367 J3.783126
G00 Z5.000000

(End cutting path id: path23511)


(Start cutting path id: path23511)
(Change tool to Default tool)

G00 Z5.000000
G00 X-267.878000 Y132.071000

G01 Z-5.250000 F6000.0(Penetrate)
G03 X-267.997770 Y131.782399 Z-5.250000 I1.926023 J-0.968452 F6000.000000
G02 X-268.152000 Y131.547000 Z-5.250000 I-0.521026 J0.173146
G02 X-268.790716 Y131.062817 Z-5.250000 I-3.325134 J3.723013
G03 X-269.374000 Y130.549000 Z-5.250000 I1.364539 J-2.137003
G02 X-270.647241 Y129.518747 Z-5.250000 I-3.242096 J2.704856
G03 X-272.048000 Y128.775000 Z-5.250000 I123.301147 J-233.914176
G03 X-272.416871 Y128.494741 Z-5.250000 I0.692640 J-1.294519
G02 X-272.764000 Y128.162000 Z-5.250000 I-3.959367 J3.783126
G00 Z5.000000

(End cutting path id: path23511)


(Start cutting path id: path23995)
(Change tool to Default tool)

G00 Z5.000000
G00 X-273.031000 Y127.896000

G01 Z-5.250000 F6000.0(Penetrate)
G02 X-273.962778 Y127.629599 Z-5.250000 I-198.341739 J691.967652 F6000.000000
G03 X-274.896000 Y127.363000 Z-5.250000 I289.185087 J-1014.051069
G00 Z5.000000

(End cutting path id: path23995)


(Start cutting path id: path23995)
(Change tool to Default tool)

G00 Z5.000000
G00 X-273.031000 Y127.896000

G01 Z-5.250000 F6000.0(Penetrate)
G02 X-273.962778 Y127.629599 Z-5.250000 I-198.341739 J691.967652 F6000.000000
G03 X-274.896000 Y127.363000 Z-5.250000 I289.185087 J-1014.051069
G00 Z5.000000

(End cutting path id: path23995)


(Start cutting path id: path23621)
(Change tool to Default tool)

G00 Z5.000000
G00 X-275.962000 Y127.008000

G01 Z-5.250000 F6000.0(Penetrate)
G02 X-276.366746 Y127.120039 Z-5.250000 I0.862228 J3.901946 F6000.000000
G03 X-276.761000 Y127.175000 Z-5.250000 I-0.344700 J-1.031104
G03 X-277.933265 Y127.088826 Z-5.250000 I0.858523 J-19.695519
G02 X-279.110000 Y126.979000 Z-5.250000 I-6.007752 J58.011029
G02 X-280.300410 Y126.916963 Z-5.250000 I-1.593096 J19.117154
G02 X-281.462000 Y126.979000 Z-5.250000 I-0.164363 J7.828317
G02 X-282.721153 Y127.177268 Z-5.250000 I2.982105 J23.036076
G02 X-283.982000 Y127.469000 Z-5.250000 I2.701042 J14.544244
G02 X-285.185099 Y127.868532 Z-5.250000 I3.331044 J12.041872
G02 X-286.363000 Y128.417000 Z-5.250000 I3.663729 J9.407375
G02 X-287.399979 Y129.012286 Z-5.250000 I14.013589 J25.612303
G02 X-288.368000 Y129.666000 Z-5.250000 I5.753057 J9.562718
G02 X-289.238229 Y130.422496 Z-5.250000 I5.057656 J6.696812
G02 X-290.008000 Y131.354000 Z-5.250000 I4.460508 J4.469861
G03 X-290.181609 Y131.465281 Z-5.250000 I-0.216822 J-0.147200
G02 X-290.443000 Y131.538000 Z-5.250000 I0.212044 J1.268344
G00 Z5.000000

(End cutting path id: path23621)


(Start cutting path id: path23621)
(Change tool to Default tool)

G00 Z5.000000
G00 X-275.962000 Y127.008000

G01 Z-5.250000 F6000.0(Penetrate)
G02 X-276.366746 Y127.120039 Z-5.250000 I0.862228 J3.901946 F6000.000000
G03 X-276.761000 Y127.175000 Z-5.250000 I-0.344700 J-1.031104
G03 X-277.933265 Y127.088826 Z-5.250000 I0.858523 J-19.695519
G02 X-279.110000 Y126.979000 Z-5.250000 I-6.007752 J58.011029
G02 X-280.300410 Y126.916963 Z-5.250000 I-1.593096 J19.117154
G02 X-281.462000 Y126.979000 Z-5.250000 I-0.164363 J7.828317
G02 X-282.721153 Y127.177268 Z-5.250000 I2.982105 J23.036076
G02 X-283.982000 Y127.469000 Z-5.250000 I2.701042 J14.544244
G02 X-285.185099 Y127.868532 Z-5.250000 I3.331044 J12.041872
G02 X-286.363000 Y128.417000 Z-5.250000 I3.663729 J9.407375
G02 X-287.399979 Y129.012286 Z-5.250000 I14.013589 J25.612303
G02 X-288.368000 Y129.666000 Z-5.250000 I5.753057 J9.562718
G02 X-289.238229 Y130.422496 Z-5.250000 I5.057656 J6.696812
G02 X-290.008000 Y131.354000 Z-5.250000 I4.460508 J4.469861
G03 X-290.181609 Y131.465281 Z-5.250000 I-0.216822 J-0.147200
G02 X-290.443000 Y131.538000 Z-5.250000 I0.212044 J1.268344
G00 Z5.000000

(End cutting path id: path23621)


(Start cutting path id: path23247)
(Change tool to Default tool)

G00 Z5.000000
G00 X-292.530000 Y129.051000

G01 Z-5.250000 F6000.0(Penetrate)
G03 X-293.412353 Y130.515287 Z-5.250000 I-1.899328 J-0.146512 F6000.000000
G03 X-295.062000 Y130.650000 Z-5.250000 I-0.953677 J-1.510540
G00 Z5.000000

(End cutting path id: path23247)


(Start cutting path id: path23247)
(Change tool to Default tool)

G00 Z5.000000
G00 X-292.530000 Y129.051000

G01 Z-5.250000 F6000.0(Penetrate)
G03 X-293.412353 Y130.515287 Z-5.250000 I-1.899328 J-0.146512 F6000.000000
G03 X-295.062000 Y130.650000 Z-5.250000 I-0.953677 J-1.510540
G00 Z5.000000

(End cutting path id: path23247)


(Start cutting path id: path24805)
(Change tool to Default tool)

G00 Z5.000000
G00 X-297.816000 Y128.074000

G01 Z-5.250000 F6000.0(Penetrate)
G03 X-297.638412 Y128.029102 Z-5.250000 I16.976330 J66.773565 F6000.000000
G03 X-297.461000 Y127.985000 Z-5.250000 I8.382567 J33.342395
G00 Z5.000000

(End cutting path id: path24805)


(Start cutting path id: path24805)
(Change tool to Default tool)

G00 Z5.000000
G00 X-297.816000 Y128.074000

G01 Z-5.250000 F6000.0(Penetrate)
G03 X-297.638412 Y128.029102 Z-5.250000 I16.976330 J66.773565 F6000.000000
G03 X-297.461000 Y127.985000 Z-5.250000 I8.382567 J33.342395
G00 Z5.000000

(End cutting path id: path24805)


(Start cutting path id: path22765)
(Change tool to Default tool)

G00 Z5.000000
G00 X-301.458000 Y133.226000

G01 Z-5.250000 F6000.0(Penetrate)
G03 X-301.379941 Y132.938122 Z-5.250000 I1.427701 J0.232603 F6000.000000
G02 X-301.380000 Y132.697000 Z-5.250000 I-0.312423 J-0.120484
G03 X-301.761725 Y131.252761 Z-5.250000 I6.290113 J-2.435096
G03 X-301.798000 Y130.083000 Z-5.250000 I4.982386 J-0.739951
G03 X-301.487709 Y128.744302 Z-5.250000 I4.797328 J0.406640
G03 X-300.883000 Y127.607000 Z-5.250000 I5.110385 J1.987804
G03 X-300.017165 Y126.599095 Z-5.250000 I5.252874 J3.636605
G03 X-298.976000 Y125.757000 Z-5.250000 I5.991227 J6.342846
G03 X-297.664762 Y125.019115 Z-5.250000 I4.736038 J6.882055
G03 X-296.347000 Y124.572000 Z-5.250000 I2.997891 J6.670097
G03 X-294.956500 Y124.381309 Z-5.250000 I1.697321 J7.211658
G03 X-293.465000 Y124.450000 Z-5.250000 I0.353998 J8.540536
G03 X-292.426307 Y124.682515 Z-5.250000 I-0.786401 J5.949291
G03 X-291.428000 Y125.071000 Z-5.250000 I-2.625333 J8.223382
G03 X-290.516436 Y125.933276 Z-5.250000 I-0.828074 J1.788379
G03 X-290.092000 Y127.098000 Z-5.250000 I-3.928059 J2.091117
G03 X-290.008310 Y128.423324 Z-5.250000 I-4.467927 J0.947440
G03 X-290.264000 Y129.533000 Z-5.250000 I-3.964104 J-0.329107
G03 X-290.824198 Y130.557614 Z-5.250000 I-4.179782 J-1.619807
G03 X-291.690000 Y131.534000 Z-5.250000 I-5.584619 J-4.080050
G03 X-292.960806 Y132.430181 Z-5.250000 I-3.906813 J-4.190847
G03 X-294.229000 Y132.873000 Z-5.250000 I-2.181175 J-4.209284
G03 X-295.585477 Y132.958405 Z-5.250000 I-0.999927 J-5.066671
G03 X-297.106000 Y132.695000 Z-5.250000 I0.520946 J-7.527571
G03 X-298.064201 Y132.174201 Z-5.250000 I0.663362 J-2.362381
G03 X-298.763000 Y131.227000 Z-5.250000 I1.837927 J-2.087303
G03 X-298.970890 Y130.222176 Z-5.250000 I2.157786 J-0.970346
G03 X-298.635000 Y129.039000 Z-5.250000 I2.373681 J0.034595
G03 X-297.904366 Y128.071590 Z-5.250000 I4.822969 J2.882928
G03 X-297.112000 Y127.436000 Z-5.250000 I2.654393 J2.497428
G03 X-296.170939 Y127.047722 Z-5.250000 I1.789181 J3.001849
G03 X-294.973000 Y126.906000 Z-5.250000 I1.152235 J4.605743
G02 X-294.669621 Y126.819639 Z-5.250000 I0.005408 J-0.557053
G03 X-294.351000 Y126.652000 Z-5.250000 I1.204453 J1.902622
G00 Z5.000000

(End cutting path id: path22765)


(Start cutting path id: path22765)
(Change tool to Default tool)

G00 Z5.000000
G00 X-301.458000 Y133.226000

G01 Z-5.250000 F6000.0(Penetrate)
G03 X-301.379941 Y132.938122 Z-5.250000 I1.427701 J0.232603 F6000.000000
G02 X-301.380000 Y132.697000 Z-5.250000 I-0.312423 J-0.120484
G03 X-301.761725 Y131.252761 Z-5.250000 I6.290113 J-2.435096
G03 X-301.798000 Y130.083000 Z-5.250000 I4.982386 J-0.739951
G03 X-301.487709 Y128.744302 Z-5.250000 I4.797328 J0.406640
G03 X-300.883000 Y127.607000 Z-5.250000 I5.110385 J1.987804
G03 X-300.017165 Y126.599095 Z-5.250000 I5.252874 J3.636605
G03 X-298.976000 Y125.757000 Z-5.250000 I5.991227 J6.342846
G03 X-297.664762 Y125.019115 Z-5.250000 I4.736038 J6.882055
G03 X-296.347000 Y124.572000 Z-5.250000 I2.997891 J6.670097
G03 X-294.956500 Y124.381309 Z-5.250000 I1.697321 J7.211658
G03 X-293.465000 Y124.450000 Z-5.250000 I0.353998 J8.540536
G03 X-292.426307 Y124.682515 Z-5.250000 I-0.786401 J5.949291
G03 X-291.428000 Y125.071000 Z-5.250000 I-2.625333 J8.223382
G03 X-290.516436 Y125.933276 Z-5.250000 I-0.828074 J1.788379
G03 X-290.092000 Y127.098000 Z-5.250000 I-3.928059 J2.091117
G03 X-290.008310 Y128.423324 Z-5.250000 I-4.467927 J0.947440
G03 X-290.264000 Y129.533000 Z-5.250000 I-3.964104 J-0.329107
G03 X-290.824198 Y130.557614 Z-5.250000 I-4.179782 J-1.619807
G03 X-291.690000 Y131.534000 Z-5.250000 I-5.584619 J-4.080050
G03 X-292.960806 Y132.430181 Z-5.250000 I-3.906813 J-4.190847
G03 X-294.229000 Y132.873000 Z-5.250000 I-2.181175 J-4.209284
G03 X-295.585477 Y132.958405 Z-5.250000 I-0.999927 J-5.066671
G03 X-297.106000 Y132.695000 Z-5.250000 I0.520946 J-7.527571
G03 X-298.064201 Y132.174201 Z-5.250000 I0.663362 J-2.362381
G03 X-298.763000 Y131.227000 Z-5.250000 I1.837927 J-2.087303
G03 X-298.970890 Y130.222176 Z-5.250000 I2.157786 J-0.970346
G03 X-298.635000 Y129.039000 Z-5.250000 I2.373681 J0.034595
G03 X-297.904366 Y128.071590 Z-5.250000 I4.822969 J2.882928
G03 X-297.112000 Y127.436000 Z-5.250000 I2.654393 J2.497428
G03 X-296.170939 Y127.047722 Z-5.250000 I1.789181 J3.001849
G03 X-294.973000 Y126.906000 Z-5.250000 I1.152235 J4.605743
G02 X-294.669621 Y126.819639 Z-5.250000 I0.005408 J-0.557053
G03 X-294.351000 Y126.652000 Z-5.250000 I1.204453 J1.902622
G00 Z5.000000

(End cutting path id: path22765)


(Start cutting path id: path23347)
(Change tool to Default tool)

G00 Z5.000000
G00 X-287.244000 Y128.695000

G01 Z-5.250000 F6000.0(Penetrate)
G02 X-287.350752 Y128.249554 Z-5.250000 I-6.373862 J1.291999 F6000.000000
G03 X-287.414000 Y127.807000 Z-5.250000 I1.681068 J-0.466046
G02 X-287.529695 Y126.473177 Z-5.250000 I-9.441607 J0.147033
G02 X-287.860000 Y125.304000 Z-5.250000 I-5.102171 J0.810171
G02 X-288.455511 Y124.292018 Z-5.250000 I-3.919633 J1.625341
G02 X-289.460000 Y123.357000 Z-5.250000 I-3.585038 J2.844331
G03 X-289.609654 Y123.169320 Z-5.250000 I0.229622 J-0.336605
G02 X-289.732000 Y122.921000 Z-5.250000 I-1.542402 J0.605633
G00 Z5.000000

(End cutting path id: path23347)


(Start cutting path id: path23347)
(Change tool to Default tool)

G00 Z5.000000
G00 X-287.244000 Y128.695000

G01 Z-5.250000 F6000.0(Penetrate)
G02 X-287.350752 Y128.249554 Z-5.250000 I-6.373862 J1.291999 F6000.000000
G03 X-287.414000 Y127.807000 Z-5.250000 I1.681068 J-0.466046
G02 X-287.529695 Y126.473177 Z-5.250000 I-9.441607 J0.147033
G02 X-287.860000 Y125.304000 Z-5.250000 I-5.102171 J0.810171
G02 X-288.455511 Y124.292018 Z-5.250000 I-3.919633 J1.625341
G02 X-289.460000 Y123.357000 Z-5.250000 I-3.585038 J2.844331
G03 X-289.609654 Y123.169320 Z-5.250000 I0.229622 J-0.336605
G02 X-289.732000 Y122.921000 Z-5.250000 I-1.542402 J0.605633
G00 Z5.000000

(End cutting path id: path23347)


(Start cutting path id: path23009)
(Change tool to Default tool)

G00 Z5.000000
G00 X-284.135000 Y126.475000

G01 Z-5.250000 F6000.0(Penetrate)
G02 X-284.132752 Y125.490346 Z-5.250000 I-8.188924 J-0.511029 F6000.000000
G02 X-284.243000 Y124.534000 Z-5.250000 I-8.432512 J0.487580
G02 X-284.461768 Y123.582700 Z-5.250000 I-8.542133 J1.463605
G02 X-284.782000 Y122.665000 Z-5.250000 I-8.751523 J2.539129
G02 X-285.538691 Y121.257464 Z-5.250000 I-7.009688 J2.861240
G02 X-286.504000 Y120.156000 Z-5.250000 I-5.026699 J3.431611
G02 X-287.690818 Y119.328426 Z-5.250000 I-3.972144 J4.431631
G02 X-289.197000 Y118.741000 Z-5.250000 I-3.291633 J6.215205
G03 X-289.288568 Y118.674916 Z-5.250000 I0.041974 J-0.154642
G02 X-289.376000 Y118.568000 Z-5.250000 I-0.576949 J0.382601
G00 Z5.000000

(End cutting path id: path23009)


(Start cutting path id: path23009)
(Change tool to Default tool)

G00 Z5.000000
G00 X-284.135000 Y126.475000

G01 Z-5.250000 F6000.0(Penetrate)
G02 X-284.132752 Y125.490346 Z-5.250000 I-8.188924 J-0.511029 F6000.000000
G02 X-284.243000 Y124.534000 Z-5.250000 I-8.432512 J0.487580
G02 X-284.461768 Y123.582700 Z-5.250000 I-8.542133 J1.463605
G02 X-284.782000 Y122.665000 Z-5.250000 I-8.751523 J2.539129
G02 X-285.538691 Y121.257464 Z-5.250000 I-7.009688 J2.861240
G02 X-286.504000 Y120.156000 Z-5.250000 I-5.026699 J3.431611
G02 X-287.690818 Y119.328426 Z-5.250000 I-3.972144 J4.431631
G02 X-289.197000 Y118.741000 Z-5.250000 I-3.291633 J6.215205
G03 X-289.288568 Y118.674916 Z-5.250000 I0.041974 J-0.154642
G02 X-289.376000 Y118.568000 Z-5.250000 I-0.576949 J0.382601
G00 Z5.000000

(End cutting path id: path23009)


(Start cutting path id: path23907)
(Change tool to Default tool)

G00 Z5.000000
G00 X-288.666000 Y115.015000

G01 Z-5.250000 F6000.0(Penetrate)
G03 X-288.270749 Y113.458500 Z-5.250000 I3.817737 J0.141025 F6000.000000
G03 X-287.333000 Y112.172000 Z-5.250000 I4.228940 J2.097519
G00 Z5.000000

(End cutting path id: path23907)


(Start cutting path id: path23907)
(Change tool to Default tool)

G00 Z5.000000
G00 X-288.666000 Y115.015000

G01 Z-5.250000 F6000.0(Penetrate)
G03 X-288.270749 Y113.458500 Z-5.250000 I3.817737 J0.141025 F6000.000000
G03 X-287.333000 Y112.172000 Z-5.250000 I4.228940 J2.097519
G00 Z5.000000

(End cutting path id: path23907)


(Start cutting path id: path24415)
(Change tool to Default tool)

G00 Z5.000000
G00 X-285.468000 Y115.192000

G01 Z-5.250000 F6000.0(Penetrate)
G03 X-285.779126 Y114.875168 Z-5.250000 I0.091513 J-0.401041 F6000.000000
G03 X-285.735000 Y114.481000 Z-5.250000 I0.621488 J-0.129981
G02 X-285.643374 Y114.260131 Z-5.250000 I-3.209726 J-1.460979
G03 X-285.557000 Y114.037000 Z-5.250000 I11.192643 J4.204368
G00 Z5.000000

(End cutting path id: path24415)


(Start cutting path id: path24415)
(Change tool to Default tool)

G00 Z5.000000
G00 X-285.468000 Y115.192000

G01 Z-5.250000 F6000.0(Penetrate)
G03 X-285.779126 Y114.875168 Z-5.250000 I0.091513 J-0.401041 F6000.000000
G03 X-285.735000 Y114.481000 Z-5.250000 I0.621488 J-0.129981
G02 X-285.643374 Y114.260131 Z-5.250000 I-3.209726 J-1.460979
G03 X-285.557000 Y114.037000 Z-5.250000 I11.192643 J4.204368
G00 Z5.000000

(End cutting path id: path24415)


(Start cutting path id: path24753)
(Change tool to Default tool)

G00 Z5.000000
G00 X-284.579000 Y115.281000

G01 Z-5.250000 F6000.0(Penetrate)
G02 X-284.313136 Y115.103674 Z-5.250000 I-407.458973 J-611.187945 F6000.000000
G03 X-284.046000 Y114.926000 Z-5.250000 I58.724195 J88.003304
G00 Z5.000000

(End cutting path id: path24753)


(Start cutting path id: path24753)
(Change tool to Default tool)

G00 Z5.000000
G00 X-284.579000 Y115.281000

G01 Z-5.250000 F6000.0(Penetrate)
G02 X-284.313136 Y115.103674 Z-5.250000 I-407.458973 J-611.187945 F6000.000000
G03 X-284.046000 Y114.926000 Z-5.250000 I58.724195 J88.003304
G00 Z5.000000

(End cutting path id: path24753)


(Start cutting path id: path24541)
(Change tool to Default tool)

G00 Z5.000000
G00 X-283.247000 Y116.969000

G01 Z-5.250000 F6000.0(Penetrate)
G02 X-283.824443 Y117.057616 Z-5.250000 I209.208221 J1365.174082 F6000.000000
G02 X-284.402000 Y117.147000 Z-5.250000 I41.996671 J273.273941
G00 Z5.000000

(End cutting path id: path24541)


(Start cutting path id: path24541)
(Change tool to Default tool)

G00 Z5.000000
G00 X-283.247000 Y116.969000

G01 Z-5.250000 F6000.0(Penetrate)
G02 X-283.824443 Y117.057616 Z-5.250000 I209.208221 J1365.174082 F6000.000000
G02 X-284.402000 Y117.147000 Z-5.250000 I41.996671 J273.273941
G00 Z5.000000

(End cutting path id: path24541)


(Start cutting path id: path23019)
(Change tool to Default tool)

G00 Z5.000000
G00 X-283.513000 Y118.390000

G01 Z-5.250000 F6000.0(Penetrate)
G02 X-283.095486 Y117.305250 Z-5.250000 I-19.456020 J-8.111242 F6000.000000
G03 X-282.608000 Y116.268000 Z-5.250000 I5.438819 J1.922951
G03 X-281.983235 Y115.300496 Z-5.250000 I14.230297 J8.503733
G03 X-281.277000 Y114.431000 Z-5.250000 I6.214820 J4.326331
G03 X-280.472150 Y113.715564 Z-5.250000 I4.380376 J4.117389
G03 X-279.441000 Y113.118000 Z-5.250000 I3.178111 J4.295663
G03 X-278.285341 Y112.664329 Z-5.250000 I6.317301 J14.393610
G03 X-277.134000 Y112.325000 Z-5.250000 I4.109962 J11.822163
G03 X-275.948736 Y112.100014 Z-5.250000 I2.754182 J11.274934
G03 X-274.718000 Y112.003000 Z-5.250000 I1.466528 J10.749414
G03 X-273.471776 Y112.004487 Z-5.250000 I0.592305 J25.812021
G03 X-272.233000 Y112.097000 Z-5.250000 I-0.319786 J12.622128
G03 X-270.510027 Y112.483346 Z-5.250000 I-1.148523 J9.157146
G03 X-268.848000 Y113.132000 Z-5.250000 I-4.985325 J15.227355
G03 X-267.504930 Y113.812390 Z-5.250000 I-7.632507 J16.732133
G03 X-266.105000 Y114.962000 Z-5.250000 I-2.501036 J4.472802
G03 X-265.734722 Y114.275782 Z-5.250000 I32.058746 J16.855630
G02 X-265.483000 Y113.769000 Z-5.250000 I-5.555427 J-3.075328
G03 X-264.665158 Y112.499864 Z-5.250000 I4.460691 J1.976429
G03 X-263.463000 Y111.505000 Z-5.250000 I3.855293 J3.434840
G03 X-262.743058 Y111.146454 Z-5.250000 I2.688955 J4.497207
G03 X-262.015000 Y110.928000 Z-5.250000 I1.525866 J3.762915
G00 Z5.000000

(End cutting path id: path23019)


(Start cutting path id: path23019)
(Change tool to Default tool)

G00 Z5.000000
G00 X-283.513000 Y118.390000

G01 Z-5.250000 F6000.0(Penetrate)
G02 X-283.095486 Y117.305250 Z-5.250000 I-19.456020 J-8.111242 F6000.000000
G03 X-282.608000 Y116.268000 Z-5.250000 I5.438819 J1.922951
G03 X-281.983235 Y115.300496 Z-5.250000 I14.230297 J8.503733
G03 X-281.277000 Y114.431000 Z-5.250000 I6.214820 J4.326331
G03 X-280.472150 Y113.715564 Z-5.250000 I4.380376 J4.117389
G03 X-279.441000 Y113.118000 Z-5.250000 I3.178111 J4.295663
G03 X-278.285341 Y112.664329 Z-5.250000 I6.317301 J14.393610
G03 X-277.134000 Y112.325000 Z-5.250000 I4.109962 J11.822163
G03 X-275.948736 Y112.100014 Z-5.250000 I2.754182 J11.274934
G03 X-274.718000 Y112.003000 Z-5.250000 I1.466528 J10.749414
G03 X-273.471776 Y112.004487 Z-5.250000 I0.592305 J25.812021
G03 X-272.233000 Y112.097000 Z-5.250000 I-0.319786 J12.622128
G03 X-270.510027 Y112.483346 Z-5.250000 I-1.148523 J9.157146
G03 X-268.848000 Y113.132000 Z-5.250000 I-4.985325 J15.227355
G03 X-267.504930 Y113.812390 Z-5.250000 I-7.632507 J16.732133
G03 X-266.105000 Y114.962000 Z-5.250000 I-2.501036 J4.472802
G03 X-265.734722 Y114.275782 Z-5.250000 I32.058746 J16.855630
G02 X-265.483000 Y113.769000 Z-5.250000 I-5.555427 J-3.075328
G03 X-264.665158 Y112.499864 Z-5.250000 I4.460691 J1.976429
G03 X-263.463000 Y111.505000 Z-5.250000 I3.855293 J3.434840
G03 X-262.743058 Y111.146454 Z-5.250000 I2.688955 J4.497207
G03 X-262.015000 Y110.928000 Z-5.250000 I1.525866 J3.762915
G00 Z5.000000

(End cutting path id: path23019)


(Start cutting path id: path24655)
(Change tool to Default tool)

G00 Z5.000000
G00 X-263.347000 Y110.928000

G01 Z-5.250000 F6000.0(Penetrate)
G01 X-264.147000 Y110.928000 Z-5.250000 F6000.000000
G00 Z5.000000

(End cutting path id: path24655)


(Start cutting path id: path24655)
(Change tool to Default tool)

G00 Z5.000000
G00 X-263.347000 Y110.928000

G01 Z-5.250000 F6000.0(Penetrate)
G01 X-264.147000 Y110.928000 Z-5.250000 F6000.000000
G00 Z5.000000

(End cutting path id: path24655)


(Start cutting path id: path24007)
(Change tool to Default tool)

G00 Z5.000000
G00 X-264.058000 Y111.550000

G01 Z-5.250000 F6000.0(Penetrate)
G02 X-264.380496 Y111.147455 Z-5.250000 I-0.922707 J0.408764 F6000.000000
G02 X-264.949000 Y110.999000 Z-5.250000 I-0.469278 J0.634327
G03 X-265.606657 Y110.996604 Z-5.250000 I-0.319822 J-2.472908
G02 X-266.279000 Y110.928000 Z-5.250000 I-1.338182 J9.785810
G00 Z5.000000

(End cutting path id: path24007)


(Start cutting path id: path24007)
(Change tool to Default tool)

G00 Z5.000000
G00 X-264.058000 Y111.550000

G01 Z-5.250000 F6000.0(Penetrate)
G02 X-264.380496 Y111.147455 Z-5.250000 I-0.922707 J0.408764 F6000.000000
G02 X-264.949000 Y110.999000 Z-5.250000 I-0.469278 J0.634327
G03 X-265.606657 Y110.996604 Z-5.250000 I-0.319822 J-2.472908
G02 X-266.279000 Y110.928000 Z-5.250000 I-1.338182 J9.785810
G00 Z5.000000

(End cutting path id: path24007)


(Start cutting path id: path23021)
(Change tool to Default tool)

G00 Z5.000000
G00 X-260.593000 Y110.750000

G01 Z-5.250000 F6000.0(Penetrate)
G03 X-259.700606 Y110.179637 Z-5.250000 I2.636006 J3.141009 F6000.000000
G03 X-258.639000 Y109.934000 Z-5.250000 I1.101935 J2.345529
G02 X-258.382285 Y109.823854 Z-5.250000 I-0.006178 J-0.368634
G03 X-258.106000 Y109.596000 Z-5.250000 I1.227309 J1.206742
G00 Z5.000000

(End cutting path id: path23021)


(Start cutting path id: path23021)
(Change tool to Default tool)

G00 Z5.000000
G00 X-260.593000 Y110.750000

G01 Z-5.250000 F6000.0(Penetrate)
G03 X-259.700606 Y110.179637 Z-5.250000 I2.636006 J3.141009 F6000.000000
G03 X-258.639000 Y109.934000 Z-5.250000 I1.101935 J2.345529
G02 X-258.382285 Y109.823854 Z-5.250000 I-0.006178 J-0.368634
G03 X-258.106000 Y109.596000 Z-5.250000 I1.227309 J1.206742
G00 Z5.000000

(End cutting path id: path23021)


(Start cutting path id: path24833)
(Change tool to Default tool)

G00 Z5.000000
G00 X-258.905000 Y110.217000

G01 Z-5.250000 F6000.0(Penetrate)
G01 X-259.172000 Y110.217000 Z-5.250000 F6000.000000
G00 Z5.000000

(End cutting path id: path24833)


(Start cutting path id: path24833)
(Change tool to Default tool)

G00 Z5.000000
G00 X-258.905000 Y110.217000

G01 Z-5.250000 F6000.0(Penetrate)
G01 X-259.172000 Y110.217000 Z-5.250000 F6000.000000
G00 Z5.000000

(End cutting path id: path24833)


(Start cutting path id: path24611)
(Change tool to Default tool)

G00 Z5.000000
G00 X-259.350000 Y111.816000

G01 Z-5.250000 F6000.0(Penetrate)
G03 X-259.837678 Y111.550119 Z-5.250000 I295.829962 J-543.191198 F6000.000000
G03 X-260.327000 Y111.283000 Z-5.250000 I1494.667516 J-2738.573138
G00 Z5.000000

(End cutting path id: path24611)


(Start cutting path id: path24611)
(Change tool to Default tool)

G00 Z5.000000
G00 X-259.350000 Y111.816000

G01 Z-5.250000 F6000.0(Penetrate)
G03 X-259.837678 Y111.550119 Z-5.250000 I295.829962 J-543.191198 F6000.000000
G03 X-260.327000 Y111.283000 Z-5.250000 I1494.667516 J-2738.573138
G00 Z5.000000

(End cutting path id: path24611)


(Start cutting path id: path24683)
(Change tool to Default tool)

G00 Z5.000000
G00 X-257.040000 Y109.151000

G01 Z-5.250000 F6000.0(Penetrate)
G03 X-256.486763 Y108.862967 Z-5.250000 I0.504777 J0.294218 F6000.000000
G03 X-255.974000 Y109.063000 Z-5.250000 I-0.080114 J0.962589
G00 Z5.000000

(End cutting path id: path24683)


(Start cutting path id: path24683)
(Change tool to Default tool)

G00 Z5.000000
G00 X-257.040000 Y109.151000

G01 Z-5.250000 F6000.0(Penetrate)
G03 X-256.486763 Y108.862967 Z-5.250000 I0.504777 J0.294218 F6000.000000
G03 X-255.974000 Y109.063000 Z-5.250000 I-0.080114 J0.962589
G00 Z5.000000

(End cutting path id: path24683)


(Start cutting path id: path24663)
(Change tool to Default tool)

G00 Z5.000000
G00 X-255.619000 Y108.707000

G01 Z-5.250000 F6000.0(Penetrate)
G01 X-254.908000 Y108.263000 Z-5.250000 F6000.000000
G00 Z5.000000

(End cutting path id: path24663)


(Start cutting path id: path24663)
(Change tool to Default tool)

G00 Z5.000000
G00 X-255.619000 Y108.707000

G01 Z-5.250000 F6000.0(Penetrate)
G01 X-254.908000 Y108.263000 Z-5.250000 F6000.000000
G00 Z5.000000

(End cutting path id: path24663)


(Start cutting path id: path24245)
(Change tool to Default tool)

G00 Z5.000000
G00 X-254.730000 Y109.418000

G01 Z-5.250000 F6000.0(Penetrate)
G02 X-254.210417 Y108.638590 Z-5.250000 I-1.441437 J-1.523805 F6000.000000
G02 X-254.184000 Y107.567000 Z-5.250000 I-1.510441 J-0.573357
G03 X-254.487573 Y107.904970 Z-5.250000 I-387.647688 J-347.888823
G03 X-254.730000 Y108.174000 Z-5.250000 I-115.802803 J-104.108098
G00 Z5.000000

(End cutting path id: path24245)


(Start cutting path id: path24245)
(Change tool to Default tool)

G00 Z5.000000
G00 X-254.730000 Y109.418000

G01 Z-5.250000 F6000.0(Penetrate)
G02 X-254.210417 Y108.638590 Z-5.250000 I-1.441437 J-1.523805 F6000.000000
G02 X-254.184000 Y107.567000 Z-5.250000 I-1.510441 J-0.573357
G03 X-254.487573 Y107.904970 Z-5.250000 I-387.647688 J-347.888823
G03 X-254.730000 Y108.174000 Z-5.250000 I-115.802803 J-104.108098
G00 Z5.000000

(End cutting path id: path24245)


(Start cutting path id: path24155)
(Change tool to Default tool)

G00 Z5.000000
G00 X-253.931000 Y107.286000

G01 Z-5.250000 F6000.0(Penetrate)
G02 X-253.220169 Y106.841980 Z-5.250000 I-1754.600508 J-2809.741599 F6000.000000
G02 X-252.509000 Y106.397000 Z-5.250000 I-351.863307 J-563.139209
G00 Z5.000000

(End cutting path id: path24155)


(Start cutting path id: path24155)
(Change tool to Default tool)

G00 Z5.000000
G00 X-253.931000 Y107.286000

G01 Z-5.250000 F6000.0(Penetrate)
G02 X-253.220169 Y106.841980 Z-5.250000 I-1754.600508 J-2809.741599 F6000.000000
G02 X-252.509000 Y106.397000 Z-5.250000 I-351.863307 J-563.139209
G00 Z5.000000

(End cutting path id: path24155)


(Start cutting path id: path24743)
(Change tool to Default tool)

G00 Z5.000000
G00 X-252.865000 Y107.197000

G01 Z-5.250000 F6000.0(Penetrate)
G02 X-252.775596 Y106.885900 Z-5.250000 I-68.041446 J-19.722160 F6000.000000
G03 X-252.687000 Y106.575000 Z-5.250000 I2906.614042 J828.121394
G00 Z5.000000

(End cutting path id: path24743)


(Start cutting path id: path24743)
(Change tool to Default tool)

G00 Z5.000000
G00 X-252.865000 Y107.197000

G01 Z-5.250000 F6000.0(Penetrate)
G02 X-252.775596 Y106.885900 Z-5.250000 I-68.041446 J-19.722160 F6000.000000
G03 X-252.687000 Y106.575000 Z-5.250000 I2906.614042 J828.121394
G00 Z5.000000

(End cutting path id: path24743)


(Start cutting path id: path22955)
(Change tool to Default tool)

G00 Z5.000000
G00 X-250.466000 Y104.798000

G01 Z-5.250000 F6000.0(Penetrate)
G02 X-249.221712 Y104.731462 Z-5.250000 I-0.092870 J-13.404286 F6000.000000
G02 X-247.960000 Y104.295000 Z-5.250000 I-0.288243 J-2.875140
G03 X-247.078837 Y103.901267 Z-5.250000 I1.772360 J2.783616
G03 X-246.112000 Y103.758000 Z-5.250000 I1.047357 J3.734102
G03 X-244.625229 Y103.746622 Z-5.250000 I1.197524 J59.337327
G03 X-243.137000 Y103.763000 Z-5.250000 I-0.591558 J121.378078
G03 X-241.648981 Y103.793125 Z-5.250000 I-6.430662 J354.401216
G02 X-240.161000 Y103.821000 Z-5.250000 I4.603527 J-206.013665
G00 Z5.000000

(End cutting path id: path22955)


(Start cutting path id: path22955)
(Change tool to Default tool)

G00 Z5.000000
G00 X-250.466000 Y104.798000

G01 Z-5.250000 F6000.0(Penetrate)
G02 X-249.221712 Y104.731462 Z-5.250000 I-0.092870 J-13.404286 F6000.000000
G02 X-247.960000 Y104.295000 Z-5.250000 I-0.288243 J-2.875140
G03 X-247.078837 Y103.901267 Z-5.250000 I1.772360 J2.783616
G03 X-246.112000 Y103.758000 Z-5.250000 I1.047357 J3.734102
G03 X-244.625229 Y103.746622 Z-5.250000 I1.197524 J59.337327
G03 X-243.137000 Y103.763000 Z-5.250000 I-0.591558 J121.378078
G03 X-241.648981 Y103.793125 Z-5.250000 I-6.430662 J354.401216
G02 X-240.161000 Y103.821000 Z-5.250000 I4.603527 J-206.013665
G00 Z5.000000

(End cutting path id: path22955)


(Start cutting path id: path22957)
(Change tool to Default tool)

G00 Z5.000000
G00 X-237.229000 Y103.777000

G01 Z-5.250000 F6000.0(Penetrate)
G01 X-234.120000 Y103.732000 Z-5.250000 F6000.000000
G00 Z5.000000

(End cutting path id: path22957)


(Start cutting path id: path22957)
(Change tool to Default tool)

G00 Z5.000000
G00 X-237.229000 Y103.777000

G01 Z-5.250000 F6000.0(Penetrate)
G01 X-234.120000 Y103.732000 Z-5.250000 F6000.000000
G00 Z5.000000

(End cutting path id: path22957)


(Start cutting path id: path24587)
(Change tool to Default tool)

G00 Z5.000000
G00 X-233.232000 Y106.397000

G01 Z-5.250000 F6000.0(Penetrate)
G02 X-233.278057 Y106.087169 Z-5.250000 I-18.510104 J2.593203 F6000.000000
G03 X-233.319000 Y105.775000 Z-5.250000 I6.090440 J-0.957578
G03 X-233.366237 Y105.287027 Z-5.250000 I22.613963 J-2.435350
G02 X-233.409000 Y104.798000 Z-5.250000 I-163.047590 J14.011402
G00 Z5.000000

(End cutting path id: path24587)


(Start cutting path id: path24587)
(Change tool to Default tool)

G00 Z5.000000
G00 X-233.232000 Y106.397000

G01 Z-5.250000 F6000.0(Penetrate)
G02 X-233.278057 Y106.087169 Z-5.250000 I-18.510104 J2.593203 F6000.000000
G03 X-233.319000 Y105.775000 Z-5.250000 I6.090440 J-0.957578
G03 X-233.366237 Y105.287027 Z-5.250000 I22.613963 J-2.435350
G02 X-233.409000 Y104.798000 Z-5.250000 I-163.047590 J14.011402
G00 Z5.000000

(End cutting path id: path24587)


(Start cutting path id: path24579)
(Change tool to Default tool)

G00 Z5.000000
G00 X-230.655000 Y105.065000

G01 Z-5.250000 F6000.0(Penetrate)
G02 X-231.042678 Y104.950333 Z-5.250000 I-0.682759 J1.595662 F6000.000000
G03 X-231.254000 Y104.788000 Z-5.250000 I0.048664 J-0.282064
G03 X-231.426216 Y104.230891 Z-5.250000 I2.019632 J-0.929490
G02 X-231.544000 Y103.643000 Z-5.250000 I-10.038571 J1.705486
G00 Z5.000000

(End cutting path id: path24579)


(Start cutting path id: path24579)
(Change tool to Default tool)

G00 Z5.000000
G00 X-230.655000 Y105.065000

G01 Z-5.250000 F6000.0(Penetrate)
G02 X-231.042678 Y104.950333 Z-5.250000 I-0.682759 J1.595662 F6000.000000
G03 X-231.254000 Y104.788000 Z-5.250000 I0.048664 J-0.282064
G03 X-231.426216 Y104.230891 Z-5.250000 I2.019632 J-0.929490
G02 X-231.544000 Y103.643000 Z-5.250000 I-10.038571 J1.705486
G00 Z5.000000

(End cutting path id: path24579)


(Start cutting path id: path23591)
(Change tool to Default tool)

G00 Z5.000000
G00 X-227.368000 Y103.732000

G01 Z-5.250000 F6000.0(Penetrate)
G03 X-228.522905 Y103.582633 Z-5.250000 I4.459318 J-39.019036 F6000.000000
G02 X-229.679000 Y103.477000 Z-5.250000 I-1.586476 J10.983855
G02 X-231.365256 Y103.451479 Z-5.250000 I-1.374101 J35.070793
G02 X-233.054000 Y103.474000 Z-5.250000 I1.691181 J190.143302
G02 X-233.496565 Y103.538026 Z-5.250000 I0.036668 J1.815042
G03 X-233.942000 Y103.644000 Z-5.250000 I-1.800214 J-6.577603
G00 Z5.000000

(End cutting path id: path23591)


(Start cutting path id: path23591)
(Change tool to Default tool)

G00 Z5.000000
G00 X-227.368000 Y103.732000

G01 Z-5.250000 F6000.0(Penetrate)
G03 X-228.522905 Y103.582633 Z-5.250000 I4.459318 J-39.019036 F6000.000000
G02 X-229.679000 Y103.477000 Z-5.250000 I-1.586476 J10.983855
G02 X-231.365256 Y103.451479 Z-5.250000 I-1.374101 J35.070793
G02 X-233.054000 Y103.474000 Z-5.250000 I1.691181 J190.143302
G02 X-233.496565 Y103.538026 Z-5.250000 I0.036668 J1.815042
G03 X-233.942000 Y103.644000 Z-5.250000 I-1.800214 J-6.577603
G00 Z5.000000

(End cutting path id: path23591)


(Start cutting path id: path24497)
(Change tool to Default tool)

G00 Z5.000000
G00 X-236.430000 Y105.331000

G01 Z-5.250000 F6000.0(Penetrate)
G03 X-237.007333 Y104.976478 Z-5.250000 I225.244945 J-367.454543 F6000.000000
G03 X-237.585000 Y104.621000 Z-5.250000 I1132.253634 J-1840.612234
G00 Z5.000000

(End cutting path id: path24497)


(Start cutting path id: path24497)
(Change tool to Default tool)

G00 Z5.000000
G00 X-236.430000 Y105.331000

G01 Z-5.250000 F6000.0(Penetrate)
G03 X-237.007333 Y104.976478 Z-5.250000 I225.244945 J-367.454543 F6000.000000
G03 X-237.585000 Y104.621000 Z-5.250000 I1132.253634 J-1840.612234
G00 Z5.000000

(End cutting path id: path24497)


(Start cutting path id: path23635)
(Change tool to Default tool)

G00 Z5.000000
G00 X-237.851000 Y107.819000

G01 Z-5.250000 F6000.0(Penetrate)
G02 X-238.698897 Y107.193655 Z-5.250000 I-3.052827 J3.251789 F6000.000000
G02 X-239.590000 Y106.792000 Z-5.250000 I-2.584438 J4.544460
G02 X-240.556449 Y106.540588 Z-5.250000 I-2.128781 J6.199953
G02 X-241.582000 Y106.397000 Z-5.250000 I-2.345665 J13.019283
G00 Z5.000000

(End cutting path id: path23635)


(Start cutting path id: path23635)
(Change tool to Default tool)

G00 Z5.000000
G00 X-237.851000 Y107.819000

G01 Z-5.250000 F6000.0(Penetrate)
G02 X-238.698897 Y107.193655 Z-5.250000 I-3.052827 J3.251789 F6000.000000
G02 X-239.590000 Y106.792000 Z-5.250000 I-2.584438 J4.544460
G02 X-240.556449 Y106.540588 Z-5.250000 I-2.128781 J6.199953
G02 X-241.582000 Y106.397000 Z-5.250000 I-2.345665 J13.019283
G00 Z5.000000

(End cutting path id: path23635)


(Start cutting path id: path24685)
(Change tool to Default tool)

G00 Z5.000000
G00 X-246.202000 Y106.753000

G01 Z-5.250000 F6000.0(Penetrate)
G01 X-245.491000 Y106.575000 Z-5.250000 F6000.000000
G00 Z5.000000

(End cutting path id: path24685)


(Start cutting path id: path24685)
(Change tool to Default tool)

G00 Z5.000000
G00 X-246.202000 Y106.753000

G01 Z-5.250000 F6000.0(Penetrate)
G01 X-245.491000 Y106.575000 Z-5.250000 F6000.000000
G00 Z5.000000

(End cutting path id: path24685)


(Start cutting path id: path24665)
(Change tool to Default tool)

G00 Z5.000000
G00 X-246.735000 Y106.930000

G01 Z-5.250000 F6000.0(Penetrate)
G01 X-247.446000 Y107.197000 Z-5.250000 F6000.000000
G00 Z5.000000

(End cutting path id: path24665)


(Start cutting path id: path24665)
(Change tool to Default tool)

G00 Z5.000000
G00 X-246.735000 Y106.930000

G01 Z-5.250000 F6000.0(Penetrate)
G01 X-247.446000 Y107.197000 Z-5.250000 F6000.000000
G00 Z5.000000

(End cutting path id: path24665)


(Start cutting path id: path23961)
(Change tool to Default tool)

G00 Z5.000000
G00 X-247.623000 Y103.643000

G01 Z-5.250000 F6000.0(Penetrate)
G01 X-250.288000 Y103.643000 Z-5.250000 F6000.000000
G00 Z5.000000

(End cutting path id: path23961)


(Start cutting path id: path23961)
(Change tool to Default tool)

G00 Z5.000000
G00 X-247.623000 Y103.643000

G01 Z-5.250000 F6000.0(Penetrate)
G01 X-250.288000 Y103.643000 Z-5.250000 F6000.000000
G00 Z5.000000

(End cutting path id: path23961)


(Start cutting path id: path24157)
(Change tool to Default tool)

G00 Z5.000000
G00 X-250.510000 Y104.177000

G01 Z-5.250000 F6000.0(Penetrate)
G03 X-250.488341 Y103.953791 Z-5.250000 I36.645169 J3.443170 F6000.000000
G03 X-250.466000 Y103.732000 Z-5.250000 I180.492892 J18.069146
G00 Z5.000000

(End cutting path id: path24157)


(Start cutting path id: path24157)
(Change tool to Default tool)

G00 Z5.000000
G00 X-250.510000 Y104.177000

G01 Z-5.250000 F6000.0(Penetrate)
G03 X-250.488341 Y103.953791 Z-5.250000 I36.645169 J3.443170 F6000.000000
G03 X-250.466000 Y103.732000 Z-5.250000 I180.492892 J18.069146
G00 Z5.000000

(End cutting path id: path24157)


(Start cutting path id: path24159)
(Change tool to Default tool)

G00 Z5.000000
G00 X-250.111000 Y109.862000

G01 Z-5.250000 F6000.0(Penetrate)
G02 X-249.266465 Y108.884814 Z-5.250000 I-1496.175786 J-1293.923567 F6000.000000
G02 X-248.423000 Y107.908000 Z-5.250000 I-4311.356755 J-3723.679004
G00 Z5.000000

(End cutting path id: path24159)


(Start cutting path id: path24159)
(Change tool to Default tool)

G00 Z5.000000
G00 X-250.111000 Y109.862000

G01 Z-5.250000 F6000.0(Penetrate)
G02 X-249.266465 Y108.884814 Z-5.250000 I-1496.175786 J-1293.923567 F6000.000000
G02 X-248.423000 Y107.908000 Z-5.250000 I-4311.356755 J-3723.679004
G00 Z5.000000

(End cutting path id: path24159)


(Start cutting path id: path23481)
(Change tool to Default tool)

G00 Z5.000000
G00 X-247.801000 Y112.438000

G01 Z-5.250000 F6000.0(Penetrate)
G02 X-247.886481 Y112.263479 Z-5.250000 I-0.726651 J0.247722 F6000.000000
G03 X-247.882000 Y112.178000 Z-5.250000 I0.060278 J-0.039696
G03 X-247.111609 Y111.367363 Z-5.250000 I5.822524 J4.762064
G03 X-246.269000 Y110.730000 Z-5.250000 I3.998731 J4.410757
G03 X-245.329519 Y110.259218 Z-5.250000 I2.941126 J4.696440
G03 X-244.246000 Y109.957000 Z-5.250000 I2.085638 J5.384050
G03 X-243.628366 Y109.894080 Z-5.250000 I0.749998 J4.299284
G02 X-243.004000 Y109.862000 Z-5.250000 I-0.451467 J-14.878586
G00 Z5.000000

(End cutting path id: path23481)


(Start cutting path id: path23481)
(Change tool to Default tool)

G00 Z5.000000
G00 X-247.801000 Y112.438000

G01 Z-5.250000 F6000.0(Penetrate)
G02 X-247.886481 Y112.263479 Z-5.250000 I-0.726651 J0.247722 F6000.000000
G03 X-247.882000 Y112.178000 Z-5.250000 I0.060278 J-0.039696
G03 X-247.111609 Y111.367363 Z-5.250000 I5.822524 J4.762064
G03 X-246.269000 Y110.730000 Z-5.250000 I3.998731 J4.410757
G03 X-245.329519 Y110.259218 Z-5.250000 I2.941126 J4.696440
G03 X-244.246000 Y109.957000 Z-5.250000 I2.085638 J5.384050
G03 X-243.628366 Y109.894080 Z-5.250000 I0.749998 J4.299284
G02 X-243.004000 Y109.862000 Z-5.250000 I-0.451467 J-14.878586
G00 Z5.000000

(End cutting path id: path23481)


(Start cutting path id: path23413)
(Change tool to Default tool)

G00 Z5.000000
G00 X-237.318000 Y111.461000

G01 Z-5.250000 F6000.0(Penetrate)
G03 X-238.418484 Y110.734938 Z-5.250000 I7.928483 J-13.214139 F6000.000000
G02 X-239.551000 Y110.167000 Z-5.250000 I-2.312931 J3.199044
G02 X-241.075082 Y109.724870 Z-5.250000 I-11.612516 J37.182031
G02 X-242.737000 Y109.684000 Z-5.250000 I-0.915419 J3.413998
G00 Z5.000000

(End cutting path id: path23413)


(Start cutting path id: path23413)
(Change tool to Default tool)

G00 Z5.000000
G00 X-237.318000 Y111.461000

G01 Z-5.250000 F6000.0(Penetrate)
G03 X-238.418484 Y110.734938 Z-5.250000 I7.928483 J-13.214139 F6000.000000
G02 X-239.551000 Y110.167000 Z-5.250000 I-2.312931 J3.199044
G02 X-241.075082 Y109.724870 Z-5.250000 I-11.612516 J37.182031
G02 X-242.737000 Y109.684000 Z-5.250000 I-0.915419 J3.413998
G00 Z5.000000

(End cutting path id: path23413)


(Start cutting path id: path22937)
(Change tool to Default tool)

G00 Z5.000000
G00 X-238.828000 Y116.880000

G01 Z-5.250000 F6000.0(Penetrate)
G03 X-239.754205 Y117.931502 Z-5.250000 I-3.577206 J-2.217277 F6000.000000
G03 X-241.045000 Y118.586000 Z-5.250000 I-2.164763 J-2.669230
G03 X-242.528357 Y118.605397 Z-5.250000 I-0.780760 J-2.979015
G03 X-243.626000 Y117.857000 Z-5.250000 I0.420976 J-1.796561
G03 X-244.068671 Y116.437951 Z-5.250000 I2.057777 J-1.420492
G03 X-243.625000 Y115.193000 Z-5.250000 I1.965335 J-0.001134
G03 X-242.942188 Y114.676053 Z-5.250000 I1.400193 J1.140032
G03 X-242.119000 Y114.588000 Z-5.250000 I0.552908 J1.277087
G03 X-241.547511 Y114.794257 Z-5.250000 I-0.394777 J1.988689
G02 X-240.915000 Y115.106000 Z-5.250000 I4.327558 J-7.982869
G02 X-241.312904 Y115.952373 Z-5.250000 I607.604176 J286.162772
G03 X-241.582000 Y116.525000 Z-5.250000 I-533.754515 J-250.472847
G00 Z5.000000

(End cutting path id: path22937)


(Start cutting path id: path22937)
(Change tool to Default tool)

G00 Z5.000000
G00 X-238.828000 Y116.880000

G01 Z-5.250000 F6000.0(Penetrate)
G03 X-239.754205 Y117.931502 Z-5.250000 I-3.577206 J-2.217277 F6000.000000
G03 X-241.045000 Y118.586000 Z-5.250000 I-2.164763 J-2.669230
G03 X-242.528357 Y118.605397 Z-5.250000 I-0.780760 J-2.979015
G03 X-243.626000 Y117.857000 Z-5.250000 I0.420976 J-1.796561
G03 X-244.068671 Y116.437951 Z-5.250000 I2.057777 J-1.420492
G03 X-243.625000 Y115.193000 Z-5.250000 I1.965335 J-0.001134
G03 X-242.942188 Y114.676053 Z-5.250000 I1.400193 J1.140032
G03 X-242.119000 Y114.588000 Z-5.250000 I0.552908 J1.277087
G03 X-241.547511 Y114.794257 Z-5.250000 I-0.394777 J1.988689
G02 X-240.915000 Y115.106000 Z-5.250000 I4.327558 J-7.982869
G02 X-241.312904 Y115.952373 Z-5.250000 I607.604176 J286.162772
G03 X-241.582000 Y116.525000 Z-5.250000 I-533.754515 J-250.472847
G00 Z5.000000

(End cutting path id: path22937)


(Start cutting path id: path23457)
(Change tool to Default tool)

G00 Z5.000000
G00 X-241.671000 Y121.944000

G01 Z-5.250000 F6000.0(Penetrate)
G03 X-241.943719 Y121.829967 Z-5.250000 I0.612636 J-1.848290 F6000.000000
G02 X-242.204000 Y121.776000 Z-5.250000 I-0.228565 J0.447720
G03 X-243.216085 Y121.504705 Z-5.250000 I-0.106708 J-1.625392
G03 X-244.025000 Y120.733000 Z-5.250000 I1.810048 J-2.707137
G02 X-244.815026 Y119.805576 Z-5.250000 I-7.183732 J5.319252
G02 X-245.725000 Y119.013000 Z-5.250000 I-5.368591 J5.245135
G02 X-246.729335 Y118.393927 Z-5.250000 I-4.154123 J5.615107
G02 X-247.887000 Y117.936000 Z-5.250000 I-3.083508 J6.102996
G03 X-248.380861 Y117.682025 Z-5.250000 I0.410026 J-1.404455
G02 X-248.532000 Y117.580000 Z-5.250000 I-0.781286 J0.994432
G02 X-248.721569 Y116.385635 Z-5.250000 I-567.763831 J89.503084
G03 X-248.866000 Y115.459000 Z-5.250000 I120.678320 J-19.284200
G03 X-248.902763 Y114.875756 Z-5.250000 I3.286251 J-0.499922
G03 X-248.649000 Y114.177000 Z-5.250000 I1.169679 J0.029329
G02 X-248.394649 Y113.416664 Z-5.250000 I-0.920765 J-0.730730
G03 X-248.334000 Y112.438000 Z-5.250000 I5.635422 J-0.141978
G00 Z5.000000

(End cutting path id: path23457)


(Start cutting path id: path23457)
(Change tool to Default tool)

G00 Z5.000000
G00 X-241.671000 Y121.944000

G01 Z-5.250000 F6000.0(Penetrate)
G03 X-241.943719 Y121.829967 Z-5.250000 I0.612636 J-1.848290 F6000.000000
G02 X-242.204000 Y121.776000 Z-5.250000 I-0.228565 J0.447720
G03 X-243.216085 Y121.504705 Z-5.250000 I-0.106708 J-1.625392
G03 X-244.025000 Y120.733000 Z-5.250000 I1.810048 J-2.707137
G02 X-244.815026 Y119.805576 Z-5.250000 I-7.183732 J5.319252
G02 X-245.725000 Y119.013000 Z-5.250000 I-5.368591 J5.245135
G02 X-246.729335 Y118.393927 Z-5.250000 I-4.154123 J5.615107
G02 X-247.887000 Y117.936000 Z-5.250000 I-3.083508 J6.102996
G03 X-248.380861 Y117.682025 Z-5.250000 I0.410026 J-1.404455
G02 X-248.532000 Y117.580000 Z-5.250000 I-0.781286 J0.994432
G02 X-248.721569 Y116.385635 Z-5.250000 I-567.763831 J89.503084
G03 X-248.866000 Y115.459000 Z-5.250000 I120.678320 J-19.284200
G03 X-248.902763 Y114.875756 Z-5.250000 I3.286251 J-0.499922
G03 X-248.649000 Y114.177000 Z-5.250000 I1.169679 J0.029329
G02 X-248.394649 Y113.416664 Z-5.250000 I-0.920765 J-0.730730
G03 X-248.334000 Y112.438000 Z-5.250000 I5.635422 J-0.141978
G00 Z5.000000

(End cutting path id: path23457)


(Start cutting path id: path23195)
(Change tool to Default tool)

G00 Z5.000000
G00 X-248.778000 Y117.502000

G01 Z-5.250000 F6000.0(Penetrate)
G02 X-249.940037 Y117.308118 Z-5.250000 I-2797.865251 J16764.143129 F6000.000000
G02 X-251.087000 Y117.117000 Z-5.250000 I-541.977385 J3249.101780
G03 X-251.453076 Y115.209051 Z-5.250000 I17.131615 J-4.276116
G03 X-251.512000 Y113.426000 Z-5.250000 I8.724767 J-1.180825
G03 X-251.174775 Y111.712386 Z-5.250000 I6.973469 J0.482332
G03 X-250.288000 Y109.951000 Z-5.250000 I6.397626 J2.116987
G00 Z5.000000

(End cutting path id: path23195)


(Start cutting path id: path23195)
(Change tool to Default tool)

G00 Z5.000000
G00 X-248.778000 Y117.502000

G01 Z-5.250000 F6000.0(Penetrate)
G02 X-249.940037 Y117.308118 Z-5.250000 I-2797.865251 J16764.143129 F6000.000000
G02 X-251.087000 Y117.117000 Z-5.250000 I-541.977385 J3249.101780
G03 X-251.453076 Y115.209051 Z-5.250000 I17.131615 J-4.276116
G03 X-251.512000 Y113.426000 Z-5.250000 I8.724767 J-1.180825
G03 X-251.174775 Y111.712386 Z-5.250000 I6.973469 J0.482332
G03 X-250.288000 Y109.951000 Z-5.250000 I6.397626 J2.116987
G00 Z5.000000

(End cutting path id: path23195)


(Start cutting path id: path24575)
(Change tool to Default tool)

G00 Z5.000000
G00 X-255.263000 Y111.372000

G01 Z-5.250000 F6000.0(Penetrate)
G03 X-255.174446 Y110.839800 Z-5.250000 I1396.391525 J232.076288 F6000.000000
G03 X-255.085000 Y110.306000 Z-5.250000 I281.409228 J46.879648
G00 Z5.000000

(End cutting path id: path24575)


(Start cutting path id: path24575)
(Change tool to Default tool)

G00 Z5.000000
G00 X-255.263000 Y111.372000

G01 Z-5.250000 F6000.0(Penetrate)
G03 X-255.174446 Y110.839800 Z-5.250000 I1396.391525 J232.076288 F6000.000000
G03 X-255.085000 Y110.306000 Z-5.250000 I281.409228 J46.879648
G00 Z5.000000

(End cutting path id: path24575)


(Start cutting path id: path24681)
(Change tool to Default tool)

G00 Z5.000000
G00 X-256.685000 Y109.329000

G01 Z-5.250000 F6000.0(Penetrate)
G01 X-257.839000 Y109.329000 Z-5.250000 F6000.000000
G00 Z5.000000

(End cutting path id: path24681)


(Start cutting path id: path24681)
(Change tool to Default tool)

G00 Z5.000000
G00 X-256.685000 Y109.329000

G01 Z-5.250000 F6000.0(Penetrate)
G01 X-257.839000 Y109.329000 Z-5.250000 F6000.000000
G00 Z5.000000

(End cutting path id: path24681)


(Start cutting path id: path23051)
(Change tool to Default tool)

G00 Z5.000000
G00 X-258.994000 Y104.976000

G01 Z-5.250000 F6000.0(Penetrate)
G02 X-258.954722 Y104.775477 Z-5.250000 I-0.801066 J-0.261021 F6000.000000
G03 X-258.904000 Y104.720000 Z-5.250000 I0.060461 J0.004353
G02 X-257.837906 Y104.364264 Z-5.250000 I-0.615365 J-3.619506
G03 X-256.819000 Y103.855000 Z-5.250000 I21.335948 J41.413817
G03 X-255.824722 Y103.485051 Z-5.250000 I2.470358 J5.118274
G03 X-254.635000 Y103.433000 Z-5.250000 I0.711786 J2.646496
G02 X-253.101833 Y103.513864 Z-5.250000 I1.091668 J-6.123096
G03 X-251.532000 Y103.474000 Z-5.250000 I1.221185 J17.160131
G03 X-251.089435 Y103.538026 Z-5.250000 I-0.036668 J1.815042
G02 X-250.644000 Y103.644000 Z-5.250000 I1.800214 J-6.577603
G00 Z5.000000

(End cutting path id: path23051)


(Start cutting path id: path23051)
(Change tool to Default tool)

G00 Z5.000000
G00 X-258.994000 Y104.976000

G01 Z-5.250000 F6000.0(Penetrate)
G02 X-258.954722 Y104.775477 Z-5.250000 I-0.801066 J-0.261021 F6000.000000
G03 X-258.904000 Y104.720000 Z-5.250000 I0.060461 J0.004353
G02 X-257.837906 Y104.364264 Z-5.250000 I-0.615365 J-3.619506
G03 X-256.819000 Y103.855000 Z-5.250000 I21.335948 J41.413817
G03 X-255.824722 Y103.485051 Z-5.250000 I2.470358 J5.118274
G03 X-254.635000 Y103.433000 Z-5.250000 I0.711786 J2.646496
G02 X-253.101833 Y103.513864 Z-5.250000 I1.091668 J-6.123096
G03 X-251.532000 Y103.474000 Z-5.250000 I1.221185 J17.160131
G03 X-251.089435 Y103.538026 Z-5.250000 I-0.036668 J1.815042
G02 X-250.644000 Y103.644000 Z-5.250000 I1.800214 J-6.577603
G00 Z5.000000

(End cutting path id: path23051)


(Start cutting path id: path23853)
(Change tool to Default tool)

G00 Z5.000000
G00 X-255.085000 Y115.459000

G01 Z-5.250000 F6000.0(Penetrate)
G01 X-255.441000 Y112.438000 Z-5.250000 F6000.000000
G00 Z5.000000

(End cutting path id: path23853)


(Start cutting path id: path23853)
(Change tool to Default tool)

G00 Z5.000000
G00 X-255.085000 Y115.459000

G01 Z-5.250000 F6000.0(Penetrate)
G01 X-255.441000 Y112.438000 Z-5.250000 F6000.000000
G00 Z5.000000

(End cutting path id: path23853)


(Start cutting path id: path23893)
(Change tool to Default tool)

G00 Z5.000000
G00 X-258.017000 Y115.192000

G01 Z-5.250000 F6000.0(Penetrate)
G02 X-258.115037 Y113.948546 Z-5.250000 I-81.538423 J5.803096 F6000.000000
G03 X-258.183000 Y112.705000 Z-5.250000 I19.567093 J-1.693024
G03 X-258.157597 Y112.065340 Z-5.250000 I5.011010 J-0.121332
G03 X-257.998000 Y111.470000 Z-5.250000 I1.944170 J0.202125
G02 X-257.870976 Y110.576551 Z-5.250000 I-1.490803 J-0.667705
G02 X-258.106000 Y109.773000 Z-5.250000 I-2.851629 J0.397903
G00 Z5.000000

(End cutting path id: path23893)


(Start cutting path id: path23893)
(Change tool to Default tool)

G00 Z5.000000
G00 X-258.017000 Y115.192000

G01 Z-5.250000 F6000.0(Penetrate)
G02 X-258.115037 Y113.948546 Z-5.250000 I-81.538423 J5.803096 F6000.000000
G03 X-258.183000 Y112.705000 Z-5.250000 I19.567093 J-1.693024
G03 X-258.157597 Y112.065340 Z-5.250000 I5.011010 J-0.121332
G03 X-257.998000 Y111.470000 Z-5.250000 I1.944170 J0.202125
G02 X-257.870976 Y110.576551 Z-5.250000 I-1.490803 J-0.667705
G02 X-258.106000 Y109.773000 Z-5.250000 I-2.851629 J0.397903
G00 Z5.000000

(End cutting path id: path23893)


(Start cutting path id: path24645)
(Change tool to Default tool)

G00 Z5.000000
G00 X-257.395000 Y116.347000

G01 Z-5.250000 F6000.0(Penetrate)
G01 X-257.839000 Y115.459000 Z-5.250000 F6000.000000
G00 Z5.000000

(End cutting path id: path24645)


(Start cutting path id: path24645)
(Change tool to Default tool)

G00 Z5.000000
G00 X-257.395000 Y116.347000

G01 Z-5.250000 F6000.0(Penetrate)
G01 X-257.839000 Y115.459000 Z-5.250000 F6000.000000
G00 Z5.000000

(End cutting path id: path24645)


(Start cutting path id: path24025)
(Change tool to Default tool)

G00 Z5.000000
G00 X-253.664000 Y117.058000

G01 Z-5.250000 F6000.0(Penetrate)
G03 X-254.910565 Y117.086209 Z-5.250000 I-1.765997 J-50.483156 F6000.000000
G02 X-256.150000 Y117.161000 Z-5.250000 I0.127769 J12.424703
G02 X-257.218246 Y117.350081 Z-5.250000 I0.935900 J8.399703
G03 X-258.284000 Y117.591000 Z-5.250000 I-7.580030 J-31.054014
G00 Z5.000000

(End cutting path id: path24025)


(Start cutting path id: path24025)
(Change tool to Default tool)

G00 Z5.000000
G00 X-253.664000 Y117.058000

G01 Z-5.250000 F6000.0(Penetrate)
G03 X-254.910565 Y117.086209 Z-5.250000 I-1.765997 J-50.483156 F6000.000000
G02 X-256.150000 Y117.161000 Z-5.250000 I0.127769 J12.424703
G02 X-257.218246 Y117.350081 Z-5.250000 I0.935900 J8.399703
G03 X-258.284000 Y117.591000 Z-5.250000 I-7.580030 J-31.054014
G00 Z5.000000

(End cutting path id: path24025)


(Start cutting path id: path23571)
(Change tool to Default tool)

G00 Z5.000000
G00 X-262.903000 Y119.812000

G01 Z-5.250000 F6000.0(Penetrate)
G02 X-261.706468 Y119.184287 Z-5.250000 I-76.034699 J-146.389697 F6000.000000
G03 X-260.502000 Y118.574000 Z-5.250000 I17.315267 J32.679884
G03 X-259.575999 Y118.160715 Z-5.250000 I6.927770 J14.278251
