%
(Header)
(Generated by gcodetools from Inkscape.)
(Using default header. To add your own header create file "header" in the output dir.)
M3
(Header end.)
G21 (All units in mm)

(Start cutting path id: path49)
(Change tool to Default tool)

G00 Z5.000000
G00 X-269.659670 Y44.408300

G01 Z-5.250000 F6000.0(Penetrate)
G01 X-269.659670 Y44.408300 Z-5.250000 F6000.000000
G00 Z5.000000

(End cutting path id: path49)


(Start cutting path id: path49)
(Change tool to Default tool)

G00 Z5.000000
G00 X-269.659670 Y44.408300

G01 Z-5.250000 F6000.0(Penetrate)
G01 X-269.659670 Y44.408300 Z-5.250000 F6000.000000
G00 Z5.000000

(End cutting path id: path49)


(Start cutting path id: path49)
(Change tool to Default tool)

G00 Z5.000000
G00 X-267.825640 Y46.489500

G01 Z-5.250000 F6000.0(Penetrate)
G01 X-267.825640 Y46.489500 Z-5.250000 F6000.000000
G00 Z5.000000

(End cutting path id: path49)


(Start cutting path id: path49)
(Change tool to Default tool)

G00 Z5.000000
G00 X-267.825640 Y46.489500

G01 Z-5.250000 F6000.0(Penetrate)
G01 X-267.825640 Y46.489500 Z-5.250000 F6000.000000
G00 Z5.000000

(End cutting path id: path49)


(Start cutting path id: path47)
(Change tool to Default tool)

G00 Z5.000000
G00 X-165.471000 Y220.195000

G01 Z-5.250000 F6000.0(Penetrate)
G03 X-163.995266 Y220.395066 Z-5.250000 I-5.048369 J42.780575 F6000.000000
G02 X-162.523000 Y220.520000 Z-5.250000 I1.661805 J-10.846014
G02 X-160.977821 Y220.452628 Z-5.250000 I0.221478 J-12.673436
G03 X-159.429000 Y220.312000 Z-5.250000 I5.770365 J54.953186
G02 X-158.871555 Y220.263368 Z-5.250000 I-2.358061 J-30.248230
G02 X-158.315000 Y220.208000 Z-5.250000 I-9.223643 J-95.540984
G02 X-156.881625 Y219.983951 Z-5.250000 I-1.397963 J-13.640733
G02 X-155.514000 Y219.613000 Z-5.250000 I-2.573180 J-12.193367
G02 X-154.198050 Y219.087266 Z-5.250000 I-3.817643 J-11.465655
G02 X-152.924000 Y218.392000 Z-5.250000 I-5.073868 J-10.812644
G02 X-151.851905 Y217.672649 Z-5.250000 I-10.826879 J-17.294577
G02 X-150.845000 Y216.883000 Z-5.250000 I-8.796317 J-12.253236
G02 X-149.915664 Y216.009785 Z-5.250000 I-8.685129 J-10.174456
G02 X-149.070000 Y215.030000 Z-5.250000 I-8.195243 J-7.928256
G02 X-148.573883 Y214.265909 Z-5.250000 I-4.627057 J-3.547411
G02 X-148.153000 Y213.450000 Z-5.250000 I-18.826930 J-10.228301
G02 X-148.118279 Y212.591695 Z-5.250000 I-0.964332 J-0.468865
G02 X-148.575000 Y212.008000 Z-5.250000 I-1.198331 J0.467121
G02 X-149.268407 Y211.875477 Z-5.250000 I-0.493620 J0.702460
G02 X-149.967000 Y212.278000 Z-5.250000 I0.330413 J1.380923
G02 X-150.975972 Y213.355952 Z-5.250000 I74.900703 J71.118901
G03 X-152.018000 Y214.394000 Z-5.250000 I-12.841569 J-11.848762
G03 X-152.829404 Y215.089946 Z-5.250000 I-10.975100 J-11.974903
G03 X-153.682000 Y215.715000 Z-5.250000 I-7.617828 J-9.496972
G03 X-154.575343 Y216.251165 Z-5.250000 I-5.998914 J-8.982910
G03 X-155.558000 Y216.711000 Z-5.250000 I-4.696306 J-8.756020
G03 X-156.992911 Y217.219409 Z-5.250000 I-6.792892 J-16.892850
G03 X-158.428000 Y217.588000 Z-5.250000 I-4.611963 J-14.978394
G03 X-159.895905 Y217.816980 Z-5.250000 I-3.042882 J-14.687179
G03 X-161.411000 Y217.896000 Z-5.250000 I-1.501039 J-14.215912
G03 X-162.402667 Y217.851356 Z-5.250000 I-0.000000 J-11.036152
G03 X-163.373000 Y217.716000 Z-5.250000 I0.905646 J-10.038067
G03 X-164.319542 Y217.490041 Z-5.250000 I1.831193 J-9.766360
G03 X-165.265000 Y217.163000 Z-5.250000 I2.814606 J-9.667040
G02 X-165.755029 Y217.177693 Z-5.250000 I-0.228250 J0.566474
G02 X-166.342000 Y217.512000 Z-5.250000 I1.938678 J4.086352
G02 X-167.347004 Y218.254817 Z-5.250000 I7.900842 J11.740821
G03 X-168.332000 Y219.030000 Z-5.250000 I-28.352055 J-35.012510
G03 X-169.183657 Y219.653823 Z-5.250000 I-15.287441 J-19.977499
G03 X-170.066000 Y220.207000 Z-5.250000 I-5.836901 J-8.329848
G03 X-170.999539 Y220.649802 Z-5.250000 I-3.794468 J-6.794225
G03 X-172.020000 Y220.945000 Z-5.250000 I-2.061327 J-5.214347
G03 X-172.951256 Y221.044491 Z-5.250000 I-1.075226 J-5.656231
G03 X-173.896000 Y220.669000 Z-5.250000 I-0.032386 J-1.294760
G03 X-174.124763 Y220.299932 Z-5.250000 I0.653613 J-0.660567
G03 X-174.191000 Y219.852000 Z-5.250000 I1.254166 J-0.414322
G03 X-174.007593 Y219.509741 Z-5.250000 I0.430466 J0.010404
G03 X-173.547000 Y219.382000 Z-5.250000 I0.410537 J0.586018
G02 X-172.269895 Y219.305286 Z-5.250000 I0.347379 J-4.885713
G02 X-171.144000 Y218.965000 Z-5.250000 I-1.090639 J-5.641316
G02 X-170.068035 Y218.408704 Z-5.250000 I-2.819102 J-6.771283
G02 X-169.039000 Y217.704000 Z-5.250000 I-8.153137 J-13.009184
G02 X-167.908944 Y216.746251 Z-5.250000 I-7.175395 J-9.611861
G02 X-166.865000 Y215.687000 Z-5.250000 I-18.501611 J-19.278308
G03 X-166.012863 Y215.188174 Z-5.250000 I1.262646 J1.179698
G03 X-165.174000 Y215.302000 Z-5.250000 I0.274728 J1.123331
G02 X-163.872143 Y215.858873 Z-5.250000 I3.279680 J-5.867061
G02 X-162.590000 Y216.131000 Z-5.250000 I2.156715 J-7.004971
G02 X-161.252539 Y216.188084 Z-5.250000 I1.039342 J-8.654705
G02 X-159.866000 Y216.073000 Z-5.250000 I-0.489684 J-14.309788
G03 X-158.435094 Y215.901431 Z-5.250000 I8.323349 J63.364851
G02 X-157.056000 Y215.597000 Z-5.250000 I-0.698758 J-6.441342
G02 X-155.779250 Y215.027480 Z-5.250000 I-2.425170 J-7.152614
G02 X-154.596000 Y214.260000 Z-5.250000 I-5.478036 J-9.741545
G02 X-153.799227 Y213.645228 Z-5.250000 I-16.826501 J-22.631643
G02 X-153.022000 Y213.000000 Z-5.250000 I-17.677998 J-22.085238
G02 X-152.268533 Y212.327726 Z-5.250000 I-18.515633 J-21.510189
G02 X-151.542000 Y211.632000 Z-5.250000 I-19.583034 J-21.177408
G02 X-150.947808 Y210.831494 Z-5.250000 I-2.349443 J-2.364699
G02 X-150.499000 Y209.904000 Z-5.250000 I-12.052246 J-6.404340
G02 X-150.490939 Y209.282394 Z-5.250000 I-0.731956 J-0.320347
G02 X-150.937000 Y208.890000 Z-5.250000 I-0.616348 J0.250914
G02 X-151.607406 Y208.831819 Z-5.250000 I-0.501616 J1.888437
G02 X-152.187000 Y209.054000 Z-5.250000 I0.097160 J1.120528
G02 X-153.355841 Y210.067260 Z-5.250000 I6.791013 J9.014522
G03 X-154.505000 Y211.115000 Z-5.250000 I-12.599543 J-12.665087
G03 X-155.347463 Y211.785918 Z-5.250000 I-15.644669 J-18.780420
G03 X-156.228000 Y212.364000 Z-5.250000 I-4.589037 J-6.030379
G03 X-157.159914 Y212.780952 Z-5.250000 I-2.743157 J-4.881206
G03 X-158.244000 Y213.005000 Z-5.250000 I-1.429208 J-4.180649
G02 X-159.850514 Y213.171585 Z-5.250000 I2.384285 J30.823351
G03 X-161.456000 Y213.360000 Z-5.250000 I-8.263610 J-63.479901
G03 X-162.464155 Y213.232155 Z-5.250000 I-0.230408 J-2.222019
G03 X-163.333000 Y212.772000 Z-5.250000 I1.305638 J-3.515582
G03 X-163.601703 Y212.440995 Z-5.250000 I0.465698 J-0.652610
G03 X-163.685000 Y212.014000 Z-5.250000 I0.912633 J-0.399656
G03 X-163.547637 Y211.792690 Z-5.250000 I0.256812 J0.006115
G03 X-163.030000 Y211.671000 Z-5.250000 I0.494426 J0.941363
G03 X-161.559169 Y211.761440 Z-5.250000 I-0.394247 J18.416958
G02 X-160.090000 Y211.833000 Z-5.250000 I1.412237 J-13.876845
G02 X-158.946628 Y211.718588 Z-5.250000 I-0.023236 J-6.002536
G02 X-157.886000 Y211.419000 Z-5.250000 I-1.345289 J-6.789969
G02 X-156.870902 Y210.960280 Z-5.250000 I-2.805527 J-7.560842
G02 X-155.894000 Y210.371000 Z-5.250000 I-5.491716 J-10.208495
G02 X-154.831700 Y209.599023 Z-5.250000 I-9.828826 J-14.642119
G02 X-153.841000 Y208.741000 Z-5.250000 I-8.418756 J-10.721512
G02 X-153.387797 Y208.152851 Z-5.250000 I-1.673651 J-1.758330
G02 X-153.047000 Y207.462000 Z-5.250000 I-7.548950 J-4.153382
G02 X-152.889472 Y206.727823 Z-5.250000 I-1.711562 J-0.751229
G02 X-153.244000 Y206.184000 Z-5.250000 I-0.586156 J-0.005348
G02 X-154.050880 Y206.019839 Z-5.250000 I-0.798744 J1.860904
G02 X-154.789000 Y206.242000 Z-5.250000 I0.005445 J1.355354
G02 X-155.950831 Y207.017823 Z-5.250000 I45.014710 J68.669499
G03 X-157.120000 Y207.778000 Z-5.250000 I-18.890819 J-27.775297
G03 X-158.325947 Y208.470390 Z-5.250000 I-10.265660 J-16.483478
G03 X-159.605000 Y209.044000 Z-5.250000 I-5.128616 J-9.723093
G03 X-160.377522 Y209.162608 Z-5.250000 I-0.672058 J-1.802168
G03 X-161.210000 Y209.112000 Z-5.250000 I2.574343 J-49.219324
G03 X-161.468494 Y208.984240 Z-5.250000 I0.025906 J-0.377797
G03 X-161.687000 Y208.683000 Z-5.250000 I1.494419 J-1.313853
G03 X-161.679329 Y208.552674 Z-5.250000 I0.101050 J-0.059441
G03 X-161.342000 Y208.287000 Z-5.250000 I0.679575 J0.515872
G03 X-160.279855 Y207.843685 Z-5.250000 I12.041964 J27.357471
G03 X-159.209000 Y207.423000 Z-5.250000 I116.431524 J294.803393
G02 X-158.246185 Y207.034162 Z-5.250000 I-15.473307 J-39.700437
G02 X-157.328000 Y206.590000 Z-5.250000 I-3.608465 J-8.630658
G02 X-156.493412 Y206.040217 Z-5.250000 I-3.166722 J-5.715547
G02 X-155.737000 Y205.303000 Z-5.250000 I-2.855521 J-3.686529
G02 X-155.306382 Y204.279637 Z-5.250000 I-1.524289 J-1.243682
G02 X-155.549000 Y203.482000 Z-5.250000 I-1.045208 J-0.117795
G02 X-156.226166 Y203.150061 Z-5.250000 I-0.718974 J0.610038
G02 X-157.285000 Y203.433000 Z-5.250000 I-0.080793 J1.820340
G02 X-157.978500 Y203.901000 Z-5.250000 I8.302849 J13.051301
G03 X-158.672000 Y204.369000 Z-5.250000 I-8.996349 J-12.583301
G03 X-158.997417 Y204.536635 Z-5.250000 I-1.090222 J-1.716694
G02 X-159.391000 Y204.707000 Z-5.250000 I3.515196 J8.660745
G03 X-159.468179 Y204.051048 Z-5.250000 I1.122323 J-0.464568
G03 X-159.215000 Y203.517000 Z-5.250000 I1.039788 J0.165901
G02 X-158.841271 Y203.000924 Z-5.250000 I-2.383028 J-2.119085
G03 X-158.473000 Y202.477000 Z-5.250000 I3.223286 J1.874288
G02 X-158.274326 Y201.798480 Z-5.250000 I-0.672036 J-0.565121
G02 X-158.539000 Y201.272000 Z-5.250000 I-0.885318 J0.115301
G02 X-158.977190 Y200.998227 Z-5.250000 I-0.864425 J0.896002
G02 X-159.494000 Y200.922000 Z-5.250000 I-0.443586 J1.217394
G02 X-160.568589 Y201.335406 Z-5.250000 I0.100261 J1.863936
G02 X-161.310000 Y202.149000 Z-5.250000 I2.302648 J2.842966
G02 X-161.841507 Y203.157143 Z-5.250000 I4.567355 J3.052153
G03 X-162.332000 Y204.203000 Z-5.250000 I-9.366254 J-3.754704
G03 X-162.806706 Y205.072065 Z-5.250000 I-97.637522 J-52.767955
G03 X-163.290000 Y205.938000 Z-5.250000 I-93.301503 J-51.505451
G03 X-163.779628 Y206.798665 Z-5.250000 I-105.147556 J-59.248362
G03 X-164.277000 Y207.656000 Z-5.250000 I-98.803477 J-56.746593
G03 X-165.069557 Y208.975500 Z-5.250000 I-58.530683 J-34.258637
G03 X-165.901000 Y210.270000 Z-5.250000 I-35.041573 J-21.592559
G03 X-166.575700 Y211.214249 Z-5.250000 I-14.898186 J-9.932124
G03 X-167.302000 Y212.113000 Z-5.250000 I-17.098883 J-13.075123
G03 X-168.072673 Y212.971058 Z-5.250000 I-17.835733 J-15.244216
G03 X-168.887000 Y213.801000 Z-5.250000 I-21.659420 J-20.437428
G03 X-170.274465 Y214.981022 Z-5.250000 I-9.133453 J-9.333379
G03 X-171.904000 Y215.786000 Z-5.250000 I-3.075986 J-4.174944
G03 X-172.339259 Y215.834479 Z-5.250000 I-0.356671 J-1.224131
G02 X-172.798000 Y215.828000 Z-5.250000 I-0.297437 J4.816510
G02 X-172.731929 Y215.246777 Z-5.250000 I-3.996689 J-0.748691
G03 X-172.570000 Y214.756000 Z-5.250000 I0.942428 J0.038847
G03 X-172.111485 Y214.299086 Z-5.250000 I1.420820 J0.967281
G02 X-171.567000 Y213.883000 Z-5.250000 I-3.292314 J-4.872573
G02 X-170.385915 Y212.853048 Z-5.250000 I-80.613045 J-93.634242
G02 X-169.247000 Y211.784000 Z-5.250000 I-17.081497 J-19.339039
G02 X-168.193513 Y210.641894 Z-5.250000 I-12.939899 J-12.992787
G02 X-167.257000 Y209.377000 Z-5.250000 I-9.194741 J-7.786817
G02 X-166.555182 Y208.262801 Z-5.250000 I-56.610140 J-36.436066
G02 X-165.871000 Y207.136000 Z-5.250000 I-84.557557 J-52.113571
G02 X-165.199797 Y206.001618 Z-5.250000 I-118.673998 J-70.984049
G02 X-164.537000 Y204.863000 Z-5.250000 I-240.616804 J-140.826808
G02 X-163.719023 Y203.375350 Z-5.250000 I-33.041708 J-19.136515
G02 X-162.945000 Y201.866000 Z-5.250000 I-113.249227 J-59.029503
G02 X-162.800301 Y201.442942 Z-5.250000 I-1.460670 J-0.735868
G02 X-162.715000 Y200.990000 Z-5.250000 I-35.940622 J-7.003110
G03 X-162.526586 Y200.011289 Z-5.250000 I62.033637 J11.434772
G02 X-162.402000 Y199.031000 Z-5.250000 I-6.764586 J-1.357778
G02 X-162.736234 Y197.990208 Z-5.250000 I-1.523053 J-0.084959
G02 X-163.566000 Y197.562000 Z-5.250000 I-0.897952 J0.721970
G02 X-164.407062 Y197.777935 Z-5.250000 I-0.082138 J1.426001
G02 X-165.066000 Y198.344000 Z-5.250000 I1.548761 J2.469420
G02 X-165.773097 Y199.400159 Z-5.250000 I3.987751 J3.434573
G02 X-166.305000 Y200.571000 Z-5.250000 I13.501303 J6.839769
G03 X-166.841833 Y201.821374 Z-5.250000 I-31.021737 J-12.578374
G03 X-167.412000 Y203.059000 Z-5.250000 I-106.129756 J-48.143227
G02 X-167.987815 Y204.293745 Z-5.250000 I370.792969 J173.668240
G02 X-168.541000 Y205.538000 Z-5.250000 I37.770655 J17.537624
G03 X-169.278369 Y206.945366 Z-5.250000 I-9.046413 J-3.842887
G03 X-170.171000 Y208.196000 Z-5.250000 I-11.528802 J-7.284728
G03 X-171.196012 Y209.368583 Z-5.250000 I-13.995412 J-11.199781
G03 X-172.296000 Y210.488000 Z-5.250000 I-38.265171 J-36.500850
G03 X-173.601441 Y211.658815 Z-5.250000 I-13.085954 J-13.277456
G02 X-174.934000 Y212.804000 Z-5.250000 I21.450945 J26.308621
G02 X-175.630684 Y213.690622 Z-5.250000 I2.238327 J2.475847
G02 X-175.922000 Y214.911000 Z-5.250000 I2.130249 J1.153470
G03 X-175.981548 Y216.317339 Z-5.250000 I-10.088310 J0.277269
G03 X-176.220000 Y217.596000 Z-5.250000 I-8.951815 J-1.007825
G03 X-176.660180 Y218.870345 Z-5.250000 I-8.576305 J-2.249202
G03 X-177.289000 Y220.076000 Z-5.250000 I-8.666032 J-3.753036
G03 X-178.042174 Y221.140120 Z-5.250000 I-8.661734 J-5.332089
G03 X-178.987000 Y222.183000 Z-5.250000 I-9.767133 J-7.899368
G03 X-180.388016 Y223.221475 Z-5.250000 I-4.339950 J-4.390769
G03 X-181.921000 Y223.935000 Z-5.250000 I-6.653792 J-12.291893
G03 X-183.621608 Y224.322532 Z-5.250000 I-2.118279 J-5.370488
G03 X-185.318000 Y224.429000 Z-5.250000 I-6.318443 J-87.106337
G02 X-186.386902 Y224.488332 Z-5.250000 I13.389800 J250.882575
G02 X-187.457000 Y224.565000 Z-5.250000 I2.214279 J38.412345
G02 X-188.524264 Y224.675299 Z-5.250000 I2.364360 J28.096476
G02 X-189.579000 Y224.837000 Z-5.250000 I2.156481 J17.586912
G02 X-190.901822 Y225.283393 Z-5.250000 I0.887743 J4.813893
G03 X-192.223000 Y225.836000 Z-5.250000 I-4.470664 J-8.832862
G02 X-193.177931 Y226.162639 Z-5.250000 I29.349376 J87.362394
G03 X-194.138000 Y226.483000 Z-5.250000 I-12.813542 J-36.801249
G03 X-195.112218 Y226.770604 Z-5.250000 I-6.999016 J-21.914396
G03 X-196.095000 Y226.995000 Z-5.250000 I-3.260059 J-12.013649
G02 X-197.276401 Y227.218518 Z-5.250000 I25.204488 J136.451884
G03 X-198.472000 Y227.409000 Z-5.250000 I-3.454421 J-17.834917
G03 X-199.668031 Y227.494393 Z-5.250000 I-1.397009 J-11.148135
G03 X-200.878000 Y227.406000 Z-5.250000 I-0.119649 J-6.687697
G03 X-202.469599 Y227.058372 Z-5.250000 I2.545321 J-15.471004
G03 X-204.032000 Y226.357000 Z-5.250000 I1.464149 J-5.352502
G02 X-205.457845 Y225.578511 Z-5.250000 I-5.711890 J8.766636
G02 X-206.970000 Y224.950000 Z-5.250000 I-11.924110 J26.555279
G02 X-207.504183 Y224.967554 Z-5.250000 I-0.246260 J0.642680
G03 X-208.147000 Y225.128000 Z-5.250000 I-0.745349 J-1.618272
G02 X-209.542321 Y225.221409 Z-5.250000 I4.257868 J74.070838
G03 X-210.912000 Y225.174000 Z-5.250000 I-0.471908 J-6.175374
G03 X-211.692545 Y224.852857 Z-5.250000 I0.252651 J-1.723212
G03 X-212.386000 Y224.243000 Z-5.250000 I3.178938 J-4.313885
G03 X-212.338385 Y223.854390 Z-5.250000 I0.182379 J-0.174876
G03 X-211.982000 Y223.750000 Z-5.250000 I0.361349 J0.573093
G03 X-211.231790 Y223.796161 Z-5.250000 I0.061447 J5.120605
G02 X-210.480000 Y223.856000 Z-5.250000 I0.914624 J-6.738478
G03 X-209.193513 Y223.917292 Z-5.250000 I-0.577503 J25.653272
G02 X-207.955000 Y223.821000 Z-5.250000 I0.301336 J-4.137239
G03 X-206.543515 Y223.913689 Z-5.250000 I0.551774 J2.391019
G03 X-205.388000 Y224.536000 Z-5.250000 I-1.694839 J4.530942
G02 X-204.396175 Y225.220716 Z-5.250000 I13.490272 J-18.480222
G02 X-203.337000 Y225.726000 Z-5.250000 I2.421339 J-3.712847
G02 X-201.987173 Y226.042144 Z-5.250000 I2.570472 J-7.935324
G02 X-200.629000 Y226.160000 Z-5.250000 I1.655044 J-11.187974
G02 X-199.254895 Y226.130178 Z-5.250000 I0.383081 J-14.020781
G02 X-197.882000 Y225.998000 Z-5.250000 I-1.928746 J-27.229432
G02 X-196.929928 Y225.852144 Z-5.250000 I-1.822220 J-15.074731
G02 X-195.980000 Y225.650000 Z-5.250000 I-3.421505 J-18.411625
G02 X-195.041744 Y225.399536 Z-5.250000 I-4.883416 J-20.176218
G02 X-194.122000 Y225.111000 Z-5.250000 I-6.850051 J-23.445569
G02 X-192.655417 Y224.476249 Z-5.250000 I-3.034295 J-9.022328
G03 X-191.224000 Y223.722000 Z-5.250000 I50.650969 J94.390239
G03 X-189.528986 Y223.055418 Z-5.250000 I4.094798 J7.924064
G03 X-187.631000 Y223.046000 Z-5.250000 I0.966179 J3.458685
G02 X-186.621412 Y223.296964 Z-5.250000 I6.802740 J-25.210153
G02 X-185.688000 Y223.270000 Z-5.250000 I0.414474 J-1.821627
G03 X-184.668746 Y223.081158 Z-5.250000 I1.475178 J5.117024
G02 X-183.630000 Y222.962000 Z-5.250000 I-1.570836 J-18.280794
G02 X-182.678785 Y222.739522 Z-5.250000 I-0.784182 J-5.497530
G02 X-181.712000 Y222.215000 Z-5.250000 I-0.963837 J-2.929755
G03 X-180.786002 Y221.572590 Z-5.250000 I5.120920 J6.392925
G02 X-179.923000 Y220.802000 Z-5.250000 I-1.558810 J-2.614293
G03 X-179.101294 Y219.727296 Z-5.250000 I234.780636 J178.659098
G02 X-178.447000 Y218.588000 Z-5.250000 I-3.906160 J-3.000822
G02 X-177.966460 Y217.406396 Z-5.250000 I-214.234624 J-87.814446
G02 X-177.930000 Y216.039000 Z-5.250000 I-1.815706 J-0.732597
G02 X-178.208428 Y215.466003 Z-5.250000 I-2.435243 J0.829178
G02 X-178.592000 Y215.214000 Z-5.250000 I-0.479275 J0.311583
G02 X-179.379254 Y215.186881 Z-5.250000 I-0.496480 J2.972258
G02 X-179.978000 Y215.465000 Z-5.250000 I0.095998 J0.990231
G02 X-180.580457 Y216.262890 Z-5.250000 I2.328532 J2.384580
G02 X-181.011000 Y217.206000 Z-5.250000 I6.716864 J3.636171
G03 X-181.466411 Y218.183398 Z-5.250000 I-6.620894 J-2.490159
G03 X-182.033000 Y218.940000 Z-5.250000 I-3.166879 J-1.781099
G03 X-182.768549 Y219.487374 Z-5.250000 I-2.087829 J-2.037685
G03 X-183.815000 Y219.828000 Z-5.250000 I-1.531856 J-2.928341
G03 X-185.199247 Y220.005405 Z-5.250000 I-5.178051 J-34.913773
G03 X-186.588000 Y220.078000 Z-5.250000 I-1.348077 J-12.469177
G03 X-187.638551 Y219.954528 Z-5.250000 I0.041700 J-4.885813
G02 X-188.696000 Y219.757000 Z-5.250000 I-2.949039 J12.858150
G02 X-189.663770 Y219.845888 Z-5.250000 I-0.297518 J2.073520
G02 X-190.537000 Y220.264000 Z-5.250000 I1.284704 J3.804042
G02 X-191.372443 Y220.798715 Z-5.250000 I418.672886 J655.058420
G03 X-192.211000 Y221.329000 Z-5.250000 I-43.957136 J-68.582637
G03 X-193.057459 Y221.846530 Z-5.250000 I-29.066484 J-46.589422
G03 X-193.915000 Y222.341000 Z-5.250000 I-15.246225 J-25.450125
G03 X-194.804258 Y222.698918 Z-5.250000 I-1.898647 J-3.433593
G02 X-195.742000 Y222.986000 Z-5.250000 I3.420096 J12.846701
G03 X-197.222852 Y223.353095 Z-5.250000 I-2.778338 J-8.037335
G03 X-198.689000 Y223.482000 Z-5.250000 I-1.716023 J-11.115496
G03 X-200.182367 Y223.438263 Z-5.250000 I-0.321301 J-14.546160
G03 X-201.680000 Y223.283000 Z-5.250000 I2.676570 J-33.118211
G03 X-202.647243 Y222.954475 Z-5.250000 I0.325483 J-2.546428
G03 X-203.586000 Y222.401000 Z-5.250000 I54.839336 J-94.086655
G03 X-203.802138 Y222.102189 Z-5.250000 I0.240541 J-0.401564
G02 X-203.957000 Y221.643000 Z-5.250000 I-2.277972 J0.512542
G02 X-203.602296 Y221.607488 Z-5.250000 I-0.380745 J-5.592187
G03 X-203.252000 Y221.598000 Z-5.250000 I0.220375 J1.665044
G03 X-201.387607 Y221.789285 Z-5.250000 I-2.665292 J35.159174
G02 X-199.537000 Y221.868000 Z-5.250000 I1.380160 J-10.654443
G02 X-197.977645 Y221.586993 Z-5.250000 I-0.258883 J-5.903650
G03 X-196.409000 Y221.256000 Z-5.250000 I2.357568 J7.290444
G02 X-194.977240 Y220.904677 Z-5.250000 I-0.552564 J-5.344995
G02 X-193.696000 Y220.294000 Z-5.250000 I-3.941274 J-9.918456
G02 X-192.825345 Y219.802486 Z-5.250000 I-93.851982 J-167.263809
G02 X-191.960000 Y219.302000 Z-5.250000 I-31.564337 J-55.573379
G02 X-191.102902 Y218.787412 Z-5.250000 I-23.899510 J-40.778096
G02 X-190.260000 Y218.253000 Z-5.250000 I-18.971961 J-30.855508
G03 X-189.228170 Y217.893358 Z-5.250000 I1.239145 J1.895163
G03 X-188.219000 Y218.126000 Z-5.250000 I0.151514 J1.647899
G02 X-187.312985 Y218.556448 Z-5.250000 I2.541066 J-4.179765
G02 X-186.394000 Y218.790000 Z-5.250000 I1.725963 J-4.866549
G02 X-185.433512 Y218.861358 Z-5.250000 I0.900876 J-5.626056
G02 X-184.447000 Y218.785000 Z-5.250000 I-0.077561 J-7.412863
G02 X-183.219847 Y218.034326 Z-5.250000 I-0.262253 J-1.807086
G02 X-182.846000 Y216.768000 Z-5.250000 I-1.662424 J-1.179131
G02 X-183.090025 Y216.200313 Z-5.250000 I-0.869088 J0.037293
G02 X-183.650000 Y215.974000 Z-5.250000 I-0.534986 J0.517797
G02 X-184.605572 Y216.020132 Z-5.250000 I1.031248 J31.281176
G03 X-185.561000 Y216.061000 Z-5.250000 I-1.461198 J-22.971688
G03 X-185.927387 Y216.044704 Z-5.250000 I-0.066403 J-2.633992
G03 X-186.271000 Y215.954000 Z-5.250000 I0.140994 J-1.230329
G03 X-186.499320 Y215.787498 Z-5.250000 I0.241292 J-0.570675
G03 X-186.606000 Y215.547000 Z-5.250000 I0.345045 J-0.296964
G03 X-186.558215 Y215.273620 Z-5.250000 I0.472579 J-0.058263
G03 X-186.368000 Y215.092000 Z-5.250000 I0.352024 J0.178266
G03 X-185.790156 Y214.838344 Z-5.250000 I11.904665 J26.334562
G03 X-185.218000 Y214.738000 Z-5.250000 I0.501218 J1.176542
G02 X-183.979187 Y214.665364 Z-5.250000 I0.303311 J-5.427327
G02 X-182.828000 Y214.386000 Z-5.250000 I-1.566669 J-8.967404
G02 X-181.683684 Y213.982848 Z-5.250000 I-4.880318 J-15.678020
G03 X-180.545000 Y213.560000 Z-5.250000 I11.077674 J28.086360
G02 X-179.042836 Y212.983689 Z-5.250000 I-8.454413 J-24.282419
G02 X-177.580000 Y212.315000 Z-5.250000 I-10.005678 J-23.823015
G02 X-176.438211 Y211.685702 Z-5.250000 I-6.378481 J-12.923502
G02 X-175.360000 Y210.954000 Z-5.250000 I-7.195665 J-11.763537
G02 X-173.981411 Y209.898097 Z-5.250000 I-53.351260 J-71.083392
G02 X-172.738000 Y208.721000 Z-5.250000 I-5.579837 J-7.139468
G02 X-172.005494 Y207.833534 Z-5.250000 I-14.469316 J-12.688863
G02 X-171.313000 Y206.906000 Z-5.250000 I-24.304862 J-18.868220
G02 X-170.651864 Y205.957136 Z-5.250000 I-34.400420 J-24.673784
G02 X-170.009000 Y205.000000 Z-5.250000 I-138.597554 J-93.784081
G02 X-169.205765 Y203.671527 Z-5.250000 I-14.530712 J-9.692780
G02 X-168.502000 Y202.284000 Z-5.250000 I-22.792605 J-12.432829
G02 X-168.021310 Y201.243986 Z-5.250000 I-71.561702 J-33.706599
G02 X-167.598000 Y200.186000 Z-5.250000 I-11.507990 J-5.218132
G02 X-167.296416 Y199.106131 Z-5.250000 I-8.320922 J-2.905904
G02 X-167.168000 Y197.951000 Z-5.250000 I-5.811831 J-1.230803
G03 X-167.149925 Y197.109076 Z-5.250000 I39.161100 J0.419583
G02 X-167.168000 Y196.272000 Z-5.250000 I-7.780083 J-0.250738
G02 X-167.442072 Y195.502708 Z-5.250000 I-1.546353 J0.117445
G02 X-168.207000 Y195.066000 Z-5.250000 I-0.842271 J0.587035
G02 X-168.973192 Y195.312584 Z-5.250000 I-0.079816 J1.065652
G02 X-169.594000 Y196.231000 Z-5.250000 I1.293133 J1.543127
G03 X-170.015292 Y197.514989 Z-5.250000 I-275.097200 J-89.551547
G02 X-170.355000 Y198.813000 Z-5.250000 I10.052091 J3.324234
G03 X-170.802182 Y200.489047 Z-5.250000 I-12.704159 J-2.491884
G03 X-171.435000 Y202.048000 Z-5.250000 I-13.781427 J-4.686314
G03 X-172.243762 Y203.539626 Z-5.250000 I-14.487183 J-6.889900
G03 X-173.202000 Y204.967000 Z-5.250000 I-17.675587 J-10.830811
G03 X-173.977408 Y205.935296 Z-5.250000 I-12.009867 J-8.822841
G03 X-174.833000 Y206.833000 Z-5.250000 I-10.502216 J-9.152967
G03 X-175.760858 Y207.643872 Z-5.250000 I-9.164421 J-9.550291
G03 X-176.774000 Y208.371000 Z-5.250000 I-7.898021 J-9.935296
G02 X-177.960485 Y209.139534 Z-5.250000 I214.109860 J331.849336
G03 X-179.151000 Y209.903000 Z-5.250000 I-60.748390 J-93.418333
G03 X-180.355574 Y210.645661 Z-5.250000 I-34.894458 J-55.249559
G03 X-181.579000 Y211.350000 Z-5.250000 I-18.863950 J-31.351679
G03 X-182.557746 Y211.619697 Z-5.250000 I-1.051103 J-1.903701
G02 X-183.660000 Y211.728000 Z-5.250000 I0.285164 J8.565517
G03 X-183.474694 Y210.885929 Z-5.250000 I1.195972 J-0.178239
G03 X-182.636000 Y210.129000 Z-5.250000 I1.868612 J1.227354
G03 X-181.714933 Y209.666831 Z-5.250000 I17.484684 J33.696748
G02 X-180.790000 Y209.208000 Z-5.250000 I-25.014335 J-51.586714
G02 X-179.875363 Y208.719596 Z-5.250000 I-11.169096 J-22.017035
G02 X-179.003000 Y208.178000 Z-5.250000 I-5.695768 J-10.147700
G02 X-177.882649 Y207.372040 Z-5.250000 I-16.333773 J-23.886962
G02 X-176.816000 Y206.496000 Z-5.250000 I-10.375742 J-13.720685
G02 X-175.840806 Y205.539499 Z-5.250000 I-9.395615 J-10.554614
G02 X-174.962000 Y204.458000 Z-5.250000 I-7.951332 J-7.358903
G03 X-173.979260 Y203.112773 Z-5.250000 I51.472389 J36.570990
G02 X-173.016000 Y201.754000 Z-5.250000 I-24.275638 J-18.230279
G02 X-172.641198 Y201.084080 Z-5.250000 I-4.013723 J-2.685372
G02 X-172.374000 Y200.365000 Z-5.250000 I-4.667245 J-2.143455
G02 X-171.957237 Y198.927637 Z-5.250000 I-1439.099882 J-418.045734
G02 X-171.590000 Y197.483000 Z-5.250000 I-21.845573 J-6.322295
G02 X-171.342803 Y196.029104 Z-5.250000 I-14.819124 J-3.267571
G02 X-171.280000 Y194.522000 Z-5.250000 I-9.590608 J-1.154512
G02 X-171.747139 Y193.448450 Z-5.250000 I-1.602449 J0.058871
G02 X-172.685000 Y193.116000 Z-5.250000 I-0.816573 J0.814495
G02 X-173.282585 Y193.387373 Z-5.250000 I0.111582 J1.039363
G02 X-173.610000 Y193.902000 Z-5.250000 I0.809143 J0.876259
G02 X-173.959766 Y195.008750 Z-5.250000 I1114.780640 J352.912893
G02 X-174.248000 Y196.127000 Z-5.250000 I10.328625 J3.258519
G03 X-174.520118 Y197.326920 Z-5.250000 I-23.555309 J-4.711062
G03 X-174.875000 Y198.481000 Z-5.250000 I-11.777352 J-2.989956
G03 X-175.349369 Y199.578495 Z-5.250000 I-9.157562 J-3.306897
G03 X-175.997000 Y200.634000 Z-5.250000 I-6.831104 J-3.464954
G02 X-176.564597 Y201.446738 Z-5.250000 I18.417146 J13.466673
G03 X-177.124000 Y202.269000 Z-5.250000 I-43.612516 J-29.069127
G03 X-177.717254 Y203.076202 Z-5.250000 I-16.414074 J-11.441927
G03 X-178.365000 Y203.818000 Z-5.250000 I-6.605111 J-5.113949
G03 X-179.162015 Y204.573208 Z-5.250000 I-10.711622 J-10.506419
G03 X-180.027000 Y205.263000 Z-5.250000 I-7.511394 J-8.531909
G03 X-180.945395 Y205.852129 Z-5.250000 I-5.857878 J-8.121461
G03 X-181.946000 Y206.334000 Z-5.250000 I-4.088385 J-7.209711
G03 X-182.273883 Y206.363017 Z-5.250000 I-0.211761 J-0.525834
G03 X-182.825000 Y206.194000 Z-5.250000 I0.647805 J-3.095334
G02 X-182.119916 Y205.428900 Z-5.250000 I-46.539578 J-43.596364
G03 X-181.400000 Y204.679000 Z-5.250000 I13.484814 J12.225120
G03 X-180.691588 Y203.982708 Z-5.250000 I4304.786105 J4379.007087
G03 X-179.979000 Y203.289000 Z-5.250000 I73.900479 J75.198954
G03 X-179.258250 Y202.604255 Z-5.250000 I46.185803 J47.892670
G03 X-178.525000 Y201.934000 Z-5.250000 I28.837507 J30.811611
G02 X-177.736691 Y201.052032 Z-5.250000 I-3.480586 J-3.904253
G02 X-177.144000 Y200.090000 Z-5.250000 I-7.221111 J-5.112390
G02 X-176.638590 Y199.048123 Z-5.250000 I-13.846336 J-7.360314
G03 X-176.151000 Y197.996000 Z-5.250000 I27.569519 J12.137635
G02 X-176.014237 Y197.472312 Z-5.250000 I-1.244074 J-0.604597
G03 X-175.958000 Y196.901000 Z-5.250000 I7.239479 J0.424191
G03 X-175.704644 Y195.267689 Z-5.250000 I51.612433 J7.169712
G02 X-175.551000 Y193.639000 Z-5.250000 I-10.660962 J-1.827305
G02 X-175.721174 Y192.765091 Z-5.250000 I-2.122311 J-0.040251
G02 X-176.130000 Y191.903000 Z-5.250000 I-11.191623 J4.779372
G02 X-176.485225 Y191.577037 Z-5.250000 I-0.632218 J0.332434
G02 X-176.947000 Y191.560000 Z-5.250000 I-0.253426 J0.602379
G02 X-177.446591 Y191.846210 Z-5.250000 I0.479522 J1.416158
G02 X-177.729000 Y192.295000 Z-5.250000 I0.596912 J0.688868
G02 X-178.034492 Y193.712009 Z-5.250000 I13.270771 J3.602473
G03 X-178.278000 Y195.148000 Z-5.250000 I-85.909734 J-13.829479
G03 X-178.526386 Y196.209738 Z-5.250000 I-10.013298 J-1.782618
G03 X-178.875000 Y197.221000 Z-5.250000 I-10.584460 J-3.083076
G03 X-179.319459 Y198.197664 Z-5.250000 I-11.002571 J-4.417574
G03 X-179.851000 Y199.146000 Z-5.250000 I-12.565894 J-6.420032
G03 X-180.716988 Y200.513478 Z-5.250000 I-45.176899 J-27.651378
G03 X-181.852000 Y201.708000 Z-5.250000 I-3.848744 J-2.520511
G03 X-182.558559 Y202.222826 Z-5.250000 I-229.418028 J-314.115915
G03 X-183.266000 Y202.737000 Z-5.250000 I-3488.660402 J-4799.245673
G01 X-183.500000 Y202.587000 Z-5.250000
G02 X-183.336186 Y202.055869 Z-5.250000 I-3.606860 J-1.403277
G03 X-183.101000 Y201.614000 Z-5.250000 I0.942082 J0.217901
G02 X-182.387017 Y200.815995 Z-5.250000 I-19.777161 J-18.413218
G02 X-181.728000 Y199.988000 Z-5.250000 I-10.611224 J-9.121940
G02 X-181.140472 Y199.104225 Z-5.250000 I-8.946577 J-6.584806
G02 X-180.654000 Y198.156000 Z-5.250000 I-7.051925 J-4.216782
G02 X-180.272740 Y196.897844 Z-5.250000 I-5.226086 J-2.270509
G03 X-180.014000 Y195.580000 Z-5.250000 I43.324489 J7.821830
G02 X-179.839651 Y194.614440 Z-5.250000 I-15.611837 J-3.317515
G03 X-179.687000 Y193.644000 Z-5.250000 I59.815927 J8.911867
G02 X-179.657866 Y192.226939 Z-5.250000 I-4.915763 J-0.809896
G02 X-180.116000 Y190.911000 Z-5.250000 I-3.273560 J0.401948
G02 X-180.588486 Y190.463666 Z-5.250000 I-1.066304 J0.653065
G02 X-181.126000 Y190.400000 Z-5.250000 I-0.349166 J0.647036
G02 X-181.623522 Y190.714373 Z-5.250000 I0.246640 J0.941201
G02 X-181.929000 Y191.298000 Z-5.250000 I1.165701 J0.981902
G02 X-182.236087 Y192.822096 Z-5.250000 I11.699194 J3.150233
G03 X-182.535000 Y194.350000 Z-5.250000 I-13.176968 J-1.784696
G03 X-182.793399 Y195.303122 Z-5.250000 I-36.400691 J-9.356917
G03 X-183.076000 Y196.251000 Z-5.250000 I-40.071673 J-11.430945
G03 X-183.378901 Y197.192705 Z-5.250000 I-42.839311 J-13.259787
G03 X-183.701000 Y198.126000 Z-5.250000 I-46.407470 J-15.493910
G03 X-184.018889 Y198.620514 Z-5.250000 I-1.216357 J-0.432483
G03 X-184.492000 Y199.051000 Z-5.250000 I-7.065259 J-7.289597
G03 X-184.773586 Y199.167135 Z-5.250000 I-0.316802 J-0.368692
G03 X-185.106000 Y199.121000 Z-5.250000 I-0.058201 J-0.801274
G03 X-185.256504 Y198.961464 Z-5.250000 I0.078614 J-0.224924
G03 X-185.259000 Y198.618000 Z-5.250000 I0.617502 J-0.176228
G03 X-184.858756 Y197.299044 Z-5.250000 I23.755640 J6.488561
G02 X-184.476000 Y195.977000 Z-5.250000 I-16.001276 J-5.349095
G03 X-184.144067 Y194.721202 Z-5.250000 I37.509946 J9.242882
G02 X-183.851000 Y193.460000 Z-5.250000 I-13.288128 J-3.752427
G02 X-183.725119 Y192.201319 Z-5.250000 I-7.729181 J-1.408632
G02 X-183.883000 Y190.885000 Z-5.250000 I-4.802008 J-0.091669
G02 X-184.218550 Y190.198411 Z-5.250000 I-1.883573 J0.495250
G02 X-184.781000 Y189.655000 Z-5.250000 I-2.072208 J1.582028
G02 X-185.508895 Y189.698977 Z-5.250000 I-0.336769 J0.471841
G02 X-185.936000 Y190.178000 Z-5.250000 I2.125041 J2.324642
G02 X-186.470789 Y191.233861 Z-5.250000 I3.073827 J2.220245
G02 X-186.629000 Y192.440000 Z-5.250000 I3.203432 J1.033645
G03 X-186.651520 Y193.505561 Z-5.250000 I-7.456476 J0.375431
G03 X-186.807000 Y194.531000 Z-5.250000 I-8.921982 J-0.828270
G03 X-187.072665 Y195.540517 Z-5.250000 I-10.375791 J-2.190783
G03 X-187.426000 Y196.539000 Z-5.250000 I-15.049314 J-4.763770
G03 X-187.696573 Y197.180414 Z-5.250000 I-12.205451 J-4.770956
G03 X-188.076000 Y197.718000 Z-5.250000 I-1.596049 J-0.723795
G02 X-188.619252 Y199.260254 Z-5.250000 I1.272000 J1.314862
G02 X-188.170000 Y200.590000 Z-5.250000 I3.484615 J-0.436508
G02 X-187.216897 Y201.967003 Z-5.250000 I9.218208 J-5.362100
G03 X-186.283000 Y203.351000 Z-5.250000 I-7.163534 J5.840917
G03 X-185.834622 Y204.439564 Z-5.250000 I-4.622221 J2.540510
G03 X-185.610000 Y205.604000 Z-5.250000 I-6.462534 J1.850521
G03 X-185.568205 Y206.953273 Z-5.250000 I-9.398701 J0.966420
G03 X-185.734000 Y208.289000 Z-5.250000 I-8.114849 J-0.329093
G03 X-186.122510 Y209.491507 Z-5.250000 I-5.796863 J-1.208858
G03 X-186.670000 Y210.657000 Z-5.250000 I-29.775652 J-13.275754
G03 X-187.302430 Y211.732987 Z-5.250000 I-7.774976 J-3.846021
G03 X-188.053000 Y212.702000 Z-5.250000 I-9.070746 J-6.250752
G03 X-188.910072 Y213.599402 Z-5.250000 I-9.922259 J-8.618372
G03 X-189.830000 Y214.423000 Z-5.250000 I-13.761691 J-14.445720
G03 X-190.733945 Y215.119256 Z-5.250000 I-8.276704 J-9.810675
G03 X-191.692000 Y215.761000 Z-5.250000 I-15.282440 J-21.779033
G03 X-192.664473 Y216.368684 Z-5.250000 I-30.207535 J-47.258989
G02 X-193.636000 Y216.977000 Z-5.250000 I26.845901 J43.954891
G03 X-194.530766 Y217.526539 Z-5.250000 I-13.322360 J-20.688426
G03 X-195.456000 Y218.016000 Z-5.250000 I-6.170746 J-10.545411
G03 X-196.528230 Y218.502748 Z-5.250000 I-14.053823 J-29.534004
G03 X-197.632000 Y218.876000 Z-5.250000 I-2.821308 J-6.524452
G03 X-198.987537 Y219.125662 Z-5.250000 I-2.678512 J-10.738180
G03 X-200.366000 Y219.271000 Z-5.250000 I-5.605559 J-46.556437
G03 X-200.689130 Y219.172010 Z-5.250000 I-0.041018 J-0.442993
G02 X-201.050000 Y218.934000 Z-5.250000 I-1.322667 J1.612842
G02 X-200.821466 Y218.584463 Z-5.250000 I-1.683284 J-1.350045
G03 X-200.568000 Y218.360000 Z-5.250000 I0.421436 J0.220549
G03 X-199.109041 Y217.852500 Z-5.250000 I10.257173 J27.136421
G02 X-197.641000 Y217.365000 Z-5.250000 I-18.787638 J-59.030618
G02 X-196.243694 Y216.878908 Z-5.250000 I-289.307726 J-833.886974
G02 X-194.865000 Y216.352000 Z-5.250000 I-8.260401 J-23.681136
G02 X-193.236125 Y215.496944 Z-5.250000 I-3.964244 J-9.530878
G02 X-191.791000 Y214.355000 Z-5.250000 I-5.199714 J-8.065587
G02 X-191.041264 Y213.572051 Z-5.250000 I-9.113847 J-9.477673
G03 X-190.316000 Y212.764000 Z-5.250000 I45.452069 J40.065884
G02 X-189.544903 Y211.783835 Z-5.250000 I-6.149407 J-5.631142
G02 X-188.929000 Y210.737000 Z-5.250000 I-8.417132 J-5.656798
G02 X-188.427725 Y209.611354 Z-5.250000 I-10.498557 J-5.349675
G02 X-188.029000 Y208.447000 Z-5.250000 I-15.648848 J-6.009290
G02 X-187.774678 Y206.932920 Z-5.250000 I-5.831420 J-1.757912
G02 X-187.835000 Y205.374000 Z-5.250000 I-9.911311 J-0.397109
G02 X-188.201606 Y203.762724 Z-5.250000 I-7.618278 J0.886009
G03 X-188.688000 Y202.153000 Z-5.250000 I20.807013 J-7.165386
G02 X-189.170109 Y201.572613 Z-5.250000 I-0.859159 J0.223246
G02 X-189.844000 Y201.473000 Z-5.250000 I-0.502678 J1.071395
G02 X-190.463561 Y201.808637 Z-5.250000 I0.146883 J1.010784
G02 X-190.711000 Y202.401000 Z-5.250000 I0.751049 J0.661586
G02 X-190.759774 Y203.660877 Z-5.250000 I21.349256 J1.457374
G02 X-190.697000 Y204.914000 Z-5.250000 I10.588304 J0.097727
G03 X-190.738119 Y206.064488 Z-5.250000 I-4.003116 J0.432907
G02 X-190.908000 Y207.165000 Z-5.250000 I21.060260 J3.814351
G03 X-191.161699 Y208.177292 Z-5.250000 I-4.374915 J-0.558500
G03 X-191.565000 Y209.047000 Z-5.250000 I-6.398841 J-2.438903
G03 X-192.090789 Y209.907189 Z-5.250000 I-10.094197 J-5.579276
G02 X-192.631000 Y210.744000 Z-5.250000 I21.607644 J14.541778
G03 X-193.596252 Y211.946159 Z-5.250000 I-5.345435 J-3.303429
G03 X-194.808000 Y212.930000 Z-5.250000 I-6.098656 J-6.273261
G03 X-195.704464 Y213.470149 Z-5.250000 I-5.878825 J-8.742868
G03 X-196.642000 Y213.956000 Z-5.250000 I-17.255220 J-32.149516
G02 X-197.583839 Y214.427655 Z-5.250000 I123.722031 J248.234618
G02 X-198.503000 Y214.933000 Z-5.250000 I6.457756 J12.834454
G03 X-199.191129 Y214.912887 Z-5.250000 I-0.328336 J-0.548170
G02 X-199.824000 Y214.592000 Z-5.250000 I-1.554798 J2.281927
G02 X-199.190923 Y214.085316 Z-5.250000 I-16.398358 J-21.137768
G03 X-198.693000 Y213.723000 Z-5.250000 I3.211869 J3.890708
G03 X-197.799077 Y213.177523 Z-5.250000 I14.199726 J22.265170
G02 X-196.894000 Y212.644000 Z-5.250000 I-57.719705 J-98.951102
G02 X-196.000306 Y212.088251 Z-5.250000 I-15.536934 J-25.981206
G02 X-195.148000 Y211.485000 Z-5.250000 I-6.714733 J-10.390665
G02 X-193.996621 Y210.357356 Z-5.250000 I-4.265350 J-5.506758
G02 X-193.185000 Y209.096000 Z-5.250000 I-5.405113 J-4.369723
G02 X-192.643520 Y207.682625 Z-5.250000 I-6.836667 J-3.429615
G02 X-192.345000 Y206.109000 Z-5.250000 I-9.753865 J-2.665457
G02 X-192.233668 Y204.891988 Z-5.250000 I-38.524023 J-4.137765
G02 X-192.153000 Y203.670000 Z-5.250000 I-64.028316 J-4.840409
G02 X-192.091384 Y202.448113 Z-5.250000 I-100.665174 J-5.688695
G03 X-192.035000 Y201.225000 Z-5.250000 I349.534546 J15.500382
G03 X-191.594798 Y200.112130 Z-5.250000 I1.842462 J0.085299
G02 X-190.933000 Y199.219000 Z-5.250000 I-6.096424 J-5.209128
G03 X-190.079793 Y198.021749 Z-5.250000 I12.188818 J7.783579
G02 X-189.326000 Y196.793000 Z-5.250000 I-4.729144 J-3.746745
G02 X-188.931750 Y195.890051 Z-5.250000 I-25.085525 J-11.490517
G02 X-188.575000 Y194.963000 Z-5.250000 I-17.330938 J-7.201496
G02 X-188.270687 Y194.014345 Z-5.250000 I-15.200419 J-5.399189
G02 X-188.038000 Y193.059000 Z-5.250000 I-11.637573 J-3.340490
G02 X-187.953653 Y191.274202 Z-5.250000 I-5.817326 J-1.169312
G02 X-188.629000 Y189.519000 Z-5.250000 I-3.592169 J0.374628
G02 X-189.598948 Y189.096078 Z-5.250000 I-0.846756 J0.618266
G02 X-190.489000 Y189.717000 Z-5.250000 I0.135129 J1.142076
G02 X-190.969450 Y190.800246 Z-5.250000 I9.908975 J5.043082
G02 X-191.119000 Y192.046000 Z-5.250000 I2.420028 J0.922372
G03 X-191.143369 Y193.382212 Z-5.250000 I-4.625987 J0.583961
G03 X-191.468000 Y194.557000 Z-5.250000 I-5.602247 J-0.915829
G03 X-192.025063 Y195.684473 Z-5.250000 I-7.161983 J-2.837247
G03 X-192.729000 Y196.781000 Z-5.250000 I-18.565567 J-11.144311
G03 X-193.597642 Y197.996600 Z-5.250000 I-31.847367 J-21.839303
G02 X-194.453000 Y199.219000 Z-5.250000 I20.468604 J15.233089
G02 X-194.701853 Y199.714398 Z-5.250000 I2.054260 J1.342117
G02 X-194.826000 Y200.253000 Z-5.250000 I2.067994 J0.760280
G02 X-194.980366 Y202.122278 Z-5.250000 I55.036588 J5.485962
G03 X-195.104000 Y203.995000 Z-5.250000 I-1927.144151 J-126.286496
G03 X-195.254670 Y205.319386 Z-5.250000 I-14.519094 J-0.981020
G03 X-195.544000 Y206.580000 Z-5.250000 I-9.606993 J-1.541437
G03 X-196.008394 Y207.780609 Z-5.250000 I-7.917885 J-2.372507
G03 X-196.696000 Y208.927000 Z-5.250000 I-6.472813 J-3.102990
G03 X-197.460103 Y209.725915 Z-5.250000 I-3.456503 J-2.541029
G03 X-198.360000 Y210.413000 Z-5.250000 I-13.475995 J-16.717079
G03 X-198.716735 Y210.437238 Z-5.250000 I-0.197877 J-0.275015
G02 X-199.114000 Y210.300000 Z-5.250000 I-0.636644 J1.199296
G03 X-198.493342 Y209.069417 Z-5.250000 I176.979087 J88.489543
G02 X-197.898000 Y207.892000 Z-5.250000 I-238.187407 J-121.174838
G02 X-197.293774 Y206.673611 Z-5.250000 I-97.658506 J-49.190061
G02 X-196.721000 Y205.463000 Z-5.250000 I-49.156425 J-23.998069
G02 X-196.515853 Y204.695079 Z-5.250000 I-2.121439 J-0.978095
G02 X-196.449000 Y203.863000 Z-5.250000 I-41.911817 J-3.786133
G02 X-196.378283 Y202.820261 Z-5.250000 I-195.057952 J-13.752287
G02 X-196.315000 Y201.775000 Z-5.250000 I-114.247285 J-7.441405
G02 X-196.263131 Y200.730980 Z-5.250000 I-106.451698 J-5.812018
G02 X-196.224000 Y199.686000 Z-5.250000 I-71.462308 J-3.199255
G03 X-195.790610 Y198.393185 Z-5.250000 I2.353792 J0.070010
G03 X-195.029000 Y197.388000 Z-5.250000 I16.472884 J11.690086
G02 X-194.367873 Y196.537598 Z-5.250000 I-22.958739 J-18.530982
G02 X-193.767000 Y195.667000 Z-5.250000 I-11.011339 J-8.242505
G02 X-193.249920 Y194.754988 Z-5.250000 I-9.041392 J-5.728748
G02 X-192.827000 Y193.755000 Z-5.250000 I-7.277081 J-3.667090
G02 X-192.462955 Y192.055737 Z-5.250000 I-6.729324 J-2.330296
G02 X-192.608000 Y190.364000 Z-5.250000 I-4.877480 J-0.433905
G02 X-192.931342 Y189.680975 Z-5.250000 I-2.008588 J0.532813
G02 X-193.683000 Y189.219000 Z-5.250000 I-0.930309 J0.671180
G02 X-194.556573 Y189.424140 Z-5.250000 I-0.183688 J1.180368
G02 X-195.077000 Y190.029000 Z-5.250000 I0.951407 J1.344919
G02 X-195.241042 Y190.608237 Z-5.250000 I1.443045 J0.721523
G03 X-195.333000 Y191.237000 Z-5.250000 I-5.563554 J-0.492577
G03 X-195.610721 Y192.426090 Z-5.250000 I-22.154103 J-4.547275
G03 X-195.980000 Y193.559000 Z-5.250000 I-9.831303 J-2.577937
G03 X-196.483571 Y194.610188 Z-5.250000 I-7.501528 J-2.947394
G03 X-197.201000 Y195.627000 Z-5.250000 I-5.675502 J-3.242941
G02 X-198.122981 Y196.942276 Z-5.250000 I6.207096 J5.331830
G02 X-198.576000 Y198.672000 Z-5.250000 I3.065269 J1.726986
G03 X-198.599768 Y199.878861 Z-5.250000 I-28.830977 J0.035859
G03 X-198.677000 Y201.091000 Z-5.250000 I-26.382511 J-1.072439
G03 X-198.809932 Y202.296729 Z-5.250000 I-26.195312 J-2.277853
G03 X-199.001000 Y203.488000 Z-5.250000 I-22.859531 J-3.055479
G03 X-199.315842 Y204.939566 Z-5.250000 I-24.391606 J-4.530569
G03 X-200.277000 Y206.362000 Z-5.250000 I-2.424679 J-0.602438
G03 X-200.605164 Y205.261461 Z-5.250000 I1.235590 J-0.967631
G02 X-200.524000 Y204.229000 Z-5.250000 I-81.404663 J-6.918831
G03 X-200.347665 Y202.877823 Z-5.250000 I11.933597 J0.870295
G02 X-200.147000 Y201.526000 Z-5.250000 I-17.055104 J-3.222471
G02 X-200.101647 Y200.731591 Z-5.250000 I-8.005248 J-0.855523
G02 X-200.147000 Y199.938000 Z-5.250000 I-6.149029 J-0.046678
G03 X-200.138716 Y198.589604 Z-5.250000 I5.211515 J-0.642204
G03 X-199.848000 Y197.405000 Z-5.250000 I5.725004 J0.777007
G03 X-199.326646 Y196.271709 Z-5.250000 I6.923036 J2.498275
G03 X-198.624000 Y195.149000 Z-5.250000 I13.339331 J7.567175
G02 X-197.965229 Y194.032836 Z-5.250000 I-7.686186 J-5.288956
G02 X-197.531000 Y192.883000 Z-5.250000 I-5.367184 J-2.683794
G02 X-197.360794 Y191.700885 Z-5.250000 I-4.975985 J-1.319773
G02 X-197.500000 Y190.383000 Z-5.250000 I-5.033294 J-0.134638
G02 X-197.997366 Y189.661919 Z-5.250000 I-1.183595 J0.284316
G02 X-198.872000 Y189.428000 Z-5.250000 I-0.770515 J1.128884
G02 X-199.564097 Y189.774873 Z-5.250000 I0.076793 J1.017109
G02 X-199.892000 Y190.497000 Z-5.250000 I1.042854 J0.909048
G03 X-200.083246 Y191.499696 Z-5.250000 I-9.888440 J-1.366456
G03 X-200.332000 Y192.494000 Z-5.250000 I-90.062027 J-22.003337
G03 X-200.563503 Y192.979828 Z-5.250000 I-1.353059 J-0.346679
G03 X-201.207000 Y193.361000 Z-5.250000 I-0.775709 J-0.575792
G02 X-201.357326 Y192.631346 Z-5.250000 I-19.082168 J3.551078
G03 X-201.465000 Y191.923000 Z-5.250000 I4.889723 J-1.105629
G02 X-201.979590 Y190.791485 Z-5.250000 I-1.816543 J0.143357
G02 X-203.018000 Y190.334000 Z-5.250000 I-1.090362 J1.067682
G02 X-203.668603 Y190.559154 Z-5.250000 I-0.031954 J0.960231
G02 X-203.993000 Y191.146000 Z-5.250000 I0.602885 J0.716345
G03 X-204.175157 Y191.854164 Z-5.250000 I-3.230057 J-0.453341
G02 X-204.219000 Y192.496000 Z-5.250000 I1.030820 J0.392829
G02 X-203.748547 Y194.185823 Z-5.250000 I18.408187 J-4.214506
G03 X-203.212000 Y195.863000 Z-5.250000 I-99.979981 J32.909099
G02 X-203.135715 Y196.034507 Z-5.250000 I0.782710 J-0.245426
G03 X-203.066000 Y196.206000 Z-5.250000 I-0.543954 J0.321043
G03 X-202.837214 Y197.231199 Z-5.250000 I-22.182048 J5.488342
G03 X-202.676000 Y198.261000 Z-5.250000 I-12.382226 J2.465934
G03 X-202.613062 Y199.301089 Z-5.250000 I-10.029437 J1.128854
G03 X-202.678000 Y200.350000 Z-5.250000 I-7.445892 J0.065489
G03 X-202.850663 Y201.430051 Z-5.250000 I-20.447033 J-2.714959
G03 X-203.064000 Y202.505000 Z-5.250000 I-49.527836 J-9.270750
G03 X-203.291592 Y203.577172 Z-5.250000 I-225.761892 J-47.362635
G02 X-203.507000 Y204.650000 Z-5.250000 I39.944204 J8.578251
G02 X-203.484618 Y206.126799 Z-5.250000 I3.642310 J0.683367
G02 X-202.820000 Y207.517000 Z-5.250000 I3.298595 J-0.723001
G03 X-202.444176 Y208.253106 Z-5.250000 I-1.590130 J1.275846
G02 X-202.167000 Y209.090000 Z-5.250000 I8.196470 J-2.250288
G03 X-201.804899 Y210.177550 Z-5.250000 I-11.045239 J4.281582
G03 X-201.589000 Y211.264000 Z-5.250000 I-6.947447 J1.945271
G03 X-201.558136 Y212.368083 Z-5.250000 I-5.908622 J0.717646
G03 X-201.765000 Y213.495000 Z-5.250000 I-4.914973 J-0.319779
G03 X-202.412333 Y215.045651 Z-5.250000 I-8.272590 J-2.543027
G03 X-203.225000 Y216.546000 Z-5.250000 I-202.398400 J-108.659127
G03 X-203.770737 Y217.396119 Z-5.250000 I-6.190345 J-3.373686
G03 X-204.403000 Y218.192000 Z-5.250000 I-14.071000 J-10.529190
G03 X-204.898434 Y218.710019 Z-5.250000 I-4.395531 J-3.707962
G03 X-205.469000 Y219.124000 Z-5.250000 I-2.036681 J-2.206862
G03 X-206.976274 Y219.950517 Z-5.250000 I-61.532530 J-110.425945
G03 X-208.533000 Y220.641000 Z-5.250000 I-5.235609 J-9.703822
G03 X-209.837771 Y220.927942 Z-5.250000 I-1.807000 J-5.106738
G03 X-211.242000 Y220.794000 Z-5.250000 I-0.349984 J-3.758650
G02 X-212.254394 Y220.648384 Z-5.250000 I-1.020199 J3.500784
G02 X-213.129000 Y220.767000 Z-5.250000 I-0.006920 J3.232706
G02 X-213.963778 Y221.119512 Z-5.250000 I0.976938 J3.478136
G02 X-214.780000 Y221.698000 Z-5.250000 I2.752646 J4.748942
G03 X-215.773840 Y222.312657 Z-5.250000 I-2.493522 J-2.920983
G03 X-216.735000 Y222.571000 Z-5.250000 I-1.406694 J-3.316412
G03 X-217.778008 Y222.576470 Z-5.250000 I-0.544121 J-4.309684
G03 X-218.886000 Y222.368000 Z-5.250000 I0.914224 J-7.907636
G03 X-219.537588 Y222.043891 Z-5.250000 I0.459914 J-1.741640
G02 X-220.154000 Y221.569000 Z-5.250000 I-28.112387 J35.852572
G03 X-220.431360 Y221.016584 Z-5.250000 I0.420915 J-0.557173
G03 X-220.253000 Y220.460000 Z-5.250000 I0.937671 J-0.006389
G03 X-219.681605 Y220.150454 Z-5.250000 I0.609800 J0.443491
G03 X-219.206000 Y220.347000 Z-5.250000 I0.030585 J0.599701
G02 X-217.945971 Y221.062124 Z-5.250000 I1.715564 J-1.555148
G03 X-216.659000 Y221.445000 Z-5.250000 I-1.451161 J7.232220
G02 X-215.547008 Y221.242356 Z-5.250000 I0.395149 J-0.983960
G02 X-214.853000 Y219.963000 Z-5.250000 I-1.512248 J-1.648260
G02 X-215.138225 Y218.891250 Z-5.250000 I-1.319834 J-0.222581
G02 X-216.203000 Y218.394000 Z-5.250000 I-1.051552 J0.863076
G03 X-216.732269 Y218.396252 Z-5.250000 I-0.353004 J-20.768417
G02 X-217.263000 Y218.394000 Z-5.250000 I-0.530730 J62.540003
G03 X-217.635442 Y218.172173 Z-5.250000 I0.000000 J-0.423574
G03 X-217.664000 Y217.749000 Z-5.250000 I0.448228 J-0.242798
G03 X-216.791392 Y216.956982 Z-5.250000 I1.213697 J0.460486
G03 X-215.410000 Y217.146000 Z-5.250000 I0.468318 J1.719699
G03 X-214.159898 Y217.953477 Z-5.250000 I-10.401978 J17.475323
G02 X-212.873000 Y218.603000 Z-5.250000 I2.903996 J-4.154053
G02 X-211.287182 Y219.109503 Z-5.250000 I16.861180 J-50.055127
G02 X-209.594000 Y219.172000 Z-5.250000 I0.965733 J-3.196589
G02 X-208.194628 Y218.772836 Z-5.250000 I-2.764878 J-12.345501
G02 X-206.900000 Y217.937000 Z-5.250000 I-1.076265 J-3.087574
G03 X-205.970523 Y217.014165 Z-5.250000 I16.525099 J15.714532
G02 X-205.053000 Y216.080000 Z-5.250000 I-10.845647 J-11.570107
G02 X-204.658844 Y215.564242 Z-5.250000 I-2.878242 J-2.608116
G02 X-204.408000 Y214.986000 Z-5.250000 I-1.670944 J-1.068395
G03 X-203.985441 Y213.458655 Z-5.250000 I36.849720 J9.372801
G02 X-203.863000 Y211.829000 Z-5.250000 I-3.656555 J-1.094156
G03 X-203.897051 Y211.269485 Z-5.250000 I3.490448 J-0.493215
G03 X-203.866000 Y210.704000 Z-5.250000 I7.855989 J0.147781
G02 X-204.164921 Y209.476347 Z-5.250000 I-1.933537 J-0.179422
G02 X-204.847000 Y208.530000 Z-5.250000 I-9.046182 J5.801053
G02 X-205.594864 Y208.289508 Z-5.250000 I-0.557862 J0.451726
G02 X-206.274000 Y208.826000 Z-5.250000 I0.293650 J1.069826
G02 X-206.523212 Y209.839037 Z-5.250000 I1.778373 J0.974661
G02 X-206.339000 Y210.905000 Z-5.250000 I3.566926 J-0.067512
G03 X-206.177621 Y211.926579 Z-5.250000 I-2.944225 J0.988635
G03 X-206.313000 Y212.860000 Z-5.250000 I-3.544875 J-0.037603
G03 X-206.668763 Y213.753440 Z-5.250000 I-4.517563 J-1.281319
G03 X-207.190000 Y214.633000 Z-5.250000 I-8.481844 J-4.432208
G03 X-208.298367 Y215.712510 Z-5.250000 I-3.092149 J-2.066054
G03 X-209.637000 Y216.414000 Z-5.250000 I-5.045972 J-8.001098
G03 X-211.217751 Y216.522449 Z-5.250000 I-0.946219 J-2.217344
G03 X-212.680000 Y215.597000 Z-5.250000 I0.775866 J-2.843833
G03 X-212.891295 Y215.205524 Z-5.250000 I0.794127 J-0.681380
G03 X-212.838000 Y214.937000 Z-5.250000 I0.286662 J-0.082656
G03 X-212.500013 Y214.668784 Z-5.250000 I0.748905 J0.596655
G03 X-212.132000 Y214.641000 Z-5.250000 I0.220016 J0.463074
G03 X-211.555356 Y214.893369 Z-5.250000 I-0.738782 J2.473040
G03 X-211.030000 Y215.262000 Z-5.250000 I-2.124041 J3.585755
G02 X-210.121402 Y215.484654 Z-5.250000 I0.685584 J-0.832495
G02 X-209.466000 Y215.159000 Z-5.250000 I-0.302474 J-1.431102
G02 X-208.735605 Y214.418205 Z-5.250000 I-4.435310 J-5.103511
G02 X-208.169000 Y213.601000 Z-5.250000 I-4.001273 J-3.379291
G02 X-207.778370 Y212.704754 Z-5.250000 I-4.185424 J-2.357475
G02 X-207.568000 Y211.671000 Z-5.250000 I-4.647586 J-1.484070
G02 X-207.647455 Y210.999600 Z-5.250000 I-1.599397 J-0.151124
G02 X-208.168000 Y210.498000 Z-5.250000 I-0.748995 J0.256381
G02 X-208.923910 Y210.678805 Z-5.250000 I-0.223071 J0.737943
G02 X-209.376000 Y211.187000 Z-5.250000 I2.917760 J3.050821
G02 X-209.911231 Y211.973691 Z-5.250000 I8.090569 J6.079895
G03 X-210.421000 Y212.782000 Z-5.250000 I-33.203170 J-20.375056
G01 X-210.577000 Y212.717000 Z-5.250000
G02 X-210.629654 Y212.506126 Z-5.250000 I-1.827655 J0.344341
G03 X-210.649000 Y212.304000 Z-5.250000 I0.469817 J-0.146957
G02 X-210.570550 Y211.203586 Z-5.250000 I-11.555249 J-1.376796
G03 X-210.324000 Y210.212000 Z-5.250000 I2.340948 J0.055614
G03 X-209.659109 Y209.269022 Z-5.250000 I3.479574 J1.747542
G03 X-208.775000 Y208.472000 Z-5.250000 I5.795275 J5.539631
G02 X-207.854595 Y207.729875 Z-5.250000 I-18.978616 J-24.479664
G02 X-207.000000 Y206.945000 Z-5.250000 I-8.241401 J-9.831166
G02 X-206.236184 Y206.080304 Z-5.250000 I-6.921067 J-6.883316
G02 X-205.582000 Y205.089000 Z-5.250000 I-5.772720 J-4.521058
G02 X-205.212228 Y204.313148 Z-5.250000 I-6.667334 J-3.653699
G02 X-204.923000 Y203.502000 Z-5.250000 I-8.726265 J-3.568634
G02 X-204.535074 Y201.966012 Z-5.250000 I-14.817988 J-4.559381
G02 X-204.311000 Y200.430000 Z-5.250000 I-14.813132 J-2.945296
G02 X-204.244997 Y198.884283 Z-5.250000 I-15.068511 J-1.417697
G02 X-204.337000 Y197.297000 Z-5.250000 I-16.085906 J0.136068
G02 X-204.544895 Y196.085396 Z-5.250000 I-9.703526 J1.041354
G02 X-204.874000 Y194.938000 Z-5.250000 I-12.526789 J2.972139
G02 X-205.303482 Y193.804989 Z-5.250000 I-15.335793 J5.165319
G02 X-205.795000 Y192.698000 Z-5.250000 I-30.839910 J13.030718
G02 X-206.171761 Y191.976992 Z-5.250000 I-7.858071 J3.647272
G02 X-207.041000 Y191.381000 Z-5.250000 I-1.065512 J0.622144
G02 X-207.777238 Y191.539563 Z-5.250000 I-0.164785 J1.023399
G02 X-208.086000 Y192.159000 Z-5.250000 I0.380978 J0.576571
G02 X-207.933240 Y193.210632 Z-5.250000 I6.473739 J-0.403462
G03 X-207.705000 Y194.260000 Z-5.250000 I-43.274480 J9.961817
G02 X-207.360330 Y195.935862 Z-5.250000 I1335.766200 J-273.850009
G02 X-206.994000 Y197.606000 Z-5.250000 I67.223551 J-13.869649
G03 X-206.840609 Y199.268898 Z-5.250000 I-6.026180 J1.394399
G03 X-207.063000 Y200.772000 Z-5.250000 I-7.348935 J-0.319308
G03 X-207.573811 Y202.257139 Z-5.250000 I-9.538612 J-2.450372
G03 X-208.272000 Y203.725000 Z-5.250000 I-22.658928 J-9.877759
G03 X-208.816688 Y204.589445 Z-5.250000 I-5.358366 J-2.772488
G03 X-209.448000 Y205.406000 Z-5.250000 I-37.065544 J-28.004554
G03 X-209.692529 Y205.587403 Z-5.250000 I-0.464317 J-0.370380
G02 X-210.233000 Y205.838000 Z-5.250000 I2.001582 J5.025012
G02 X-210.171883 Y205.353433 Z-5.250000 I-6.071501 J-1.011917
G03 X-210.113000 Y205.165000 Z-5.250000 I0.456592 J0.039263
G02 X-209.501709 Y204.093419 Z-5.250000 I-93.419029 J-54.001717
G02 X-208.957000 Y203.004000 Z-5.250000 I-10.823927 J-6.092843
G02 X-208.554525 Y201.878931 Z-5.250000 I-7.733429 J-3.401034
G02 X-208.348000 Y200.640000 Z-5.250000 I-5.631955 J-1.575502
G03 X-208.176639 Y199.606200 Z-5.250000 I4.918489 J0.284179
G02 X-208.139000 Y198.630000 Z-5.250000 I-2.044606 J-0.567659
G02 X-208.375692 Y197.579110 Z-5.250000 I-19.670647 J3.878326
G02 X-208.658000 Y196.534000 Z-5.250000 I-34.015685 J8.627718
G02 X-208.966160 Y195.498255 Z-5.250000 I-56.640101 J16.288122
G03 X-209.281000 Y194.465000 Z-5.250000 I199.873705 J-61.467533
G02 X-209.573296 Y193.785469 Z-5.250000 I-3.198302 J0.973100
G03 X-209.882000 Y193.106000 Z-5.250000 I3.583819 J-2.038101
G02 X-210.457426 Y192.654715 Z-5.250000 I-0.640933 J0.224743
G02 X-211.021000 Y192.654000 Z-5.250000 I-0.285525 J2.946598
G02 X-211.399465 Y192.909167 Z-5.250000 I0.045677 J0.476002
G02 X-211.567000 Y193.403000 Z-5.250000 I1.517759 J0.790241
G02 X-211.513042 Y194.697571 Z-5.250000 I2.991310 J0.523731
G02 X-211.081000 Y195.819000 Z-5.250000 I5.242379 J-1.375740
G03 X-210.558120 Y197.133966 Z-5.250000 I-6.285565 J3.260821
G03 X-210.350000 Y198.386000 Z-5.250000 I-5.380002 J1.537606
G03 X-210.433507 Y199.657936 Z-5.250000 I-5.484288 J0.278647
G03 X-210.834000 Y201.009000 Z-5.250000 I-6.531652 J-1.201273
G03 X-211.184105 Y201.528717 Z-5.250000 I-1.465886 J-0.609705
G03 X-212.068000 Y201.880000 Z-5.250000 I-0.856180 J-0.866647
G02 X-212.072268 Y200.946112 Z-5.250000 I-8.960664 J-0.425999
G03 X-211.959000 Y200.102000 Z-5.250000 I2.250761 J-0.127634
G02 X-211.829350 Y198.210775 Z-5.250000 I-3.581033 J-1.195549
G02 X-212.302000 Y196.501000 Z-5.250000 I-10.344096 J1.939303
G02 X-212.785774 Y195.592616 Z-5.250000 I-3.553614 J1.309521
G02 X-213.446000 Y194.769000 Z-5.250000 I-8.547703 J6.175562
G02 X-213.944317 Y194.389168 Z-5.250000 I-1.213044 J1.074643
G02 X-214.561000 Y194.176000 Z-5.250000 I-1.163951 J2.368651
G02 X-215.303987 Y194.379757 Z-5.250000 I-0.174462 J0.820343
G02 X-215.656000 Y195.121000 Z-5.250000 I0.745037 J0.808020
G02 X-215.320930 Y196.348869 Z-5.250000 I1.985216 J0.117912
G03 X-214.665000 Y197.367000 Z-5.250000 I-25.372074 J17.066297
G03 X-214.445118 Y198.019033 Z-5.250000 I-1.296933 J0.800451
G02 X-214.368000 Y198.763000 Z-5.250000 I64.719408 J-6.332663
G03 X-214.446671 Y198.941099 Z-5.250000 I-0.194782 J0.020384
G03 X-214.784000 Y199.048000 Z-5.250000 I-0.325880 J-0.442645
G03 X-215.084240 Y198.973549 Z-5.250000 I0.025739 J-0.746417
G03 X-215.287000 Y198.777000 Z-5.250000 I0.196991 J-0.406074
G02 X-216.398366 Y197.522052 Z-5.250000 I-3.095422 J1.621688
G02 X-217.881000 Y196.845000 Z-5.250000 I-2.651346 J3.844123
G02 X-218.816502 Y196.940364 Z-5.250000 I-0.338787 J1.312799
G02 X-219.288000 Y197.598000 Z-5.250000 I0.376220 J0.767575
G02 X-219.174302 Y198.210212 Z-5.250000 I1.004178 J0.130171
G02 X-218.751000 Y198.801000 Z-5.250000 I2.551942 J-1.381434
G02 X-217.627405 Y199.917693 Z-5.250000 I13.456394 J-12.415952
G03 X-216.465000 Y201.001000 Z-5.250000 I-48.006038 J52.676495
G03 X-215.555695 Y201.892183 Z-5.250000 I-33.136393 J34.719702
G03 X-214.691000 Y202.816000 Z-5.250000 I-15.040089 J14.944148
G03 X-213.893535 Y203.792336 Z-5.250000 I-12.309152 J10.867890
G03 X-213.180000 Y204.851000 Z-5.250000 I-9.538480 J7.198684
G03 X-213.111831 Y205.000979 Z-5.250000 I-0.631393 J0.377463
G03 X-213.076000 Y205.163000 Z-5.250000 I-0.816819 J0.265614
G02 X-212.845256 Y206.720500 Z-5.250000 I26.587025 J-3.143040
G03 X-212.756000 Y208.259000 Z-5.250000 I-6.414275 J1.143961
G03 X-212.887388 Y209.315520 Z-5.250000 I-8.586413 J-0.531367
G03 X-213.164000 Y210.325000 Z-5.250000 I-6.294322 J-1.182099
G03 X-213.596478 Y211.245884 Z-5.250000 I-5.417241 J-1.982122
G03 X-214.238000 Y212.131000 Z-5.250000 I-4.740038 J-2.760484
G02 X-214.615134 Y212.786280 Z-5.250000 I1.376169 J1.228194
G03 X-214.958000 Y213.497000 Z-5.250000 I-2.814266 J-0.919598
G03 X-215.306758 Y213.922114 Z-5.250000 I-2.229734 J-1.473630
G03 X-215.741000 Y214.203000 Z-5.250000 I-0.887388 J-0.895771
G03 X-216.405399 Y214.273796 Z-5.250000 I-0.464444 J-1.205678
G03 X-216.622000 Y214.087000 Z-5.250000 I0.041916 J-0.267582
G03 X-216.747809 Y213.431493 Z-5.250000 I2.965171 J-0.908922
G03 X-216.654000 Y212.811000 Z-5.250000 I1.360969 J-0.111579
G03 X-216.145866 Y211.893948 Z-5.250000 I3.928707 J1.577574
G02 X-215.612000 Y210.980000 Z-5.250000 I-4.221975 J-3.079088
G02 X-215.132064 Y209.819314 Z-5.250000 I-16.505676 J-7.504552
G02 X-214.810000 Y208.654000 Z-5.250000 I-6.458328 J-2.412087
G02 X-214.731254 Y207.493516 Z-5.250000 I-5.033029 J-0.924434
G02 X-214.981000 Y206.224000 Z-5.250000 I-4.379511 J0.202236
G02 X-215.367840 Y205.230701 Z-5.250000 I-17.194769 J6.124515
G02 X-215.828000 Y204.292000 Z-5.250000 I-8.723761 J3.694335
G02 X-216.388646 Y203.432946 Z-5.250000 I-6.649992 J3.727524
G02 X-217.112000 Y202.627000 Z-5.250000 I-5.041913 J3.797637
G03 X-217.802025 Y201.935265 Z-5.250000 I10.223455 J-10.888209
G03 X-218.466000 Y201.214000 Z-5.250000 I48.522650 J-45.334754
G02 X-219.131232 Y200.493841 Z-5.250000 I-52.313816 J47.656478
G02 X-219.823000 Y199.805000 Z-5.250000 I-10.233452 J9.585161
G02 X-220.616962 Y199.240211 Z-5.250000 I-2.568280 J2.769946
G02 X-221.526000 Y198.848000 Z-5.250000 I-2.851040 J5.358375
G02 X-222.700579 Y199.072786 Z-5.250000 I-0.389765 J1.144522
G02 X-223.065000 Y200.114000 Z-5.250000 I0.710994 J0.833225
G02 X-222.884561 Y200.545397 Z-5.250000 I1.142754 J-0.224541
G02 X-222.552000 Y200.891000 Z-5.250000 I1.185893 J-0.808334
G03 X-221.610001 Y201.695422 Z-5.250000 I-5.225836 J7.073354
G03 X-220.801000 Y202.581000 Z-5.250000 I-7.897080 J8.026521
G03 X-220.077615 Y203.545354 Z-5.250000 I-10.748607 J8.816273
G03 X-219.403000 Y204.580000 Z-5.250000 I-22.742767 J15.566117
G03 X-218.923633 Y205.428222 Z-5.250000 I-10.028951 J6.227363
G03 X-218.541000 Y206.283000 Z-5.250000 I-7.984453 J4.087190
G03 X-218.250720 Y207.183825 Z-5.250000 I-7.501697 J2.914511
G03 X-218.070000 Y208.132000 Z-5.250000 I-7.242979 J1.871808
G03 X-218.099936 Y209.224196 Z-5.250000 I-3.625664 J0.447133
G03 X-218.396000 Y210.150000 Z-5.250000 I-3.634347 J-0.651991
G03 X-218.924877 Y211.001798 Z-5.250000 I-3.943622 J-1.858488
G03 X-219.649000 Y211.783000 Z-5.250000 I-5.450667 J-4.326200
G02 X-220.280954 Y212.836230 Z-5.250000 I1.492725 J1.611863
G02 X-220.418000 Y213.991000 Z-5.250000 I4.059125 J1.067248
G02 X-220.349397 Y215.285251 Z-5.250000 I19.782377 J-0.399644
G03 X-220.735000 Y216.665000 Z-5.250000 I-2.035474 J0.174897
G03 X-221.505909 Y217.400298 Z-5.250000 I-2.434521 J-1.780655
G03 X-222.385000 Y217.868000 Z-5.250000 I-2.886341 J-4.365140
G03 X-224.115659 Y218.389577 Z-5.250000 I-3.449904 J-8.315154
G03 X-225.938000 Y218.469000 Z-5.250000 I-1.176435 J-6.046747
G03 X-226.545950 Y218.330296 Z-5.250000 I0.272159 J-2.594586
G03 X-226.725000 Y218.105000 Z-5.250000 I0.092096 J-0.256988
G03 X-226.513580 Y217.612528 Z-5.250000 I0.535895 J-0.061556
G03 X-225.979000 Y217.362000 Z-5.250000 I0.863288 J1.146483
G02 X-224.606573 Y217.038377 Z-5.250000 I-101.673567 J-434.250656
G02 X-223.251000 Y216.657000 Z-5.250000 I-3.959641 J-16.674061
G02 X-222.270856 Y215.817896 Z-5.250000 I-0.521256 J-1.600867
G02 X-222.183000 Y214.631000 Z-5.250000 I-1.376957 J-0.698624
G02 X-222.345422 Y214.324925 Z-5.250000 I-0.973518 J0.320475
G02 X-222.541000 Y214.234000 Z-5.250000 I-0.185566 J0.143345
G02 X-223.536773 Y214.314061 Z-5.250000 I0.593951 J13.619914
G02 X-224.531000 Y214.431000 Z-5.250000 I285.855167 J2434.659243
G02 X-224.606944 Y214.493790 Z-5.250000 I0.009925 J0.089326
G03 X-224.680000 Y214.551000 Z-5.250000 I-0.077743 J-0.024025
G02 X-225.446615 Y214.667937 Z-5.250000 I0.171054 J3.692744
G03 X-225.739000 Y214.551000 Z-5.250000 I-0.067154 J-0.256092
G03 X-225.688085 Y214.033449 Z-5.250000 I0.367895 J-0.225088
G03 X-225.236000 Y213.677000 Z-5.250000 I1.345049 J1.241014
G03 X-223.728711 Y212.850481 Z-5.250000 I56.670906 J101.560764
G02 X-222.248000 Y211.984000 Z-5.250000 I-11.539225 J-21.417556
G02 X-221.040626 Y210.908162 Z-5.250000 I-2.663936 J-4.205055
G02 X-220.326000 Y209.397000 Z-5.250000 I-2.756474 J-2.228085
G03 X-220.138888 Y208.714887 Z-5.250000 I5.348824 J1.100532
G02 X-220.036000 Y208.047000 Z-5.250000 I-1.786986 J-0.617152
G02 X-220.157440 Y206.912616 Z-5.250000 I-7.084536 J0.184734
G02 X-220.445000 Y205.852000 Z-5.250000 I-6.969654 J1.320360
G02 X-220.889630 Y204.844211 Z-5.250000 I-6.974720 J2.475224
G02 X-221.491000 Y203.877000 Z-5.250000 I-7.587423 J4.046971
G02 X-222.251136 Y202.909706 Z-5.250000 I-11.596140 J8.330360
G02 X-223.085000 Y202.005000 Z-5.250000 I-13.141632 J11.275959
G02 X-224.052779 Y201.328285 Z-5.250000 I-2.339229 J2.314988
G02 X-225.220000 Y201.113000 Z-5.250000 I-1.009722 J2.202623
G02 X-225.807490 Y201.266192 Z-5.250000 I0.106030 J1.609727
G02 X-226.153000 Y201.623000 Z-5.250000 I0.305414 J0.641432
G02 X-226.298081 Y202.282789 Z-5.250000 I1.628934 J0.704031
G02 X-226.124000 Y202.861000 Z-5.250000 I0.967190 J0.024121
G02 X-225.229626 Y203.954544 Z-5.250000 I7.828104 J-5.489839
G03 X-224.258000 Y204.999000 Z-5.250000 I-50.731842 J48.168473
G03 X-223.360126 Y206.592777 Z-5.250000 I-3.035669 J2.759984
G03 X-223.225000 Y208.389000 Z-5.250000 I-4.082244 J1.210293
G03 X-223.401554 Y208.843998 Z-5.250000 I-1.053666 J-0.147103
G03 X-223.737000 Y209.252000 Z-5.250000 I-2.519324 J-1.729411
G03 X-224.578924 Y210.095337 Z-5.250000 I-33.912701 J-33.013954
G03 X-225.486000 Y210.847000 Z-5.250000 I-5.045148 J-5.165135
G03 X-225.987743 Y210.968006 Z-5.250000 I-0.405786 J-0.581841
G02 X-226.639000 Y210.912000 Z-5.250000 I-0.886307 J6.491812
G03 X-226.779817 Y210.816901 Z-5.250000 I0.020189 J-0.181702
G03 X-226.776000 Y210.564000 Z-5.250000 I0.228722 J-0.123027
G03 X-226.510182 Y210.117396 Z-5.250000 I16.913140 J9.764287
G03 X-226.179000 Y209.754000 Z-5.250000 I1.116192 J0.684634
G02 X-225.459887 Y208.916095 Z-5.250000 I-1.563352 J-2.069246
G02 X-225.082000 Y207.800000 Z-5.250000 I-3.096184 J-1.670324
G02 X-225.106310 Y206.620207 Z-5.250000 I-3.290003 J-0.522356
G02 X-225.578000 Y205.630000 Z-5.250000 I-2.208593 J0.444625
G02 X-226.400180 Y204.773012 Z-5.250000 I-6.153553 J5.080730
G02 X-227.311000 Y203.999000 Z-5.250000 I-14.644629 J16.310181
G02 X-228.469446 Y203.704546 Z-5.250000 I-0.902975 J1.126483
G02 X-229.450000 Y204.335000 Z-5.250000 I0.268990 J1.496125
G02 X-229.562344 Y204.992959 Z-5.250000 I0.644701 J0.448651
G02 X-228.973000 Y206.037000 Z-5.250000 I2.390097 J-0.660813
G02 X-228.527257 Y206.468097 Z-5.250000 I5.498374 J-5.239191
G03 X-228.119000 Y206.921000 Z-5.250000 I-1.858756 J2.085980
G03 X-227.973564 Y207.280577 Z-5.250000 I-0.663405 J0.477524
G02 X-227.885000 Y207.695000 Z-5.250000 I3.191889 J-0.465447
G02 X-228.408003 Y207.727450 Z-5.250000 I-0.059913 J3.265267
G03 X-228.855000 Y207.655000 Z-5.250000 I-0.107610 J-0.751223
G03 X-229.476399 Y207.259502 Z-5.250000 I1.599547 J-3.199095
G03 X-230.032000 Y206.761000 Z-5.250000 I3.781196 J-4.773168
G02 X-230.808892 Y206.389267 Z-5.250000 I-0.901062 J0.885459
G02 X-231.571000 Y206.387000 Z-5.250000 I-0.392890 J3.977908
G02 X-232.257105 Y206.956002 Z-5.250000 I0.070671 J0.783371
G02 X-232.048000 Y208.165000 Z-5.250000 I1.364643 J0.386557
G02 X-231.435733 Y208.915349 Z-5.250000 I6.001055 J-4.271744
G02 X-230.752000 Y209.609000 Z-5.250000 I12.721861 J-11.856164
G03 X-229.950990 Y210.634137 Z-5.250000 I-3.149495 J3.286429
G03 X-229.474000 Y211.828000 Z-5.250000 I-4.004240 J2.292051
G02 X-229.072381 Y213.382712 Z-5.250000 I63.058254 J-15.460228
G03 X-228.766000 Y214.946000 Z-5.250000 I-10.740068 J2.916556
G03 X-228.814798 Y215.857714 Z-5.250000 I-2.585263 J0.318791
G03 X-229.075000 Y216.782000 Z-5.250000 I-10.443868 J-2.441355
G03 X-229.560632 Y218.034540 Z-5.250000 I-12.786310 J-4.237062
G03 X-230.187000 Y219.150000 Z-5.250000 I-6.365279 J-2.840725
G03 X-231.003723 Y220.087053 Z-5.250000 I-4.565060 J-3.154398
G03 X-232.135000 Y220.867000 Z-5.250000 I-3.372394 J-3.681095
G03 X-232.586861 Y220.980309 Z-5.250000 I-0.478177 J-0.949270
G02 X-233.027000 Y221.020000 Z-5.250000 I0.084003 J3.391767
G03 X-232.913518 Y220.225768 Z-5.250000 I0.592693 J-0.320538
G03 X-232.539000 Y219.937000 Z-5.250000 I1.255416 J1.240964
G02 X-231.517806 Y219.144648 Z-5.250000 I-2.366837 J-4.104650
G02 X-230.871000 Y218.260000 Z-5.250000 I-2.753650 J-2.692098
G02 X-230.482649 Y217.204071 Z-5.250000 I-3.637814 J-1.937297
G02 X-230.342000 Y215.945000 Z-5.250000 I-5.945744 J-1.301584
G02 X-230.340618 Y214.339379 Z-5.250000 I-165.778874 J-0.945507
G02 X-230.562000 Y212.799000 Z-5.250000 I-5.625537 J0.022400
G02 X-230.916304 Y211.706594 Z-5.250000 I-17.589088 J5.101076
G02 X-231.394000 Y210.674000 Z-5.250000 I-6.070168 J2.181372
G02 X-232.035543 Y209.807121 Z-5.250000 I-4.102995 J2.365633
G02 X-232.979000 Y209.065000 Z-5.250000 I-2.876873 J2.686598
G02 X-233.597801 Y209.010447 Z-5.250000 I-0.369547 J0.654982
G02 X-234.081000 Y209.463000 Z-5.250000 I0.272209 J0.774879
G02 X-234.022380 Y210.704951 Z-5.250000 I1.315532 J0.560265
G02 X-233.423000 Y211.630000 Z-5.250000 I6.219149 J-3.372950
G03 X-232.894788 Y212.401475 Z-5.250000 I-6.970542 J5.339139
G03 X-232.590000 Y213.319000 Z-5.250000 I-1.839351 J1.120391
G02 X-232.405714 Y214.492639 Z-5.250000 I9.581690 J-0.903242
G03 X-232.260000 Y215.661000 Z-5.250000 I-6.161282 J1.361679
G03 X-232.361091 Y216.428467 Z-5.250000 I-2.421067 J0.071488
G03 X-232.627000 Y217.186000 Z-5.250000 I-8.337662 J-2.501249
G03 X-232.870676 Y217.447294 Z-5.250000 I-0.465128 J-0.189497
G03 X-233.276000 Y217.549000 Z-5.250000 I-0.440344 J-0.896370
G03 X-233.491743 Y217.435921 Z-5.250000 I-0.012255 J-0.238966
G03 X-233.625000 Y216.980000 Z-5.250000 I0.758156 J-0.469030
G03 X-233.586056 Y216.028727 Z-5.250000 I7.958304 J-0.150630
G02 X-233.532000 Y215.076000 Z-5.250000 I-10.772840 J-1.089128
G02 X-233.816730 Y213.382280 Z-5.250000 I-4.817762 J-0.060882
G02 X-234.589000 Y211.860000 Z-5.250000 I-6.505887 J2.343479
G02 X-235.151112 Y211.448087 Z-5.250000 I-0.854004 J0.575910
G02 X-235.815000 Y211.439000 Z-5.250000 I-0.348133 J1.178153
G02 X-236.192196 Y211.802046 Z-5.250000 I0.139915 J0.522840
G02 X-236.284000 Y212.338000 Z-5.250000 I2.002864 J0.618911
G02 X-236.117455 Y213.436943 Z-5.250000 I2.955110 J0.114244
G02 X-235.651000 Y214.411000 Z-5.250000 I4.760851 J-1.681153
G03 X-235.336997 Y215.773222 Z-5.250000 I-1.846442 J1.142921
G03 X-235.900000 Y216.733000 Z-5.250000 I-1.329685 J-0.134973
G03 X-236.092333 Y216.823334 Z-5.250000 I-0.355929 J-0.507899
G02 X-236.461000 Y216.939000 Z-5.250000 I1.374866 J5.027554
G01 X-236.461000 Y216.065000 Z-5.250000
G02 X-236.740783 Y215.052251 Z-5.250000 I-1.981628 J0.002425
G02 X-237.262000 Y214.722000 Z-5.250000 I-0.587157 J0.350247
G02 X-238.235851 Y214.995196 Z-5.250000 I-0.136056 J1.387328
G02 X-238.757000 Y215.916000 Z-5.250000 I0.795793 J1.058276
G02 X-238.584412 Y217.470923 Z-5.250000 I3.668632 J0.379841
G02 X-237.413000 Y218.987000 Z-5.250000 I2.773133 J-0.932099
G03 X-236.931462 Y219.428466 Z-5.250000 I-1.112048 J1.696344
G03 X-236.517000 Y219.969000 Z-5.250000 I-20.741467 J16.332989
G03 X-236.423047 Y220.262524 Z-5.250000 I-0.376351 J0.282264
G03 X-236.525000 Y220.452000 Z-5.250000 I-0.237617 J-0.005689
G03 X-236.881549 Y220.650033 Z-5.250000 I-1.070182 J-1.506816
G03 X-237.162000 Y220.636000 Z-5.250000 I-0.125566 J-0.299975
G03 X-237.957662 Y220.139893 Z-5.250000 I3.715735 J-6.845431
G02 X-238.734000 Y219.607000 Z-5.250000 I-16.826925 J23.682154
G03 X-239.236941 Y219.262654 Z-5.250000 I10.189577 J-15.422063
G02 X-239.759000 Y218.968000 Z-5.250000 I-1.686195 J2.377734
G02 X-240.435881 Y219.013150 Z-5.250000 I-0.295118 J0.672051
G02 X-240.815000 Y219.567000 Z-5.250000 I0.424686 J0.697386
G02 X-240.626484 Y220.950300 Z-5.250000 I2.226050 J0.401130
G02 X-239.834000 Y221.971000 Z-5.250000 I2.778769 J-1.339473
G02 X-238.795170 Y222.722620 Z-5.250000 I5.557420 J-6.587328
G02 X-237.657000 Y223.307000 Z-5.250000 I4.329623 J-7.032034
G02 X-236.826579 Y223.459263 Z-5.250000 I0.765749 J-1.835651
G03 X-235.917000 Y223.467000 Z-5.250000 I0.360555 J11.082862
G02 X-235.369544 Y223.477805 Z-5.250000 I0.445867 J-8.716692
G03 X-234.544000 Y223.473000 Z-5.250000 I0.825544 J70.922341
G02 X-234.812753 Y223.976901 Z-5.250000 I3.176625 J2.017856
G03 X-235.034000 Y224.215000 Z-5.250000 I-0.452920 J-0.199021
G03 X-236.398311 Y224.724298 Z-5.250000 I-2.674824 J-5.083323
G03 X-237.650000 Y224.805000 Z-5.250000 I-0.866995 J-3.699908
G03 X-238.814286 Y224.478238 Z-5.250000 I0.363378 J-3.532371
G03 X-240.048000 Y223.631000 Z-5.250000 I2.058287 J-4.319054
G02 X-240.577009 Y223.237528 Z-5.250000 I-1.905609 J2.009669
G02 X-241.181000 Y222.988000 Z-5.250000 I-1.268110 J2.213750
G02 X-241.789114 Y222.948246 Z-5.250000 I-0.403530 J1.501746
G02 X-242.129000 Y223.173000 Z-5.250000 I0.061332 J0.462124
G02 X-242.291371 Y223.718046 Z-5.250000 I1.016988 J0.599672
G02 X-242.179000 Y224.287000 Z-5.250000 I1.212248 J0.056150
G02 X-241.433383 Y225.362675 Z-5.250000 I3.480270 J-1.616135
G02 X-240.284000 Y226.191000 Z-5.250000 I3.004475 J-2.957404
G02 X-238.891627 Y226.828588 Z-5.250000 I12.523309 J-25.509436
G02 X-237.399000 Y227.190000 Z-5.250000 I1.832156 J-4.303810
G03 X-236.978809 Y227.312320 Z-5.250000 I-0.077968 J1.050710
G02 X-236.562000 Y227.425000 Z-5.250000 I0.450711 J-0.839963
G02 X-234.998391 Y227.309234 Z-5.250000 I0.259814 J-7.108234
G02 X-233.649000 Y226.890000 Z-5.250000 I-1.110426 J-5.955394
G02 X-232.432682 Y226.177745 Z-5.250000 I-2.559628 J-5.765759
G02 X-231.267000 Y225.123000 Z-5.250000 I-5.024459 J-6.724441
G03 X-230.350546 Y224.175162 Z-5.250000 I17.244326 J15.756371
G03 X-229.373000 Y223.293000 Z-5.250000 I11.550806 J11.817038
G03 X-228.333086 Y222.503220 Z-5.250000 I9.277827 J11.136711
G03 X-227.200000 Y221.811000 Z-5.250000 I6.733299 J9.748178
G03 X-225.695150 Y221.411602 Z-5.250000 I1.593192 J2.968138
G03 X-224.207000 Y221.540000 Z-5.250000 I0.174778 J6.662423
G03 X-223.616698 Y221.867290 Z-5.250000 I-0.219373 J1.091643
G03 X-223.100000 Y222.475000 Z-5.250000 I-5.581988 J5.269533
G02 X-222.418441 Y223.255881 Z-5.250000 I6.319817 J-4.828113
G02 X-221.678000 Y223.897000 Z-5.250000 I4.672639 J-4.648387
G02 X-220.861024 Y224.414558 Z-5.250000 I3.846163 J-5.167665
G02 X-219.903000 Y224.839000 Z-5.250000 I3.400853 J-6.382771
G02 X-218.966301 Y225.058866 Z-5.250000 I1.428302 J-3.979768
G02 X-218.044000 Y225.135000 Z-5.250000 I1.574863 J-13.453647
G03 X-217.098789 Y225.190068 Z-5.250000 I-2.500827 J51.065266
G03 X-216.169000 Y225.346000 Z-5.250000 I-0.322408 J4.772464
G03 X-214.815851 Y226.165606 Z-5.250000 I-0.738989 J2.746863
G03 X-214.332000 Y227.885000 Z-5.250000 I-1.450145 J1.335859
G03 X-214.471820 Y228.233867 Z-5.250000 I-0.998465 J-0.197716
G03 X-214.713000 Y228.410000 Z-5.250000 I-0.345539 J-0.219958
G03 X-215.004802 Y228.377383 Z-5.250000 I-0.105016 J-0.382078
G03 X-215.320000 Y228.160000 Z-5.250000 I0.801072 J-1.498735
G03 X-215.525717 Y227.889914 Z-5.250000 I0.571376 J-0.648589
G02 X-215.703000 Y227.576000 Z-5.250000 I-2.665198 J1.298153
G02 X-216.633107 Y226.805047 Z-5.250000 I-1.697911 J1.101889
G02 X-217.814000 Y226.781000 Z-5.250000 I-0.621564 J1.516133
G03 X-219.016974 Y227.019685 Z-5.250000 I-1.374873 J-3.778531
G03 X-220.050000 Y226.917000 Z-5.250000 I-0.156972 J-3.668377
G03 X-221.070599 Y226.525175 Z-5.250000 I1.025838 J-4.197141
G03 X-222.058000 Y225.887000 Z-5.250000 I3.468126 J-6.448925
G03 X-223.266660 Y224.766995 Z-5.250000 I5.382831 J-7.021084
G02 X-224.413000 Y223.554000 Z-5.250000 I-23.059401 J20.644093
G02 X-225.484894 Y223.059748 Z-5.250000 I-1.203970 J1.201628
G02 X-226.673000 Y223.203000 Z-5.250000 I-0.236518 J3.036943
G02 X-228.154983 Y224.254215 Z-5.250000 I0.963328 J2.928325
G03 X-229.393000 Y225.447000 Z-5.250000 I-4.583597 J-3.518537
G02 X-230.374381 Y226.180482 Z-5.250000 I14.872311 J20.922065
G03 X-231.348000 Y226.930000 Z-5.250000 I-39.398775 J-50.171623
G03 X-232.356154 Y227.647093 Z-5.250000 I-13.351199 J-17.703099
G03 X-233.406000 Y228.258000 Z-5.250000 I-5.339546 J-7.968493
G03 X-234.961046 Y228.793642 Z-5.250000 I-2.783454 J-5.555685
G03 X-236.847000 Y228.578000 Z-5.250000 I-0.609645 J-3.023058
G02 X-237.164351 Y228.543993 Z-5.250000 I-0.210780 J0.469236
G03 X-237.500000 Y228.526000 Z-5.250000 I-0.134308 J-0.634220
G02 X-238.462159 Y228.215945 Z-5.250000 I-250.668088 J776.223375
G03 X-239.424000 Y227.902000 Z-5.250000 I35.387994 J-110.049295
G03 X-240.380242 Y227.575504 Z-5.250000 I21.961416 J-65.884248
G03 X-241.329000 Y227.228000 Z-5.250000 I11.266966 J-32.230036
G02 X-242.546720 Y227.033307 Z-5.250000 I-1.078042 J2.837190
G02 X-243.394000 Y227.369000 Z-5.250000 I0.064492 J1.399880
G02 X-243.646993 Y228.019145 Z-5.250000 I0.479140 J0.560745
G02 X-243.438000 Y228.549000 Z-5.250000 I1.124185 J-0.137272
G02 X-242.250216 Y229.670924 Z-5.250000 I3.576995 J-2.597259
G02 X-240.717000 Y230.292000 Z-5.250000 I2.415632 J-3.760312
G03 X-239.548506 Y230.533071 Z-5.250000 I-19.309566 J96.547830
G03 X-238.381000 Y230.784000 Z-5.250000 I-56.610620 J266.235438
G03 X-237.215426 Y231.037989 Z-5.250000 I-327.187551 J1504.288673
G02 X-236.049000 Y231.289000 Z-5.250000 I42.721800 J-195.688884
G03 X-235.316827 Y231.482721 Z-5.250000 I-1.529522 J7.261367
G02 X-234.635000 Y231.520000 Z-5.250000 I0.412393 J-1.288699
G03 X-233.360333 Y231.273094 Z-5.250000 I13.356959 J65.542289
G02 X-232.098000 Y230.978000 Z-5.250000 I-2.439281 J-13.282111
G02 X-230.910384 Y230.537660 Z-5.250000 I-2.239076 J-7.860585
G02 X-229.791000 Y229.833000 Z-5.250000 I-2.151960 J-4.659909
G02 X-228.669928 Y228.765285 Z-5.250000 I-6.997889 J-8.470006
G03 X-227.550000 Y227.698000 Z-5.250000 I8.148764 J7.429463
G03 X-226.688484 Y227.075957 Z-5.250000 I5.121524 J6.185585
G03 X-225.746000 Y226.677000 Z-5.250000 I1.717467 J2.744567
G03 X-225.143038 Y226.938608 Z-5.250000 I0.129726 J0.526670
G03 X-225.185000 Y227.647000 Z-5.250000 I-0.573900 J0.321444
G03 X-225.744237 Y228.298730 Z-5.250000 I-4.267238 J-3.095839
G03 X-226.393000 Y228.866000 Z-5.250000 I-4.922459 J-4.974987
G03 X-227.299068 Y229.559179 Z-5.250000 I-197.909165 J-257.752109
G03 X-228.211000 Y230.244000 Z-5.250000 I-48.076165 J-63.070370
G03 X-229.134912 Y230.914626 Z-5.250000 I-36.405245 J-49.183245
G03 X-230.072000 Y231.562000 Z-5.250000 I-23.602907 J-33.163813
G03 X-230.996607 Y232.138495 Z-5.250000 I-9.572790 J-14.323554
G03 X-231.957000 Y232.609000 Z-5.250000 I-3.818707 J-6.579292
G03 X-232.955511 Y232.911957 Z-5.250000 I-2.190316 J-5.422065
G03 X-234.065000 Y233.007000 Z-5.250000 I-0.949560 J-4.561359
G02 X-235.715060 Y232.966782 Z-5.250000 I-2.983426 J88.535186
G03 X-237.356000 Y232.865000 Z-5.250000 I0.263946 J-17.533886
G03 X-238.787933 Y232.511967 Z-5.250000 I0.600601 J-5.516630
G03 X-240.168000 Y231.907000 Z-5.250000 I7.238706 J-18.389737
G02 X-241.731866 Y231.254507 Z-5.250000 I-6.682507 J13.815981
G02 X-243.358000 Y230.782000 Z-5.250000 I-4.934991 J13.949365
G02 X-244.099042 Y231.086049 Z-5.250000 I-0.155645 J0.675729
G02 X-244.186000 Y231.990000 Z-5.250000 I0.846742 J0.537612
G02 X-243.232604 Y233.182676 Z-5.250000 I2.397922 J-0.939441
G02 X-241.981000 Y233.933000 Z-5.250000 I7.387478 J-10.903895
G02 X-241.112387 Y234.334074 Z-5.250000 I4.383650 J-8.352630
G03 X-240.242000 Y234.733000 Z-5.250000 I-3.723988 J9.274066
G03 X-240.000895 Y234.951225 Z-5.250000 I-0.291854 J0.564757
G03 X-239.952000 Y235.208000 Z-5.250000 I-0.289360 J0.188143
G03 X-240.095009 Y235.502718 Z-5.250000 I-0.645718 J-0.131272
G03 X-240.360000 Y235.674000 Z-5.250000 I-0.415348 J-0.351962
G03 X-240.769171 Y235.726464 Z-5.250000 I-0.377864 J-1.325184
G03 X-241.167000 Y235.642000 Z-5.250000 I0.024918 J-1.096494
G03 X-242.168377 Y235.191426 Z-5.250000 I7.446467 J-17.887420
G03 X-243.145000 Y234.689000 Z-5.250000 I9.983031 J-20.605563
G02 X-244.066127 Y234.482829 Z-5.250000 I-0.822606 J1.514439
G02 X-244.611000 Y234.796000 Z-5.250000 I0.040102 J0.700358
G02 X-244.836184 Y235.781403 Z-5.250000 I1.200376 J0.792740
G02 X-244.313000 Y236.588000 Z-5.250000 I1.115863 J-0.150808
G02 X-243.398248 Y237.111546 Z-5.250000 I8.162465 J-13.200752
G02 X-242.457000 Y237.560000 Z-5.250000 I5.904529 J-11.180839
G02 X-241.495047 Y237.923890 Z-5.250000 I4.722975 J-11.031894
G02 X-240.468000 Y238.210000 Z-5.250000 I3.548986 J-10.753320
G02 X-239.332415 Y238.290075 Z-5.250000 I0.826252 J-3.625297
G02 X-238.535000 Y238.071000 Z-5.250000 I-0.187175 J-2.242102
G02 X-237.826634 Y237.554412 Z-5.250000 I-1.091832 J-2.241128
G02 X-237.159000 Y236.689000 Z-5.250000 I-3.700800 J-3.545265
G03 X-236.655014 Y236.143223 Z-5.250000 I1.645779 J1.014175
G03 X-235.894000 Y235.898000 Z-5.250000 I0.750356 J1.025159
G03 X-235.400540 Y236.163311 Z-5.250000 I-0.006503 J0.603650
G03 X-235.355000 Y236.728000 Z-5.250000 I-0.476747 J0.322629
G03 X-235.967399 Y237.808778 Z-5.250000 I-6.912371 J-3.202853
G03 X-236.701000 Y238.631000 Z-5.250000 I-3.478426 J-2.365136
G03 X-237.580091 Y239.193516 Z-5.250000 I-2.422567 J-2.817774
G03 X-238.823000 Y239.566000 Z-5.250000 I-1.970692 J-4.315914
G03 X-239.951985 Y239.617824 Z-5.250000 I-0.801177 J-5.130225
G03 X-240.940000 Y239.466000 Z-5.250000 I0.353820 J-5.593254
G03 X-241.938086 Y239.138196 Z-5.250000 I1.669197 J-6.765679
G03 X-242.921000 Y238.691000 Z-5.250000 I6.044601 J-14.589524
G02 X-244.260014 Y238.422888 Z-5.250000 I-1.165376 J2.342436
G02 X-245.278000 Y238.950000 Z-5.250000 I0.095133 J1.430277
G02 X-245.526828 Y239.698763 Z-5.250000 I0.861617 J0.702058
G02 X-245.224000 Y240.334000 Z-5.250000 I0.896798 J-0.037719
G02 X-244.355294 Y241.056423 Z-5.250000 I13.418385 J-15.251953
G02 X-243.406000 Y241.571000 Z-5.250000 I1.980928 J-2.521507
G03 X-242.163421 Y241.997825 Z-5.250000 I-44.025958 J130.191047
G02 X-240.906000 Y242.379000 Z-5.250000 I5.238921 J-15.017595
G02 X-239.644692 Y242.622091 Z-5.250000 I2.524011 J-9.702389
G02 X-238.304000 Y242.652000 Z-5.250000 I0.813648 J-6.408572
G02 X-236.697927 Y242.337200 Z-5.250000 I-0.588319 J-7.255929
G02 X-235.367000 Y241.737000 Z-5.250000 I-1.877808 J-5.939734
G02 X-234.194054 Y240.834450 Z-5.250000 I-3.335000 J-5.547583
G02 X-233.147000 Y239.599000 Z-5.250000 I-5.803238 J-5.979714
G02 X-232.526090 Y238.556247 Z-5.250000 I-7.291671 J-5.048080
G02 X-232.000000 Y237.455000 Z-5.250000 I-23.750219 J-12.022297
G02 X-231.822176 Y236.757919 Z-5.250000 I-1.926798 J-0.862745
G03 X-231.510000 Y235.960000 Z-5.250000 I1.471981 J0.115866
G03 X-230.897918 Y235.384627 Z-5.250000 I2.226257 J1.755041
G03 X-230.255000 Y234.996000 Z-5.250000 I3.447613 J4.977379
G02 X-229.328056 Y234.510779 Z-5.250000 I-186.320944 J-357.067072
G02 X-228.422000 Y234.005000 Z-5.250000 I-9.426237 J-17.950670
G02 X-227.559687 Y233.447185 Z-5.250000 I-6.954599 J-11.696370
G02 X-226.734000 Y232.788000 Z-5.250000 I-4.912975 J-7.000648
G03 X-225.973279 Y232.136856 Z-5.250000 I13.124478 J14.563179
G03 X-225.180000 Y231.518000 Z-5.250000 I15.946157 J19.622676
G03 X-224.365402 Y230.929353 Z-5.250000 I18.181167 J24.302009
G03 X-223.538000 Y230.365000 Z-5.250000 I27.048517 J38.767320
G03 X-222.924465 Y230.162968 Z-5.250000 I0.670954 J1.004954
G03 X-222.198000 Y230.185000 Z-5.250000 I0.222024 J4.667093
G02 X-220.639452 Y230.224676 Z-5.250000 I1.026054 J-9.674227
G02 X-219.089000 Y229.976000 Z-5.250000 I-0.412889 J-7.532037
G03 X-218.439736 Y229.940443 Z-5.250000 I0.408135 J1.506961
G03 X-217.822000 Y230.166000 Z-5.250000 I-0.262051 J1.676360
G02 X-216.779259 Y230.697997 Z-5.250000 I4.270617 J-7.082719
G02 X-215.729000 Y231.055000 Z-5.250000 I2.956912 J-6.975499
G02 X-214.635625 Y231.257301 Z-5.250000 I1.941432 J-7.437018
G02 X-213.468000 Y231.310000 Z-5.250000 I0.985788 J-8.880014
G03 X-212.977300 Y231.426994 Z-5.250000 I0.018635 J1.009391
G03 X-212.489000 Y231.706000 Z-5.250000 I-4.040918 J7.638985
G03 X-212.265788 Y232.133322 Z-5.250000 I-0.245642 J0.400270
G03 X-212.531000 Y232.559000 Z-5.250000 I-0.522623 J-0.030155
G03 X-213.528230 Y232.887519 Z-5.250000 I-1.327606 J-2.352172
G03 X-214.587000 Y232.747000 Z-5.250000 I-0.259383 J-2.104648
G03 X-215.473628 Y232.382593 Z-5.250000 I53.971133 J-132.576390
G02 X-216.358000 Y232.017000 Z-5.250000 I-140.410051 J338.400443
G02 X-217.244906 Y231.656736 Z-5.250000 I-37.583597 J91.252355
G02 X-218.137000 Y231.310000 Z-5.250000 I-17.301443 J43.192737
G02 X-218.613143 Y231.211155 Z-5.250000 I-0.553828 J1.471600
G02 X-219.072000 Y231.291000 Z-5.250000 I-0.052322 J1.057725
G03 X-220.016355 Y231.619564 Z-5.250000 I-3.229552 J-7.760938
G03 X-220.963000 Y231.836000 Z-5.250000 I-2.612576 J-9.248412
G03 X-221.925932 Y231.960292 Z-5.250000 I-1.865290 J-10.658801
G03 X-222.925000 Y232.011000 Z-5.250000 I-1.272799 J-15.209834
G02 X-223.680665 Y232.237061 Z-5.250000 I0.027283 J1.467234
G02 X-224.341000 Y232.801000 Z-5.250000 I1.613655 J2.558053
G03 X-225.110060 Y233.540856 Z-5.250000 I-4.659770 J-4.074069
G03 X-225.941000 Y234.156000 Z-5.250000 I-7.653327 J-9.469361
G03 X-226.822420 Y234.728947 Z-5.250000 I-15.413941 J-22.748310
G02 X-227.698000 Y235.311000 Z-5.250000 I9.451709 J15.167756
G02 X-228.604421 Y235.985102 Z-5.250000 I13.958054 J19.714947
G02 X-229.466000 Y236.713000 Z-5.250000 I8.980086 J11.503160
G02 X-229.829278 Y237.282712 Z-5.250000 I0.883998 J0.964361
G02 X-229.777000 Y237.966000 Z-5.250000 I0.874593 J0.276730
G02 X-229.376076 Y238.367681 Z-5.250000 I0.794633 J-0.392209
G02 X-228.708000 Y238.543000 Z-5.250000 I0.758310 J-1.529086
G02 X-227.068154 Y238.142432 Z-5.250000 I0.156416 J-2.916554
G02 X-225.720000 Y237.341000 Z-5.250000 I-110.571270 J-187.535462
G02 X-224.796282 Y236.759578 Z-5.250000 I-13.295877 J-22.147945
G03 X-223.881000 Y236.162000 Z-5.250000 I66.758206 J101.250591
G03 X-222.951564 Y235.583153 Z-5.250000 I16.814751 J25.963332
G03 X-221.995000 Y235.066000 Z-5.250000 I6.393673 J10.682948
G03 X-220.635789 Y234.639691 Z-5.250000 I2.115397 J4.364615
G02 X-219.180000 Y234.404000 Z-5.250000 I-29.025563 J-183.895482
G03 X-218.711794 Y234.460033 Z-5.250000 I0.136500 J0.843571
G02 X-218.163000 Y234.644000 Z-5.250000 I1.495365 J-3.550306
G03 X-219.268884 Y235.767578 Z-5.250000 I-1.745405 J-0.611895
G03 X-220.451000 Y236.084000 Z-5.250000 I-2.314991 J-6.282210
G02 X-221.441330 Y236.343517 Z-5.250000 I0.986955 J5.785600
G02 X-222.352000 Y236.731000 Z-5.250000 I2.842976 J7.945500
G02 X-223.231070 Y237.213952 Z-5.250000 I5.296761 J10.682692
G02 X-224.091000 Y237.747000 Z-5.250000 I25.052252 J41.375241
G02 X-225.643144 Y238.777268 Z-5.250000 I23.892975 J37.680160
G03 X-227.237000 Y239.699000 Z-5.250000 I-6.366426 J-9.169885
G03 X-228.235740 Y239.950296 Z-5.250000 I-1.130432 J-2.382415
G03 X-229.299000 Y239.857000 Z-5.250000 I-0.194467 J-3.889162
G02 X-230.940718 Y240.038108 Z-5.250000 I-0.561008 J2.446073
G02 X-232.172000 Y240.909000 Z-5.250000 I1.914746 J4.012948
G02 X-232.959370 Y241.764144 Z-5.250000 I10.205351 J10.186591
G03 X-233.790000 Y242.549000 Z-5.250000 I-3.972217 J-3.371916
G03 X-234.705285 Y243.110502 Z-5.250000 I-3.379937 J-4.482781
G03 X-235.707000 Y243.525000 Z-5.250000 I-3.831085 J-7.840893
G03 X-237.424971 Y243.886818 Z-5.250000 I-2.325425 J-6.781983
G03 X-239.175000 Y243.855000 Z-5.250000 I-0.721116 J-8.480498
G03 X-240.743185 Y243.569347 Z-5.250000 I1.620431 J-13.343240
G02 X-242.310000 Y243.241000 Z-5.250000 I-5.766351 J23.613573
G02 X-243.437736 Y243.070333 Z-5.250000 I-4.049608 J22.947777
G02 X-244.573000 Y242.962000 Z-5.250000 I-2.338196 J18.500278
G02 X-245.220317 Y243.143190 Z-5.250000 I-0.067564 J1.005514
G02 X-245.574000 Y243.719000 Z-5.250000 I0.490984 J0.698107
G02 X-245.567412 Y244.321846 Z-5.250000 I1.907357 J0.280613
G02 X-245.103000 Y244.998000 Z-5.250000 I0.961824 J-0.163055
G02 X-244.108759 Y245.504505 Z-5.250000 I4.366445 J-7.342011
G02 X-243.105000 Y245.867000 Z-5.250000 I3.557320 J-8.279359
G02 X-242.051980 Y246.114542 Z-5.250000 I2.736601 J-9.277747
G02 X-240.958000 Y246.257000 Z-5.250000 I2.113087 J-11.955321
G02 X-239.543342 Y246.355609 Z-5.250000 I3.927726 J-46.150778
G02 X-238.128000 Y246.376000 Z-5.250000 I0.963198 J-17.726265
G02 X-237.050581 Y246.330975 Z-5.250000 I-0.931726 J-35.209420
G02 X-235.981000 Y246.232000 Z-5.250000 I-0.870524 J-15.236058
G02 X-234.929045 Y246.047268 Z-5.250000 I-1.534543 J-11.825990
G02 X-233.888000 Y245.744000 Z-5.250000 I-1.814996 J-8.168898
G02 X-232.280593 Y244.935341 Z-5.250000 I-2.626264 J-7.222226
G02 X-230.854000 Y243.792000 Z-5.250000 I-5.471294 J-8.288435
G03 X-230.011665 Y243.057437 Z-5.250000 I7.563067 J7.822450
G03 X-228.528000 Y242.709000 Z-5.250000 I1.116641 J1.421737
G02 X-228.832009 Y243.389622 Z-5.250000 I6.095106 J3.130668
G03 X-229.160000 Y243.899000 Z-5.250000 I-1.380240 J-0.528456
G03 X-229.833803 Y244.563697 Z-5.250000 I-24.901526 J-24.568766
G03 X-230.524000 Y245.214000 Z-5.250000 I-34.856524 J-36.303486
G03 X-231.225032 Y245.852908 Z-5.250000 I-44.987375 J-48.657673
G03 X-231.932000 Y246.485000 Z-5.250000 I-133.616848 J-148.733296
G03 X-232.373377 Y246.821297 Z-5.250000 I-2.401693 J-2.694337
G03 X-232.865000 Y247.040000 Z-5.250000 I-0.943014 J-1.457892
G02 X-234.582317 Y247.546821 Z-5.250000 I9.007423 J33.683709
G03 X-236.405000 Y247.769000 Z-5.250000 I-1.484768 J-4.593116
G02 X-236.867712 Y247.869480 Z-5.250000 I-0.058761 J0.845043
G03 X-237.329000 Y247.968000 Z-5.250000 I-0.397741 J-0.733116
G03 X-238.416005 Y247.877603 Z-5.250000 I7.139641 J-92.432857
G03 X-239.501000 Y247.776000 Z-5.250000 I10.703847 J-120.148551
G03 X-240.586597 Y247.664213 Z-5.250000 I15.474422 J-155.603913
G03 X-241.670000 Y247.545000 Z-5.250000 I16.517724 J-155.094990
G03 X-242.872863 Y247.365447 Z-5.250000 I1.918486 J-16.971219
G02 X-244.076000 Y247.198000 Z-5.250000 I-2.440292 J13.127842
G02 X-244.831840 Y247.342432 Z-5.250000 I-0.129088 J1.374405
G02 X-245.404000 Y247.853000 Z-5.250000 I0.684081 J1.342479
G02 X-245.477494 Y248.617967 Z-5.250000 I0.683153 J0.451648
G02 X-244.700000 Y249.374000 Z-5.250000 I1.266158 J-0.524302
G02 X-243.150108 Y249.905072 Z-5.250000 I8.258196 J-21.573736
G02 X-241.563000 Y250.243000 Z-5.250000 I2.779957 J-9.160350
G02 X-240.403183 Y250.358285 Z-5.250000 I2.686480 J-21.135466
G02 X-239.234000 Y250.425000 Z-5.250000 I2.850986 J-39.685007
G02 X-238.065881 Y250.462880 Z-5.250000 I2.763277 J-67.182179
G03 X-236.898000 Y250.494000 Z-5.250000 I-4.755361 J200.391201
G02 X-235.778263 Y250.481450 Z-5.250000 I0.400331 J-14.240342
G02 X-234.677000 Y250.374000 Z-5.250000 I-0.597940 J-11.825537
G02 X-233.593898 Y250.160057 Z-5.250000 I-1.553526 J-10.713466
G02 X-232.524000 Y249.825000 Z-5.250000 I-2.377335 J-9.466972
G02 X-230.888064 Y249.096685 Z-5.250000 I-5.520009 J-14.600488
G02 X-229.421000 Y247.958000 Z-5.250000 I-2.329262 J-4.515397
G03 X-228.479437 Y247.136335 Z-5.250000 I3.728690 J3.322475
G02 X-227.567000 Y246.302000 Z-5.250000 I-2.329386 J-3.463530
G02 X-226.475655 Y244.810636 Z-5.250000 I-14.172610 J-11.516173
G02 X-225.476000 Y243.247000 Z-5.250000 I-63.118783 J-41.454114
G03 X-224.768060 Y242.224742 Z-5.250000 I10.858934 J6.763828
G03 X-223.983000 Y241.311000 Z-5.250000 I8.618300 J6.610468
G03 X-223.106021 Y240.495711 Z-5.250000 I7.624937 J7.322569
G03 X-222.098000 Y239.755000 Z-5.250000 I6.818475 J8.222899
G03 X-221.215013 Y239.284044 Z-5.250000 I3.222657 J4.978874
G03 X-220.322000 Y238.954000 Z-5.250000 I3.647873 J8.497047
G03 X-219.383557 Y238.694334 Z-5.250000 I4.420345 J14.149662
G02 X-218.431000 Y238.457000 Z-5.250000 I-16.271604 J-67.337589
G02 X-217.249637 Y237.853938 Z-5.250000 I-0.755033 J-2.937707
G02 X-216.291000 Y236.977000 Z-5.250000 I-8.555032 J-10.314497
G03 X-215.139604 Y236.150186 Z-5.250000 I3.026832 J2.999967
G03 X-213.769000 Y235.710000 Z-5.250000 I2.193321 J4.475416
G03 X-212.334488 Y235.676729 Z-5.250000 I0.832525 J4.953264
G03 X-210.967000 Y236.073000 Z-5.250000 I-0.529254 J4.384055
G03 X-209.442873 Y236.802312 Z-5.250000 I-204.639040 J429.614878
G02 X-207.889000 Y237.439000 Z-5.250000 I6.147367 J-12.788496
G02 X-206.938776 Y237.584612 Z-5.250000 I0.880630 J-2.573492
G03 X-205.933000 Y237.617000 Z-5.250000 I0.222929 J8.710040
G02 X-205.549217 Y237.645732 Z-5.250000 I1.163887 J-12.969026
G03 X-205.250000 Y237.764000 Z-5.250000 I-0.030969 J0.515992
G03 X-204.950463 Y238.098461 Z-5.250000 I-0.989950 J1.187940
G03 X-204.842000 Y238.473000 Z-5.250000 I-0.545214 J0.360864
G03 X-204.987001 Y238.743800 Z-5.250000 I-0.337491 J-0.006490
G03 X-205.439000 Y238.910000 Z-5.250000 I-0.545501 J-0.785818
G03 X-206.801513 Y238.964979 Z-5.250000 I-1.176158 J-12.237330
G03 X-208.195000 Y238.678000 Z-5.250000 I0.057714 J-3.806912
G02 X-209.866757 Y238.088326 Z-5.250000 I-6.454468 J15.634155
G03 X-211.525000 Y237.475000 Z-5.250000 I3.701351 J-12.555659
G02 X-212.834981 Y237.103469 Z-5.250000 I-1.929261 J4.307187
G02 X-214.088000 Y237.274000 Z-5.250000 I-0.314618 J2.376969
G02 X-214.977596 Y237.807213 Z-5.250000 I1.483122 J3.483091
G02 X-215.732000 Y238.546000 Z-5.250000 I3.397279 J4.223661
G03 X-216.603649 Y239.341173 Z-5.250000 I-3.406643 J-2.858951
G03 X-217.519000 Y239.836000 Z-5.250000 I-2.679054 J-3.861782
G03 X-218.545498 Y240.147104 Z-5.250000 I-2.240005 J-5.541937
G03 X-219.681000 Y240.332000 Z-5.250000 I-2.715506 J-13.097555
G02 X-220.805605 Y240.596198 Z-5.250000 I0.620073 J5.165079
G02 X-221.722000 Y241.070000 Z-5.250000 I1.283689 J3.605941
G02 X-222.455679 Y241.743283 Z-5.250000 I2.206305 J3.140608
G02 X-223.113000 Y242.735000 Z-5.250000 I4.045454 J3.395068
G03 X-223.751341 Y243.930750 Z-5.250000 I-34.857210 J-17.839963
G03 X-224.450000 Y245.097000 Z-5.250000 I-18.526185 J-10.305985
G03 X-225.217303 Y246.194949 Z-5.250000 I-14.691846 J-9.450326
G03 X-226.103000 Y247.249000 Z-5.250000 I-10.866032 J-8.231357
G03 X-226.900318 Y248.056728 Z-5.250000 I-14.346750 J-13.364450
G03 X-227.725000 Y248.792000 Z-5.250000 I-10.974397 J-11.478791
G03 X-228.609856 Y249.473459 Z-5.250000 I-9.373812 J-11.256418
G03 X-229.552000 Y250.085000 Z-5.250000 I-7.679215 J-10.799152
G03 X-230.908422 Y250.739624 Z-5.250000 I-4.560625 J-7.717294
G02 X-232.302000 Y251.343000 Z-5.250000 I6.303720 J16.470306
G03 X-233.650442 Y251.855933 Z-5.250000 I-3.559118 J-7.327597
G03 X-235.002000 Y252.136000 Z-5.250000 I-2.658931 J-9.430337
G03 X-236.397542 Y252.240221 Z-5.250000 I-1.572656 J-11.662819
G03 X-237.824000 Y252.209000 Z-5.250000 I-0.290765 J-19.317721
G03 X-239.534362 Y252.038013 Z-5.250000 I1.181047 J-20.453581
G02 X-241.244000 Y251.855000 Z-5.250000 I-3.471162 J24.349433
G02 X-242.652138 Y251.793310 Z-5.250000 I-1.818223 J25.400848
G02 X-244.062000 Y251.809000 Z-5.250000 I-0.416925 J25.887221
G02 X-244.734530 Y252.137892 Z-5.250000 I0.037253 J0.928231
G02 X-245.056000 Y252.842000 Z-5.250000 I1.096964 J0.926272
G02 X-244.853461 Y253.635325 Z-5.250000 I1.024641 J0.160921
G02 X-244.302000 Y254.052000 Z-5.250000 I1.034344 J-0.795671
G02 X-243.163124 Y254.446282 Z-5.250000 I4.911125 J-12.343735
G02 X-242.009000 Y254.722000 Z-5.250000 I3.155751 J-10.656242
G02 X-240.841280 Y254.868752 Z-5.250000 I1.893498 J-10.347569
G02 X-239.630000 Y254.877000 Z-5.250000 I0.671817 J-9.714072
G03 X-238.254082 Y254.887866 Z-5.250000 I0.601460 J10.958606
G02 X-236.893000 Y254.847000 Z-5.250000 I0.478196 J-6.759783
G02 X-235.568700 Y254.666269 Z-5.250000 I-14.088002 J-108.171352
G02 X-234.244000 Y254.462000 Z-5.250000 I-8.429353 J-59.062629
G02 X-232.924907 Y254.223179 Z-5.250000 I-7.266801 J-43.899439
G02 X-231.619000 Y253.939000 Z-5.250000 I-6.416324 J-32.628020
G02 X-230.400579 Y253.583044 Z-5.250000 I-3.064042 J-12.751365
G02 X-229.223000 Y253.115000 Z-5.250000 I-4.532044 J-13.117813
G02 X-228.094097 Y252.545188 Z-5.250000 I-5.972246 J-13.235323
G02 X-227.009000 Y251.877000 Z-5.250000 I-7.611509 J-13.575782
G02 X-225.952510 Y251.094612 Z-5.250000 I-7.977223 J-11.876477
G02 X-225.004000 Y250.229000 Z-5.250000 I-7.198908 J-8.840809
G02 X-224.173689 Y249.268803 Z-5.250000 I-7.470669 J-7.299211
G02 X-223.440000 Y248.161000 Z-5.250000 I-7.862066 J-6.003839
G03 X-222.836166 Y247.153429 Z-5.250000 I22.077599 J12.546301
G03 X-222.189000 Y246.167000 Z-5.250000 I28.348320 J17.892973
G03 X-221.510481 Y245.204337 Z-5.250000 I31.686999 J21.613663
G03 X-220.810000 Y244.263000 Z-5.250000 I45.521432 J33.142763
G03 X-219.508322 Y243.111653 Z-5.250000 I3.543706 J2.694914
G03 X-217.677000 Y242.607000 Z-5.250000 I1.868530 J3.205515
G02 X-216.693486 Y242.491766 Z-5.250000 I-0.041389 J-4.607980
G02 X-215.765000 Y242.192000 Z-5.250000 I-1.234490 J-5.411486
G02 X-214.900525 Y241.746561 Z-5.250000 I-2.533833 J-5.979044
G02 X-214.083000 Y241.178000 Z-5.250000 I-4.578665 J-7.455630
G03 X-212.754717 Y240.591143 Z-5.250000 I1.821699 J2.326570
G03 X-211.213000 Y240.767000 Z-5.250000 I0.466617 J2.755185
G02 X-209.901907 Y241.260658 Z-5.250000 I8.013883 J-19.295997
G02 X-208.559000 Y241.634000 Z-5.250000 I4.036838 J-11.918565
G02 X-207.202473 Y241.839640 Z-5.250000 I2.231443 J-10.142924
G02 X-205.782000 Y241.840000 Z-5.250000 I0.712375 J-8.426011
G03 X-204.206035 Y241.730980 Z-5.250000 I4.287859 J50.538921
G02 X-202.634000 Y241.601000 Z-5.250000 I-1.454221 J-27.159361
G03 X-202.015389 Y241.756645 Z-5.250000 I0.100450 J0.907918
G03 X-201.815000 Y242.120000 Z-5.250000 I-0.263167 J0.382070
G03 X-201.964455 Y242.548627 Z-5.250000 I-0.623169 J0.023080
G03 X-202.401000 Y242.939000 Z-5.250000 I-1.675504 J-1.434398
G03 X-203.397406 Y243.412640 Z-5.250000 I-2.008128 J-2.939637
G03 X-204.399000 Y243.606000 Z-5.250000 I-1.489731 J-5.025951
G03 X-205.455081 Y243.639862 Z-5.250000 I-0.806769 J-8.675867
G02 X-206.527000 Y243.620000 Z-5.250000 I-1.520280 J53.110974
G03 X-207.700199 Y243.491379 Z-5.250000 I0.051630 J-5.885824
G03 X-208.797000 Y243.190000 Z-5.250000 I2.022807 J-9.508024
G03 X-209.876805 Y242.784393 Z-5.250000 I5.303916 J-15.760208
G02 X-210.959000 Y242.351000 Z-5.250000 I-17.087717 J41.100650
G02 X-212.264308 Y242.255052 Z-5.250000 I-0.810232 J2.095768
G02 X-213.567000 Y242.768000 Z-5.250000 I1.012310 J4.481521
G03 X-214.658205 Y243.326626 Z-5.250000 I-5.594452 J-9.582967
G03 X-215.896000 Y243.668000 Z-5.250000 I-1.757647 J-3.958329
G02 X-217.327286 Y243.942220 Z-5.250000 I1.268618 J10.493922
G02 X-218.648000 Y244.482000 Z-5.250000 I1.408819 J5.332675
G02 X-219.552359 Y245.257591 Z-5.250000 I1.551407 J2.724030
G02 X-220.297000 Y246.281000 Z-5.250000 I11.892784 J9.435896
G02 X-220.803950 Y247.117305 Z-5.250000 I9.550312 J6.361001
G02 X-221.277000 Y247.981000 Z-5.250000 I346.607000 J190.399584
G03 X-221.768075 Y248.839534 Z-5.250000 I-21.724791 J-11.856708
G03 X-222.320000 Y249.641000 Z-5.250000 I-6.577231 J-3.938598
G03 X-222.998670 Y250.442006 Z-5.250000 I-10.878830 J-8.529319
G03 X-223.736000 Y251.206000 Z-5.250000 I-14.645878 J-13.396927
G03 X-224.506442 Y251.930794 Z-5.250000 I-17.258420 J-17.573483
G03 X-225.297000 Y252.627000 Z-5.250000 I-30.975607 J-34.376575
G03 X-226.488717 Y253.481523 Z-5.250000 I-5.451205 J-6.344001
G03 X-227.774000 Y254.227000 Z-5.250000 I-43.409636 J-73.362182
G03 X-228.545539 Y254.591859 Z-5.250000 I-2.864745 J-5.059675
G03 X-229.360000 Y254.853000 Z-5.250000 I-2.656021 J-6.883069
G03 X-230.917792 Y255.188939 Z-5.250000 I-4.962620 J-19.232493
G02 X-232.467000 Y255.548000 Z-5.250000 I2.458132 J14.127522
G03 X-233.842078 Y255.880353 Z-5.250000 I-4.336947 J-14.932898
G03 X-235.214000 Y256.098000 Z-5.250000 I-3.856223 J-19.874682
G03 X-236.608985 Y256.229822 Z-5.250000 I-2.963652 J-23.915379
G03 X-238.011000 Y256.298000 Z-5.250000 I-2.760570 J-42.318729
G03 X-239.411385 Y256.328616 Z-5.250000 I-2.188614 J-68.065888
G02 X-240.816000 Y256.348000 Z-5.250000 I3.654055 J315.680432
G02 X-241.982792 Y256.485251 Z-5.250000 I0.088865 J5.783601
G03 X-243.154000 Y256.710000 Z-5.250000 I-4.428604 J-19.914236
G02 X-243.796732 Y257.098065 Z-5.250000 I0.161676 J0.994070
G02 X-244.009000 Y257.803000 Z-5.250000 I0.850055 J0.640393
G02 X-243.660895 Y258.598479 Z-5.250000 I1.255340 J-0.075436
G02 X-242.979000 Y258.947000 Z-5.250000 I0.844231 J-0.810433
G02 X-241.848003 Y259.022563 Z-5.250000 I1.093714 J-7.868372
G02 X-240.721000 Y258.928000 Z-5.250000 I-0.033621 J-7.163821
G03 X-240.170898 Y258.973730 Z-5.250000 I0.184334 J1.114137
G03 X-239.940000 Y259.233000 Z-5.250000 I-0.114483 J0.334406
G03 X-239.982127 Y259.658861 Z-5.250000 I-0.676022 J0.148141
G03 X-240.454000 Y260.079000 Z-5.250000 I-0.693497 J-0.303833
G02 X-241.245366 Y260.391362 Z-5.250000 I1.534908 J5.047306
G02 X-241.976000 Y260.828000 Z-5.250000 I2.291113 J4.663376
G02 X-242.322356 Y261.620066 Z-5.250000 I0.490030 J0.686042
G02 X-241.807000 Y262.385000 Z-5.250000 I1.016654 J-0.128875
G02 X-240.236869 Y262.769466 Z-5.250000 I1.475461 J-2.627289
G02 X-238.713000 Y262.363000 Z-5.250000 I-0.109028 J-3.468528
G02 X-237.654461 Y261.532430 Z-5.250000 I-1.810470 J-3.397221
G02 X-236.852000 Y260.410000 Z-5.250000 I-4.719861 J-4.222446
G03 X-236.289860 Y259.455098 Z-5.250000 I22.457312 J12.577444
G03 X-235.297000 Y258.740000 Z-5.250000 I1.358828 J0.839826
G03 X-234.909949 Y259.663677 Z-5.250000 I-0.946227 J0.939432
G03 X-235.237000 Y260.837000 Z-5.250000 I-2.175979 J0.025712
G03 X-235.997840 Y261.824198 Z-5.250000 I-5.310972 J-3.306413
G03 X-236.864000 Y262.589000 Z-5.250000 I-4.620735 J-4.360233
G03 X-237.856150 Y263.197507 Z-5.250000 I-4.159264 J-5.668457
G03 X-238.992000 Y263.687000 Z-5.250000 I-4.615675 J-9.147895
G02 X-239.782447 Y264.096170 Z-5.250000 I1.165252 J3.219157
G02 X-240.481000 Y264.670000 Z-5.250000 I3.244719 J4.662075
G02 X-240.705008 Y265.599812 Z-5.250000 I0.615943 J0.640281
G02 X-240.070000 Y266.314000 Z-5.250000 I1.174430 J-0.404827
G02 X-238.750516 Y266.533648 Z-5.250000 I1.036165 J-2.151447
G02 X-237.584000 Y266.236000 Z-5.250000 I-0.547130 J-4.578936
G02 X-236.708409 Y265.850532 Z-5.250000 I-5.244039 J-13.099034
G02 X-235.866000 Y265.389000 Z-5.250000 I-3.962426 J-8.231964
G02 X-235.097817 Y264.847785 Z-5.250000 I-4.079535 J-6.606136
G02 X-234.384000 Y264.183000 Z-5.250000 I-4.035517 J-5.048786
G02 X-233.602221 Y263.246553 Z-5.250000 I-9.315092 J-8.571125
G02 X-232.922000 Y262.263000 Z-5.250000 I-11.262911 J-8.516370
G02 X-232.323679 Y261.224351 Z-5.250000 I-12.871165 J-8.106176
G02 X-231.793000 Y260.129000 Z-5.250000 I-16.811957 J-8.821344
G03 X-231.372100 Y259.271035 Z-5.250000 I11.880997 J5.296348
G03 X-230.894000 Y258.443000 Z-5.250000 I13.674572 J7.343532
G03 X-230.577005 Y258.075878 Z-5.250000 I1.300604 J0.802603
G02 X-230.240000 Y257.766000 Z-5.250000 I-3.326096 J-3.955453
G03 X-229.603678 Y258.724479 Z-5.250000 I-0.622966 J1.104042
G03 X-229.681000 Y259.501000 Z-5.250000 I-1.822357 J0.210649
G03 X-230.276376 Y261.011036 Z-5.250000 I-12.715370 J-4.141021
G03 X-231.244000 Y262.402000 Z-5.250000 I-4.499077 J-2.097735
G02 X-232.443521 Y263.784041 Z-5.250000 I10.154071 J10.024645
G03 X-233.683000 Y265.101000 Z-5.250000 I-6.900755 J-5.253006
G03 X-235.038658 Y266.029336 Z-5.250000 I-4.813854 J-5.575711
G02 X-236.495000 Y266.857000 Z-5.250000 I13.988124 J26.308343
G03 X-237.688170 Y267.445582 Z-5.250000 I-3.989883 J-6.584583
G02 X-238.727000 Y268.391000 Z-5.250000 I0.711738 J1.825506
G02 X-238.688218 Y269.518990 Z-5.250000 I1.052307 J0.528481
G02 X-237.705000 Y270.069000 Z-5.250000 I0.964632 J-0.570588
G02 X-236.664997 Y269.963820 Z-5.250000 I-0.110059 J-6.282553
G02 X-235.665000 Y269.676000 Z-5.250000 I-0.991637 J-5.326415
G02 X-234.161469 Y269.046699 Z-5.250000 I-14.050085 J-35.679351
G02 X-232.786000 Y268.235000 Z-5.250000 I-2.811117 J-6.334848
G02 X-231.942093 Y267.560254 Z-5.250000 I-12.434536 J-16.417026
G02 X-231.128000 Y266.834000 Z-5.250000 I-12.683587 J-15.037048
G02 X-230.355728 Y266.063683 Z-5.250000 I-12.933632 J-13.738737
G02 X-229.639000 Y265.256000 Z-5.250000 I-12.275307 J-11.614801
G02 X-229.012111 Y264.428872 Z-5.250000 I-8.705381 J-7.249030
G02 X-228.439000 Y263.549000 Z-5.250000 I-17.034974 J-11.722434
G02 X-227.901749 Y262.650273 Z-5.250000 I-31.425015 J-19.395540
G03 X-227.373000 Y261.751000 Z-5.250000 I65.301429 J37.790449
G02 X-227.099634 Y261.107719 Z-5.250000 I-2.207423 J-1.317782
G03 X-226.909000 Y260.413000 Z-5.250000 I148.503276 J40.376474
G02 X-226.596796 Y259.195694 Z-5.250000 I-35.483527 J-9.749187
G03 X-226.283000 Y257.978000 Z-5.250000 I33.557974 J7.998514
G03 X-226.049887 Y257.211127 Z-5.250000 I15.113710 J4.175383
G03 X-225.777000 Y256.458000 Z-5.250000 I14.101026 J4.683339
G03 X-225.367009 Y256.048332 Z-5.250000 I0.673262 J0.263802
G03 X-224.855000 Y256.054000 Z-5.250000 I0.248985 J0.636925
G03 X-224.534134 Y256.321371 Z-5.250000 I-0.268347 J0.648254
G03 X-224.404000 Y256.740000 Z-5.250000 I-0.684036 J0.442179
G03 X-224.434386 Y257.965722 Z-5.250000 I-11.116035 J0.337668
G03 X-224.589000 Y259.156000 Z-5.250000 I-12.154919 J-0.973712
G03 X-224.849940 Y260.316144 Z-5.250000 I-13.520560 J-2.431631
G03 X-225.213000 Y261.501000 Z-5.250000 I-18.236338 J-4.939873
G03 X-225.703846 Y262.671944 Z-5.250000 I-9.214522 J-3.174272
G03 X-226.290000 Y263.739000 Z-5.250000 I-13.558496 J-6.753413
G03 X-226.960455 Y264.786911 Z-5.250000 I-20.272100 J-12.231689
G02 X-227.655000 Y265.820000 Z-5.250000 I144.939133 J98.192460
G03 X-228.516219 Y266.813876 Z-5.250000 I-4.313589 J-2.867760
G03 X-229.554000 Y267.673000 Z-5.250000 I-11.815125 J-13.215765
G03 X-230.325725 Y268.241804 Z-5.250000 I-17.019301 J-22.283002
G03 X-231.116000 Y268.787000 Z-5.250000 I-19.636259 J-27.617903
G03 X-231.920416 Y269.311437 Z-5.250000 I-22.265431 J-33.273060
G03 X-232.734000 Y269.819000 Z-5.250000 I-32.249157 J-50.787009
G03 X-233.492087 Y270.133511 Z-5.250000 I-1.389333 J-2.277917
G02 X-234.281000 Y270.415000 Z-5.250000 I0.955571 J3.924382
G02 X-235.556808 Y271.182533 Z-5.250000 I3.339933 J6.995805
G02 X-236.506000 Y272.411000 Z-5.250000 I1.700973 J2.295216
G02 X-236.490366 Y273.015826 Z-5.250000 I0.702939 J0.284445
G02 X-236.153000 Y273.357000 Z-5.250000 I0.645473 J-0.300882
G02 X-235.397268 Y273.588663 Z-5.250000 I1.150202 J-2.403687
G02 X-234.485000 Y273.481000 Z-5.250000 I0.258598 J-1.727627
G03 X-233.373358 Y273.060631 Z-5.250000 I9.900149 J24.500368
G03 X-232.249000 Y272.670000 Z-5.250000 I42.463301 J120.409159
